(3-16 PKTCNT INDEXER CAPACITY SLIDING PLATE)
(T3 D=0.1875 CR=0. - ZMIN=-0.175 - FLAT END MILL)
G90 G94 G91.1 G40 G49 G17
G20
G28 G91 Z0.
G90

(2D POCKET1)
T3 M6
S20000 M3
G17 G90 G94
G54
G0 X1.9819 Y47.1098
G43 Z0.8 H3
G0 Z0.1
G3 X2.0181 Y46.9642 Z0.0918 I0.0181 J-0.0728 F33.3
X1.9819 Y47.1098 Z0.0835 I-0.0181 J0.0728
X2.0181 Y46.9642 Z0.0753 I0.0181 J-0.0728
X1.9819 Y47.1098 Z0.0671 I-0.0181 J0.0728
X2.0181 Y46.9642 Z0.0589 I0.0181 J-0.0728
X1.9819 Y47.1098 Z0.0506 I-0.0181 J0.0728
X2.0181 Y46.9642 Z0.0424 I0.0181 J-0.0728
X1.9819 Y47.1098 Z0.0342 I-0.0181 J0.0728
X2.0181 Y46.9642 Z0.0259 I0.0181 J-0.0728
X1.9819 Y47.1098 Z0.0177 I-0.0181 J0.0728
X2.0181 Y46.9642 Z0.0095 I0.0181 J-0.0728
X1.9819 Y47.1098 Z0.0013 I-0.0181 J0.0728
X2.0181 Y46.9642 Z-0.007 I0.0181 J-0.0728
X1.9819 Y47.1098 Z-0.0152 I-0.0181 J0.0728
X2.0181 Y46.9642 Z-0.0234 I0.0181 J-0.0728
X1.9819 Y47.1098 Z-0.0316 I-0.0181 J0.0728
X2.0181 Y46.9642 Z-0.0399 I0.0181 J-0.0728
X1.9819 Y47.1098 Z-0.0481 I-0.0181 J0.0728
X2.0181 Y46.9642 Z-0.0563 I0.0181 J-0.0728
X1.9819 Y47.1098 Z-0.0646 I-0.0181 J0.0728
X2.0181 Y46.9642 Z-0.0728 I0.0181 J-0.0728
X1.9819 Y47.1098 Z-0.081 I-0.0181 J0.0728
X2.0181 Y46.9642 Z-0.0892 I0.0181 J-0.0728
X1.9819 Y47.1098 Z-0.0975 I-0.0181 J0.0728
X2.0181 Y46.9642 Z-0.1057 I0.0181 J-0.0728
X1.9819 Y47.1098 Z-0.1139 I-0.0181 J0.0728
X2.0181 Y46.9642 Z-0.1222 I0.0181 J-0.0728
X1.9819 Y47.1098 Z-0.1304 I-0.0181 J0.0728
X2.0181 Y46.9642 Z-0.1386 I0.0181 J-0.0728
X1.9819 Y47.1098 Z-0.1468 I-0.0181 J0.0728
X2.0181 Y46.9642 Z-0.1551 I0.0181 J-0.0728
X1.9819 Y47.1098 Z-0.1633 I-0.0181 J0.0728
X2.0181 Y46.9642 Z-0.1715 I0.0181 J-0.0728
X2.075 Y47.037 Z-0.175 I-0.0181 J0.0728
G1 Y60.8496 F75.
G3 X1.925 I-0.075 J0.
G1 Y47.037
G3 X2.075 I0.075 J0.
G2 X2.0844 Y47.0511 I0.0152 J0.
G3 X2.0938 Y47.0651 I-0.0059 J0.0141
G1 Y60.8496
G3 X1.9063 I-0.0938 J0.
G1 Y47.037
G3 X2.0938 I0.0937 J0.
G1 Y47.0651
G0 Z0.4
X4.4272 Y60.8315
Z0.1
G3 X4.5728 Y60.8677 Z0.0918 I0.0728 J0.0181 F33.3
X4.4272 Y60.8315 Z0.0835 I-0.0728 J-0.0181
X4.5728 Y60.8677 Z0.0753 I0.0728 J0.0181
X4.4272 Y60.8315 Z0.0671 I-0.0728 J-0.0181
X4.5728 Y60.8677 Z0.0589 I0.0728 J0.0181
X4.4272 Y60.8315 Z0.0506 I-0.0728 J-0.0181
X4.5728 Y60.8677 Z0.0424 I0.0728 J0.0181
X4.4272 Y60.8315 Z0.0342 I-0.0728 J-0.0181
X4.5728 Y60.8677 Z0.0259 I0.0728 J0.0181
X4.4272 Y60.8315 Z0.0177 I-0.0728 J-0.0181
X4.5728 Y60.8677 Z0.0095 I0.0728 J0.0181
X4.4272 Y60.8315 Z0.0013 I-0.0728 J-0.0181
X4.5728 Y60.8677 Z-0.007 I0.0728 J0.0181
X4.4272 Y60.8315 Z-0.0152 I-0.0728 J-0.0181
X4.5728 Y60.8677 Z-0.0234 I0.0728 J0.0181
X4.4272 Y60.8315 Z-0.0316 I-0.0728 J-0.0181
X4.5728 Y60.8677 Z-0.0399 I0.0728 J0.0181
X4.4272 Y60.8315 Z-0.0481 I-0.0728 J-0.0181
X4.5728 Y60.8677 Z-0.0563 I0.0728 J0.0181
X4.4272 Y60.8315 Z-0.0646 I-0.0728 J-0.0181
X4.5728 Y60.8677 Z-0.0728 I0.0728 J0.0181
X4.4272 Y60.8315 Z-0.081 I-0.0728 J-0.0181
X4.5728 Y60.8677 Z-0.0892 I0.0728 J0.0181
X4.4272 Y60.8315 Z-0.0975 I-0.0728 J-0.0181
X4.5728 Y60.8677 Z-0.1057 I0.0728 J0.0181
X4.4272 Y60.8315 Z-0.1139 I-0.0728 J-0.0181
X4.5728 Y60.8677 Z-0.1222 I0.0728 J0.0181
X4.4272 Y60.8315 Z-0.1304 I-0.0728 J-0.0181
X4.5728 Y60.8677 Z-0.1386 I0.0728 J0.0181
X4.4272 Y60.8315 Z-0.1468 I-0.0728 J-0.0181
X4.5728 Y60.8677 Z-0.1551 I0.0728 J0.0181
X4.4272 Y60.8315 Z-0.1633 I-0.0728 J-0.0181
X4.5728 Y60.8677 Z-0.1715 I0.0728 J0.0181
X4.5 Y60.9246 Z-0.175 I-0.0728 J-0.0181
X4.425 Y60.8496 I0. J-0.075 F75.
G1 Y47.037
G3 X4.575 I0.075 J0.
G1 Y60.8496
G3 X4.5 Y60.9246 I-0.075 J0.
G2 X4.4867 Y60.9329 I0. J0.0148
G3 X4.4723 Y60.9391 I-0.0108 J-0.0053
X4.4063 Y60.8496 I0.0277 J-0.0896
G1 Y47.037
G3 X4.5938 I0.0937 J0.
G1 Y60.8496
G3 X4.4723 Y60.9391 I-0.0937 J0.
G0 Z0.4
X4.4819 Y1.5728
Z0.1
G3 X4.5181 Y1.4272 Z0.0918 I0.0181 J-0.0728 F33.3
X4.4819 Y1.5728 Z0.0835 I-0.0181 J0.0728
X4.5181 Y1.4272 Z0.0753 I0.0181 J-0.0728
X4.4819 Y1.5728 Z0.0671 I-0.0181 J0.0728
X4.5181 Y1.4272 Z0.0589 I0.0181 J-0.0728
X4.4819 Y1.5728 Z0.0506 I-0.0181 J0.0728
X4.5181 Y1.4272 Z0.0424 I0.0181 J-0.0728
X4.4819 Y1.5728 Z0.0342 I-0.0181 J0.0728
X4.5181 Y1.4272 Z0.0259 I0.0181 J-0.0728
X4.4819 Y1.5728 Z0.0177 I-0.0181 J0.0728
X4.5181 Y1.4272 Z0.0095 I0.0181 J-0.0728
X4.4819 Y1.5728 Z0.0013 I-0.0181 J0.0728
X4.5181 Y1.4272 Z-0.007 I0.0181 J-0.0728
X4.4819 Y1.5728 Z-0.0152 I-0.0181 J0.0728
X4.5181 Y1.4272 Z-0.0234 I0.0181 J-0.0728
X4.4819 Y1.5728 Z-0.0316 I-0.0181 J0.0728
X4.5181 Y1.4272 Z-0.0399 I0.0181 J-0.0728
X4.4819 Y1.5728 Z-0.0481 I-0.0181 J0.0728
X4.5181 Y1.4272 Z-0.0563 I0.0181 J-0.0728
X4.4819 Y1.5728 Z-0.0646 I-0.0181 J0.0728
X4.5181 Y1.4272 Z-0.0728 I0.0181 J-0.0728
X4.4819 Y1.5728 Z-0.081 I-0.0181 J0.0728
X4.5181 Y1.4272 Z-0.0892 I0.0181 J-0.0728
X4.4819 Y1.5728 Z-0.0975 I-0.0181 J0.0728
X4.5181 Y1.4272 Z-0.1057 I0.0181 J-0.0728
X4.4819 Y1.5728 Z-0.1139 I-0.0181 J0.0728
X4.5181 Y1.4272 Z-0.1222 I0.0181 J-0.0728
X4.4819 Y1.5728 Z-0.1304 I-0.0181 J0.0728
X4.5181 Y1.4272 Z-0.1386 I0.0181 J-0.0728
X4.4819 Y1.5728 Z-0.1468 I-0.0181 J0.0728
X4.5181 Y1.4272 Z-0.1551 I0.0181 J-0.0728
X4.4819 Y1.5728 Z-0.1633 I-0.0181 J0.0728
X4.5181 Y1.4272 Z-0.1715 I0.0181 J-0.0728
X4.575 Y1.5 Z-0.175 I-0.0181 J0.0728
G1 Y15.3125 F75.
G3 X4.425 I-0.075 J0.
G1 Y1.5
G3 X4.575 I0.075 J0.
G2 X4.5844 Y1.5141 I0.0152 J0.
G3 X4.5938 Y1.5281 I-0.0059 J0.0141
G1 Y15.3125
G3 X4.4063 I-0.0937 J0.
G1 Y1.5
G3 X4.5938 I0.0937 J0.
G1 Y1.5281
G0 Z0.4
X1.9819 Y1.5728
Z0.1
G3 X2.0181 Y1.4272 Z0.0918 I0.0181 J-0.0728 F33.3
X1.9819 Y1.5728 Z0.0835 I-0.0181 J0.0728
X2.0181 Y1.4272 Z0.0753 I0.0181 J-0.0728
X1.9819 Y1.5728 Z0.0671 I-0.0181 J0.0728
X2.0181 Y1.4272 Z0.0589 I0.0181 J-0.0728
X1.9819 Y1.5728 Z0.0506 I-0.0181 J0.0728
X2.0181 Y1.4272 Z0.0424 I0.0181 J-0.0728
X1.9819 Y1.5728 Z0.0342 I-0.0181 J0.0728
X2.0181 Y1.4272 Z0.0259 I0.0181 J-0.0728
X1.9819 Y1.5728 Z0.0177 I-0.0181 J0.0728
X2.0181 Y1.4272 Z0.0095 I0.0181 J-0.0728
X1.9819 Y1.5728 Z0.0013 I-0.0181 J0.0728
X2.0181 Y1.4272 Z-0.007 I0.0181 J-0.0728
X1.9819 Y1.5728 Z-0.0152 I-0.0181 J0.0728
X2.0181 Y1.4272 Z-0.0234 I0.0181 J-0.0728
X1.9819 Y1.5728 Z-0.0316 I-0.0181 J0.0728
X2.0181 Y1.4272 Z-0.0399 I0.0181 J-0.0728
X1.9819 Y1.5728 Z-0.0481 I-0.0181 J0.0728
X2.0181 Y1.4272 Z-0.0563 I0.0181 J-0.0728
X1.9819 Y1.5728 Z-0.0646 I-0.0181 J0.0728
X2.0181 Y1.4272 Z-0.0728 I0.0181 J-0.0728
X1.9819 Y1.5728 Z-0.081 I-0.0181 J0.0728
X2.0181 Y1.4272 Z-0.0892 I0.0181 J-0.0728
X1.9819 Y1.5728 Z-0.0975 I-0.0181 J0.0728
X2.0181 Y1.4272 Z-0.1057 I0.0181 J-0.0728
X1.9819 Y1.5728 Z-0.1139 I-0.0181 J0.0728
X2.0181 Y1.4272 Z-0.1222 I0.0181 J-0.0728
X1.9819 Y1.5728 Z-0.1304 I-0.0181 J0.0728
X2.0181 Y1.4272 Z-0.1386 I0.0181 J-0.0728
X1.9819 Y1.5728 Z-0.1468 I-0.0181 J0.0728
X2.0181 Y1.4272 Z-0.1551 I0.0181 J-0.0728
X1.9819 Y1.5728 Z-0.1633 I-0.0181 J0.0728
X2.0181 Y1.4272 Z-0.1715 I0.0181 J-0.0728
X2.075 Y1.5 Z-0.175 I-0.0181 J0.0728
G1 Y15.3125 F75.
G3 X1.925 I-0.075 J0.
G1 Y1.5
G3 X2.075 I0.075 J0.
G2 X2.0844 Y1.5141 I0.0152 J0.
G3 X2.0938 Y1.5281 I-0.0059 J0.0141
G1 Y15.3125
G3 X1.9063 I-0.0938 J0.
G1 Y1.5
G3 X2.0938 I0.0937 J0.
G1 Y1.5281
G0 Z0.8

(2D CONTOUR3)
G0 X14.3616 Y46.87
Z0.8
Z0.1
G1 Z0.0687 F24.
X14.3614 Y46.8699 Z0.0655 F20.
X14.3606 Y46.8696 Z0.0623
X14.3593 Y46.8692 Z0.0594
X14.3575 Y46.8686 Z0.0567
X14.3553 Y46.8679 Z0.0544
X14.3527 Y46.8671 Z0.0525
X14.3499 Y46.8662 Z0.0511
X14.3469 Y46.8652 Z0.0503
X14.3438 Y46.8642 Z0.05
G42 X14.3231 Y46.8674 D3
G3 X14.3049 Y46.8321 I0.0086 J-0.0268
G2 X14.3189 Y46.7426 Z0.0496 I-0.2796 J-0.0898 F33.3
G1 Y15.607 Z-0.1021
G2 X14.1881 Y15.3626 Z-0.1035 I-0.2938 J0.
G1 X11.3663 Y13.4814 Z-0.1201
G3 X11.3189 Y13.393 Z-0.1206 I0.0589 J-0.0884
G1 Y6.3233 Z-0.155
Y0.2 F75.
G2 X11.0252 Y-0.0937 I-0.2937 J0.
G1 X5.9764
Z-0.06
X5.6014
Z-0.155 F24.
X0.2 F75.
G2 X-0.0937 Y0.2 I0. J0.2937
G1 Y31.5962
Z-0.06
Y31.9712
Z-0.155 F24.
Y62.1496 F75.
G2 X0.2 Y62.4434 I0.2937 J0.
G1 X6.8193
Z-0.06
X7.1943
Z-0.155 F24.
X11.0252 F75.
G2 X11.3189 Y62.1496 I0. J-0.2938
G1 Y48.9564
G3 X11.3662 Y48.8682 I0.1061 J0.0001
G1 X14.1881 Y46.9867
G2 X14.3189 Y46.7426 I-0.1628 J-0.2444
G1 Y30.7533
Z-0.06
Y30.3783
Z-0.155 F24.
Y15.607 F75.
G2 X14.1881 Y15.3626 I-0.2938 J0.
G1 X11.3663 Y13.4814
G3 X11.3189 Y13.393 I0.0589 J-0.0884
G1 Y6.3233
G3 X11.3471 Y6.2952 I0.0281 J0.
G1 G40 X11.3658 Y6.3046
G18 G2 X11.3846 Z-0.1363 I0. K0.0187
G0 Z0.8
G17

M5
G28 G91 Z0.
G90
G28 G91 X0. Y0.
G90
M30
