(BRITISH GUSSETS 3-16 PKT INV. WEAR)
(T3 D=0.1875 CR=0. - ZMIN=-0.155 - FLAT END MILL)
G90 G94 G91.1 G40 G49 G17
G20
G28 G91 Z0.
G90

(2D CONTOUR3 2)
T3 M6
S20000 M3
G17 G90 G94
G54
G0 X8.3388 Y9.3279
G43 Z0.8 H3
G0 Z0.1
G1 Z0.0375 F24.
Z-0.1363
Y9.3276 Z-0.1395 F20.
Y9.3268 Z-0.1427
X8.3389 Y9.3254 Z-0.1456
Y9.3235 Z-0.1483
X8.339 Y9.3212 Z-0.1506
X8.3391 Y9.3185 Z-0.1525
X8.3392 Y9.3156 Z-0.1539
X8.3394 Y9.3124 Z-0.1547
X8.3395 Y9.3092 Z-0.155
G42 X8.3308 Y9.2901 D3
G3 X8.36 Y9.263 I0.0281 J0.0011
X8.8111 Y9.7314 I-0.0176 J0.4684 F75.
X7.8736 I-0.4688 J0.
X8.36 Y9.263 I0.4688 J0.
X8.387 Y9.2922 I-0.0011 J0.0281
G1 G40 X8.377 Y9.3106
X8.3768 Y9.3138 Z-0.1547
X8.3767 Y9.317 Z-0.1539
X8.3766 Y9.3199 Z-0.1525
X8.3765 Y9.3226 Z-0.1506
X8.3764 Y9.3249 Z-0.1483
Y9.3268 Z-0.1456
X8.3763 Y9.3282 Z-0.1427
Y9.329 Z-0.1395
Y9.3293 Z-0.1363
G0 Z0.4
X8.3547 Y7.5226
Z0.1
G1 Z0.0375 F24.
Z-0.1363
G19 G2 Y7.5038 Z-0.155 J-0.0187 K0. F20.
G17
G1 G42 X8.3453 Y7.4851 D3
G3 X8.3734 Y7.4569 I0.0281 J0.
X8.8422 Y7.9257 I0. J0.4688 F75.
X7.9047 I-0.4688 J0.
X8.3734 Y7.4569 I0.4688 J0.
X8.4015 Y7.4851 I0. J0.0281
G1 G40 X8.3922 Y7.5038
G19 G3 Y7.5226 Z-0.1363 J0. K0.0187
G0 Z0.4
X8.3388 Y1.5965
Z0.1
G1 Z0.0375 F24.
Z-0.1363
Y1.5962 Z-0.1395 F20.
Y1.5953 Z-0.1427
X8.3389 Y1.594 Z-0.1456
Y1.5921 Z-0.1483
X8.339 Y1.5898 Z-0.1506
X8.3391 Y1.5871 Z-0.1525
X8.3392 Y1.5841 Z-0.1539
X8.3394 Y1.581 Z-0.1547
X8.3395 Y1.5777 Z-0.155
G17
G1 G42 X8.3308 Y1.5586 D3
G3 X8.36 Y1.5316 I0.0281 J0.0011
X8.8111 Y2. I-0.0176 J0.4684 F75.
X7.8736 I-0.4688 J0.
X8.36 Y1.5316 I0.4688 J0.
X8.387 Y1.5608 I-0.0011 J0.0281
G1 G40 X8.377 Y1.5791
X8.3768 Y1.5824 Z-0.1547
X8.3767 Y1.5856 Z-0.1539
X8.3766 Y1.5885 Z-0.1525
X8.3765 Y1.5912 Z-0.1506
X8.3764 Y1.5935 Z-0.1483
Y1.5954 Z-0.1456
X8.3763 Y1.5968 Z-0.1427
Y1.5976 Z-0.1395
Y1.5979 Z-0.1363
G0 Z0.4
X1.9341 Y6.5043
Z0.1
G1 Z0.0375 F24.
Z-0.1363
X1.9344 Y6.5044 Z-0.1395 F20.
X1.9352 Z-0.1427
X1.9366 Z-0.1456
X1.9385 Y6.5045 Z-0.1483
X1.9408 Y6.5046 Z-0.1506
X1.9435 Y6.5047 Z-0.1525
X1.9464 Y6.5048 Z-0.1539
X1.9496 Y6.5049 Z-0.1547
X1.9528 Y6.505 Z-0.155
G42 X1.9719 Y6.4964 D3
G3 X1.999 Y6.5255 I-0.0011 J0.0281
X1.0621 Y6.4903 I-0.4684 J-0.0176 F75.
X1.999 Y6.5255 I0.4684 J0.0176
X1.9698 Y6.5526 I-0.0281 J-0.0011
G1 G40 X1.9514 Y6.5425
X1.9482 Y6.5424 Z-0.1547
X1.945 Y6.5423 Z-0.1539
X1.9421 Y6.5422 Z-0.1525
X1.9394 Y6.5421 Z-0.1506
X1.9371 Y6.542 Z-0.1483
X1.9352 Y6.5419 Z-0.1456
X1.9338 Z-0.1427
X1.933 Y6.5418 Z-0.1395
X1.9327 Z-0.1363
G0 Z0.4
X2.4189 Y11.6729
Z0.1
G1 Z0.0375 F24.
Z-0.1363
G18 G2 X2.4377 Z-0.155 I0.0187 K0. F20.
G17
G1 G42 X2.4564 Y11.6635 D3
G3 X2.4846 Y11.6916 I0. J0.0281
X1.5471 I-0.4688 J0. F75.
X2.4846 I0.4688 J0.
X2.4564 Y11.7197 I-0.0281 J0.
G1 G40 X2.4377 Y11.7104
G18 G3 X2.4189 Z-0.1363 I0. K0.0187
G0 Z0.4
X2.45 Y17.5986
Z0.1
G1 Z0.0375 F24.
Z-0.1363
G2 X2.4688 Z-0.155 I0.0187 K0. F20.
G17
G1 G42 X2.4875 Y17.5892 D3
G3 X2.5156 Y17.6173 I0. J0.0281
X1.5781 I-0.4688 J0. F75.
X2.5156 I0.4688 J0.
X2.4875 Y17.6454 I-0.0281 J0.
G1 G40 X2.4688 Y17.6361
G18 G3 X2.45 Z-0.1363 I0. K0.0187
G0 Z0.4
X8.8399 Y12.7063
Z0.1
G1 Z0.0375 F24.
Z-0.1363
G19 G2 Y12.6876 Z-0.155 J-0.0188 K0. F20.
G17
G1 G42 X8.8306 Y12.6688 D3
G3 X8.8587 Y12.6407 I0.0281 J0.
X9.3274 Y13.1094 I0. J0.4688 F75.
X8.3899 I-0.4688 J0.
X8.8587 Y12.6407 I0.4688 J0.
X8.8868 Y12.6688 I0. J0.0281
G1 G40 X8.8774 Y12.6876
G19 G3 Y12.7063 Z-0.1363 J0. K0.0187
G0 Z0.8
G17

M5
G28 G91 Z0.
G90
G28 G91 X0. Y0.
G90
M30
