(BRITISH GUSSETS DRILL  PKT)
(T3 D=0.1875 CR=0. - ZMIN=-0.155 - FLAT END MILL)
(T13 D=0.191 CR=0. TAPER=118DEG - ZMIN=-0.2124 - DRILL)
G90 G94 G91.1 G40 G49 G17
G20
G28 G91 Z0.
G90

(DRILL1)
T13 M6
S2500 M3
G17 G90 G94
G54
G0 X7.9192 Y15.2969
G43 Z0.8 H13
G0 Z0.4
G98 G81 X7.9192 Y15.2969 Z-0.2124 R0.1 F20.
X8.9192
X9.9192
X9.8892 Y19.1173
X8.8892
X7.8892
X6.8892
X5.8892
X4.8892
X3.8892
X2.8892
X1.7969
X0.7969
Y15.7969
Y15.2969
Y14.7969
Y14.2969
Y13.7969
Y10.5734
Y9.5734
X1.9192 Y14.2969
Y15.2969
X2.9192
Y14.2969
X3.9192
Y14.7969
Y15.2969
X4.9192
X5.4192 Y14.7969
X4.9192 Y14.2969
X5.9192
Y15.2969
X6.9192
Y14.2969
X7.9192
X8.9192
X9.9192
X9.5923 Y10.0439
Y9.0439
Y5.8204
Y5.3204
Y4.8204
Y4.3204
Y3.8204
X8.47 Y4.3204
Y5.3204
X7.5923 Y5.2814
Y4.7814
Y4.2814
X6.5923
Y4.7814
Y5.2814
X4.47 Y5.3204
Y4.3204
X3.47
Y5.3204
X2.47
Y4.3204
X1.47
Y5.3204
X0.47
Y4.3204
X0.5 Y0.5
X1.5
X2.5
X3.5
X4.5
X5.5
X6.5
X7.5
X8.5923
X9.5923
G80
Z0.8
M0
(REMEMBER TO SWAP TO 3-16 CNT)
M5
G28 G91 Z0.
G90

(2D POCKET1)
M1
T3 M6
S20000 M3
G17 G90 G94
G54
G0 X6.1625 Y7.2599
G43 Z0.8 H3
G0 Z0.15
G1 Z0.1187 F24.
X6.1635 Y7.2608 Z0.1117 F33.3
X6.1663 Y7.2635 Z0.1057
X6.1702 Y7.2679 Z0.1016
X6.1746 Y7.2733 Z0.1
G3 X6.0306 Y7.3783 Z0.0902 I-0.072 J0.0525
X6.1746 Y7.2733 Z0.0805 I0.072 J-0.0525
X6.0306 Y7.3783 Z0.0707 I-0.072 J0.0525
X6.1746 Y7.2733 Z0.0609 I0.072 J-0.0525
X6.0306 Y7.3783 Z0.0511 I-0.072 J0.0525
X6.1746 Y7.2733 Z0.0414 I0.072 J-0.0525
X6.0306 Y7.3783 Z0.0316 I-0.072 J0.0525
X6.1746 Y7.2733 Z0.0218 I0.072 J-0.0525
X6.0306 Y7.3783 Z0.0121 I-0.072 J0.0525
X6.1746 Y7.2733 Z0.0023 I0.072 J-0.0525
X6.0306 Y7.3783 Z-0.0075 I-0.072 J0.0525
X6.1746 Y7.2733 Z-0.0172 I0.072 J-0.0525
X6.0306 Y7.3783 Z-0.027 I-0.072 J0.0525
X6.1746 Y7.2733 Z-0.0368 I0.072 J-0.0525
X6.1916 Y7.3258 Z-0.0388 I-0.072 J0.0525
G1 Y7.364 F75.
G3 X6.1805 Y7.3707 I-0.0076 J0.
G1 X6.0596 Y7.3047
X6.0583 Y7.3037
X6.0574 Y7.3023
X6.0571 Y7.3008
X6.0572 Y7.2992
X6.0578 Y7.2977
X6.0589 Y7.2966
X6.0603 Y7.2958
X6.0619 Y7.2956
X6.1789
G3 X6.1916 Y7.3083 I0. J0.0128
G1 Y7.3258
G2 X6.2226 Y7.3722 I0.0502 J0.
G3 X6.2535 Y7.4185 I-0.0193 J0.0464
G1 Y7.4682
G3 X6.2423 Y7.4748 I-0.0076 J0.
G1 X5.8173 Y7.2429
X5.8161 Y7.2419
X5.8152 Y7.2405
X5.8148 Y7.239
X5.815 Y7.2374
X5.8156 Y7.2359
X5.8167 Y7.2348
X5.8181 Y7.234
X5.8197 Y7.2337
X6.2407
G3 X6.2535 Y7.2465 I0. J0.0128
G1 Y7.4185
G2 X6.3077 Y7.4999 I0.0882 J0.
G3 X6.362 Y7.5813 I-0.0339 J0.0814
G1 Y7.651
G3 X6.3508 Y7.6576 I-0.0076 J0.
G1 X5.3921 Y7.1344
X5.3909 Y7.1334
X5.39 Y7.132
X5.3896 Y7.1305
X5.3898 Y7.1289
X5.3904 Y7.1274
X5.3915 Y7.1263
X5.3929 Y7.1255
X5.3944 Y7.1252
X6.3492
G3 X6.362 Y7.138 I0. J0.0128
G1 Y7.5813
G2 X6.4162 Y7.6626 I0.0882 J0.
G3 X6.4705 Y7.744 I-0.0339 J0.0814
G1 Y7.8338
G3 X6.4593 Y7.8405 I-0.0076 J0.
G1 X4.9669 Y7.0259
X4.9657 Y7.0249
X4.9648 Y7.0235
X4.9644 Y7.022
X4.9645 Y7.0204
X4.9652 Y7.0189
X4.9663 Y7.0178
X4.9677 Y7.017
X4.9692 Y7.0167
X6.4577
G3 X6.4705 Y7.0295 I0. J0.0128
G1 Y7.744
G2 X6.5247 Y7.8254 I0.0882 J0.
G3 X6.579 Y7.9068 I-0.0339 J0.0814
G1 Y8.0167
G3 X6.5678 Y8.0233 I-0.0076 J0.
G1 X4.5417 Y6.9174
X4.5404 Y6.9164
X4.5396 Y6.915
X4.5392 Y6.9135
X4.5393 Y6.9119
X4.54 Y6.9104
X4.541 Y6.9093
X4.5424 Y6.9085
X4.544 Y6.9082
X6.5662
G3 X6.579 Y6.921 I0. J0.0128
G1 Y7.9068
G2 X6.6332 Y7.9881 I0.0882 J0.
G3 X6.6875 Y8.0695 I-0.0339 J0.0814
G1 Y8.1995
G3 X6.6763 Y8.2062 I-0.0076 J0.
G1 X4.1165 Y6.8089
X4.1152 Y6.8079
X4.1144 Y6.8065
X4.114 Y6.805
X4.1141 Y6.8034
X4.1147 Y6.8019
X4.1158 Y6.8008
X4.1172 Y6.8
X4.1188 Y6.7997
X6.6747
G3 X6.6875 Y6.8125 I0. J0.0128
G1 Y8.0695
G2 X6.7417 Y8.1509 I0.0882 J0.
G3 X6.796 Y8.2323 I-0.0339 J0.0814
G1 Y8.3824
G3 X6.7848 Y8.389 I-0.0076 J0.
G1 X3.6913 Y6.7004
X3.69 Y6.6994
X3.6891 Y6.698
X3.6887 Y6.6965
X3.6889 Y6.6949
X3.6895 Y6.6934
X3.6906 Y6.6923
X3.692 Y6.6915
X3.6936 Y6.6912
X6.7832
G3 X6.796 Y6.704 I0. J0.0128
G1 Y8.2323
G2 X6.8502 Y8.3136 I0.0882 J0.
G3 X6.9045 Y8.395 I-0.0339 J0.0814
G1 Y8.5652
G3 X6.8933 Y8.5718 I-0.0076 J0.
G1 X3.266 Y6.5919
X3.2648 Y6.5909
X3.2639 Y6.5895
X3.2635 Y6.588
X3.2637 Y6.5864
X3.2643 Y6.5849
X3.2654 Y6.5838
X3.2668 Y6.583
X3.2684 Y6.5827
X6.8917
G3 X6.9045 Y6.5955 I0. J0.0128
G1 Y8.395
G2 X6.9587 Y8.4764 I0.0882 J0.
G3 X7.013 Y8.5578 I-0.0339 J0.0814
G1 Y8.748
G3 X7.0018 Y8.7547 I-0.0076 J0.
G1 X2.9884 Y6.5639
G3 X2.9743 Y6.5402 I0.0129 J-0.0236
G1 Y6.487
G3 X2.9871 Y6.4742 I0.0128 J0.
G1 X7.0002
G3 X7.013 Y6.487 I0. J0.0128
G1 Y8.5578
G2 X7.0672 Y8.6391 I0.0882 J0.
G3 X7.1215 Y8.7205 I-0.0339 J0.0814
G1 Y8.9309
G3 X7.1103 Y8.9375 I-0.0076 J0.
G1 X2.8799 Y6.6283
G3 X2.8658 Y6.6046 I0.0129 J-0.0236
G1 Y6.3785
G3 X2.8786 Y6.3657 I0.0128 J0.
G1 X7.1087
G3 X7.1215 Y6.3785 I0. J0.0128
G1 Y8.7205
G2 X7.1757 Y8.8019 I0.0882 J0.
G3 X7.23 Y8.8833 I-0.0339 J0.0814
G1 Y9.1137
G3 X7.2188 Y9.1204 I-0.0076 J0.
G1 X2.7714 Y6.6927
G3 X2.7573 Y6.669 I0.0129 J-0.0236
G1 Y6.27
G3 X2.7701 Y6.2572 I0.0128 J0.
G1 X7.2172
G3 X7.23 Y6.27 I0. J0.0128
G1 Y8.8833
G2 X7.2833 Y8.9633 I0.0867 J0.
G3 X7.3367 Y9.0433 I-0.0333 J0.08
G1 Y9.2629
G3 X7.2986 Y9.2855 I-0.0257 J0.
G1 X2.664 Y6.7556
G3 X2.6506 Y6.7331 I0.0123 J-0.0226
G1 Y6.1763
G3 X2.6764 Y6.1505 I0.0258 J0.
G1 X7.3109
G3 X7.3367 Y6.1763 I0. J0.0258
G1 Y9.0433
G2 X7.3919 Y9.1262 I0.0898 J0.
G3 X7.4472 Y9.2091 I-0.0345 J0.0829
G1 Y9.2629
G3 X7.2456 Y9.3825 I-0.1362 J0.
G1 X2.6111 Y6.8526
G3 X2.5401 Y6.7331 I0.0653 J-0.1196
G1 Y6.1763
G3 X2.6764 Y6.04 I0.1363 J0.
G1 X7.3109
G3 X7.4472 Y6.1763 I0. J0.1363
G1 Y9.2091
X7.4469 Y9.2114 Z-0.0383
X7.4464 Y9.2138 Z-0.0378
X7.4456 Y9.216 Z-0.0373
X7.4441 Y9.2187 Z-0.0353
X7.4422 Y9.2211 Z-0.0333
X7.4408 Y9.2225 Z-0.0302
X7.4392 Y9.2237 Z-0.0272
X7.438 Y9.2245 Z-0.02
G0 Z0.4
X8.3139 Y9.6655
Z0.15
G1 Z0.1187 F24.
X8.3149 Y9.6664 Z0.1117 F33.3
X8.3177 Y9.6692 Z0.1057
X8.3217 Y9.6735 Z0.1016
X8.326 Y9.679 Z0.1
G3 X8.182 Y9.7839 Z0.0902 I-0.072 J0.0525
X8.326 Y9.679 Z0.0805 I0.072 J-0.0525
X8.182 Y9.7839 Z0.0707 I-0.072 J0.0525
X8.326 Y9.679 Z0.0609 I0.072 J-0.0525
X8.182 Y9.7839 Z0.0511 I-0.072 J0.0525
X8.326 Y9.679 Z0.0414 I0.072 J-0.0525
X8.182 Y9.7839 Z0.0316 I-0.072 J0.0525
X8.326 Y9.679 Z0.0218 I0.072 J-0.0525
X8.182 Y9.7839 Z0.0121 I-0.072 J0.0525
X8.326 Y9.679 Z0.0023 I0.072 J-0.0525
X8.182 Y9.7839 Z-0.0075 I-0.072 J0.0525
X8.326 Y9.679 Z-0.0172 I0.072 J-0.0525
X8.182 Y9.7839 Z-0.027 I-0.072 J0.0525
X8.326 Y9.679 Z-0.0368 I0.072 J-0.0525
X8.3431 Y9.7314 Z-0.0388 I-0.072 J0.0525
G1 X8.3429 Y9.7319 F75.
X8.3423 Y9.7321
X8.3418 Y9.7319
X8.3416 Y9.7314
G3 X8.4556 I0.057 J0.
X8.2291 I-0.1132 J0.
X8.5681 I0.1695 J0.
X8.1166 I-0.2257 J0.
X8.6806 I0.282 J0.
X8.0041 I-0.3382 J0.
X8.6806 I0.3382 J0.
G2 X8.7282 Y9.8087 I0.0865 J0.
G3 X8.7608 Y9.8935 I-0.0304 J0.0603
X7.8936 Y9.7314 I-0.4185 J-0.1621
X8.7911 I0.4487 J0.
X8.7608 Y9.8935 I-0.4488 J0.
G1 X8.7592 Y9.8928
X8.3426 Y9.7409
G3 X8.1655 Y9.7219 Z-0.0485 I-0.0886 J-0.0095 F33.3
X8.3426 Y9.7409 Z-0.0583 I0.0886 J0.0095
X8.1655 Y9.7219 Z-0.0681 I-0.0886 J-0.0095
X8.3431 Y9.7314 Z-0.0775 I0.0886 J0.0095
G1 X8.3429 Y9.7319 F75.
X8.3423 Y9.7321
X8.3418 Y9.7319
X8.3416 Y9.7314
G3 X8.4556 I0.057 J0.
X8.2291 I-0.1132 J0.
X8.5681 I0.1695 J0.
X8.1166 I-0.2257 J0.
X8.6806 I0.282 J0.
X8.0041 I-0.3382 J0.
X8.6806 I0.3382 J0.
G2 X8.7282 Y9.8087 I0.0865 J0.
G3 X8.7608 Y9.8935 I-0.0304 J0.0603
X7.8936 Y9.7314 I-0.4185 J-0.1621
X8.7911 I0.4487 J0.
X8.7608 Y9.8935 I-0.4488 J0.
G1 X8.7592 Y9.8928
X8.3426 Y9.7409
G3 X8.1655 Y9.7219 Z-0.0873 I-0.0886 J-0.0095 F33.3
X8.3426 Y9.7409 Z-0.097 I0.0886 J0.0095
X8.1655 Y9.7219 Z-0.1068 I-0.0886 J-0.0095
X8.3431 Y9.7314 Z-0.1162 I0.0886 J0.0095
G1 X8.3429 Y9.7319 F75.
X8.3423 Y9.7321
X8.3418 Y9.7319
X8.3416 Y9.7314
G3 X8.4556 I0.057 J0.
X8.2291 I-0.1132 J0.
X8.5681 I0.1695 J0.
X8.1166 I-0.2257 J0.
X8.6806 I0.282 J0.
X8.0041 I-0.3382 J0.
X8.6806 I0.3382 J0.
G2 X8.7282 Y9.8087 I0.0865 J0.
G3 X8.7608 Y9.8935 I-0.0304 J0.0603
X7.8936 Y9.7314 I-0.4185 J-0.1621
X8.7911 I0.4487 J0.
X8.7608 Y9.8935 I-0.4488 J0.
G1 X8.7592 Y9.8928
X8.3426 Y9.7409
G3 X8.1655 Y9.7219 Z-0.126 I-0.0886 J-0.0095 F33.3
X8.3426 Y9.7409 Z-0.1358 I0.0886 J0.0095
X8.1655 Y9.7219 Z-0.1456 I-0.0886 J-0.0095
X8.3431 Y9.7314 Z-0.155 I0.0886 J0.0095
G1 X8.3429 Y9.7319 F75.
X8.3423 Y9.7321
X8.3418 Y9.7319
X8.3416 Y9.7314
G3 X8.4556 I0.057 J0.
X8.2291 I-0.1132 J0.
X8.5681 I0.1695 J0.
X8.1166 I-0.2257 J0.
X8.6806 I0.282 J0.
X8.0041 I-0.3382 J0.
X8.6806 I0.3382 J0.
G2 X8.7282 Y9.8087 I0.0865 J0.
G3 X8.7608 Y9.8935 I-0.0304 J0.0603
X7.8936 Y9.7314 I-0.4185 J-0.1621
X8.7911 I0.4487 J0.
X8.7608 Y9.8935 I-0.4488 J0.
G1 X8.7597 Y9.8956 Z-0.1545
X8.7584 Y9.8976 Z-0.154
X8.7568 Y9.8994 Z-0.1536
X8.7545 Y9.9013 Z-0.1515
X8.7519 Y9.9029 Z-0.1495
X8.75 Y9.9037 Z-0.1465
X8.7481 Y9.9042 Z-0.1434
X8.7467 Y9.9045 Z-0.1363
G0 Z0.4
X8.345 Y7.8598
Z0.15
G1 Z0.1187 F24.
X8.346 Y7.8607 Z0.1117 F33.3
X8.3488 Y7.8634 Z0.1057
X8.3527 Y7.8677 Z0.1016
X8.357 Y7.8732 Z0.1
G3 X8.2131 Y7.9781 Z0.0902 I-0.072 J0.0525
X8.357 Y7.8732 Z0.0805 I0.072 J-0.0525
X8.2131 Y7.9781 Z0.0707 I-0.072 J0.0525
X8.357 Y7.8732 Z0.0609 I0.072 J-0.0525
X8.2131 Y7.9781 Z0.0511 I-0.072 J0.0525
X8.357 Y7.8732 Z0.0414 I0.072 J-0.0525
X8.2131 Y7.9781 Z0.0316 I-0.072 J0.0525
X8.357 Y7.8732 Z0.0218 I0.072 J-0.0525
X8.2131 Y7.9781 Z0.0121 I-0.072 J0.0525
X8.357 Y7.8732 Z0.0023 I0.072 J-0.0525
X8.2131 Y7.9781 Z-0.0075 I-0.072 J0.0525
X8.357 Y7.8732 Z-0.0172 I0.072 J-0.0525
X8.2131 Y7.9781 Z-0.027 I-0.072 J0.0525
X8.357 Y7.8732 Z-0.0368 I0.072 J-0.0525
X8.3741 Y7.9257 Z-0.0388 I-0.072 J0.0525
G1 X8.3739 Y7.9262 F75.
X8.3734 Y7.9264
X8.3729 Y7.9262
X8.3727 Y7.9257
G3 X8.4866 I0.057 J0.
X8.2602 I-0.1132 J0.
X8.5991 I0.1695 J0.
X8.1477 I-0.2257 J0.
X8.7116 I0.282 J0.
X8.0352 I-0.3382 J0.
X8.7116 I0.3382 J0.
G2 X8.7593 Y8.003 I0.0865 J0.
G3 X8.7919 Y8.0877 I-0.0304 J0.0603
X7.9247 Y7.9257 I-0.4185 J-0.1621
X8.8222 I0.4487 J0.
X8.7919 Y8.0877 I-0.4488 J0.
G1 X8.7902 Y8.0871
X8.3736 Y7.9352
G3 X8.1965 Y7.9161 Z-0.0485 I-0.0886 J-0.0095 F33.3
X8.3736 Y7.9352 Z-0.0583 I0.0886 J0.0095
X8.1965 Y7.9161 Z-0.0681 I-0.0886 J-0.0095
X8.3741 Y7.9257 Z-0.0775 I0.0886 J0.0095
G1 X8.3739 Y7.9262 F75.
X8.3734 Y7.9264
X8.3729 Y7.9262
X8.3727 Y7.9257
G3 X8.4866 I0.057 J0.
X8.2602 I-0.1132 J0.
X8.5991 I0.1695 J0.
X8.1477 I-0.2257 J0.
X8.7116 I0.282 J0.
X8.0352 I-0.3382 J0.
X8.7116 I0.3382 J0.
G2 X8.7593 Y8.003 I0.0865 J0.
G3 X8.7919 Y8.0877 I-0.0304 J0.0603
X7.9247 Y7.9257 I-0.4185 J-0.1621
X8.8222 I0.4487 J0.
X8.7919 Y8.0877 I-0.4488 J0.
G1 X8.7902 Y8.0871
X8.3736 Y7.9352
G3 X8.1965 Y7.9161 Z-0.0873 I-0.0886 J-0.0095 F33.3
X8.3736 Y7.9352 Z-0.097 I0.0886 J0.0095
X8.1965 Y7.9161 Z-0.1068 I-0.0886 J-0.0095
X8.3741 Y7.9257 Z-0.1162 I0.0886 J0.0095
G1 X8.3739 Y7.9262 F75.
X8.3734 Y7.9264
X8.3729 Y7.9262
X8.3727 Y7.9257
G3 X8.4866 I0.057 J0.
X8.2602 I-0.1132 J0.
X8.5991 I0.1695 J0.
X8.1477 I-0.2257 J0.
X8.7116 I0.282 J0.
X8.0352 I-0.3382 J0.
X8.7116 I0.3382 J0.
G2 X8.7593 Y8.003 I0.0865 J0.
G3 X8.7919 Y8.0877 I-0.0304 J0.0603
X7.9247 Y7.9257 I-0.4185 J-0.1621
X8.8222 I0.4487 J0.
X8.7919 Y8.0877 I-0.4488 J0.
G1 X8.7902 Y8.0871
X8.3736 Y7.9352
G3 X8.1965 Y7.9161 Z-0.126 I-0.0886 J-0.0095 F33.3
X8.3736 Y7.9352 Z-0.1358 I0.0886 J0.0095
X8.1965 Y7.9161 Z-0.1456 I-0.0886 J-0.0095
X8.3741 Y7.9257 Z-0.155 I0.0886 J0.0095
G1 X8.3739 Y7.9262 F75.
X8.3734 Y7.9264
X8.3729 Y7.9262
X8.3727 Y7.9257
G3 X8.4866 I0.057 J0.
X8.2602 I-0.1132 J0.
X8.5991 I0.1695 J0.
X8.1477 I-0.2257 J0.
X8.7116 I0.282 J0.
X8.0352 I-0.3382 J0.
X8.7116 I0.3382 J0.
G2 X8.7593 Y8.003 I0.0865 J0.
G3 X8.7919 Y8.0877 I-0.0304 J0.0603
X7.9247 Y7.9257 I-0.4185 J-0.1621
X8.8222 I0.4487 J0.
X8.7919 Y8.0877 I-0.4488 J0.
G1 X8.7908 Y8.0898 Z-0.1545
X8.7895 Y8.0918 Z-0.154
X8.7879 Y8.0936 Z-0.1536
X8.7856 Y8.0956 Z-0.1515
X8.783 Y8.0971 Z-0.1495
X8.7811 Y8.0979 Z-0.1465
X8.7791 Y8.0985 Z-0.1434
X8.7777 Y8.0987 Z-0.1363
G0 Z0.4
X6.1625 Y7.2599
Z0.15
G1 Z0.08 F24.
X6.1635 Y7.2608 Z0.073 F33.3
X6.1663 Y7.2635 Z0.067
X6.1702 Y7.2679 Z0.0629
X6.1746 Y7.2733 Z0.0613
G3 X6.0306 Y7.3783 Z0.0515 I-0.072 J0.0525
X6.1746 Y7.2733 Z0.0417 I0.072 J-0.0525
X6.0306 Y7.3783 Z0.0319 I-0.072 J0.0525
X6.1746 Y7.2733 Z0.0222 I0.072 J-0.0525
X6.0306 Y7.3783 Z0.0124 I-0.072 J0.0525
X6.1746 Y7.2733 Z0.0026 I0.072 J-0.0525
X6.0306 Y7.3783 Z-0.0071 I-0.072 J0.0525
X6.1746 Y7.2733 Z-0.0169 I0.072 J-0.0525
X6.0306 Y7.3783 Z-0.0267 I-0.072 J0.0525
X6.1746 Y7.2733 Z-0.0365 I0.072 J-0.0525
X6.0306 Y7.3783 Z-0.0462 I-0.072 J0.0525
X6.1746 Y7.2733 Z-0.056 I0.072 J-0.0525
X6.0306 Y7.3783 Z-0.0658 I-0.072 J0.0525
X6.1746 Y7.2733 Z-0.0755 I0.072 J-0.0525
X6.1916 Y7.3258 Z-0.0775 I-0.072 J0.0525
G1 Y7.364 F75.
G3 X6.1805 Y7.3707 I-0.0076 J0.
G1 X6.0596 Y7.3047
X6.0583 Y7.3037
X6.0574 Y7.3023
X6.0571 Y7.3008
X6.0572 Y7.2992
X6.0578 Y7.2977
X6.0589 Y7.2966
X6.0603 Y7.2958
X6.0619 Y7.2956
X6.1789
G3 X6.1916 Y7.3083 I0. J0.0128
G1 Y7.3258
G2 X6.2226 Y7.3722 I0.0502 J0.
G3 X6.2535 Y7.4185 I-0.0193 J0.0464
G1 Y7.4682
G3 X6.2423 Y7.4748 I-0.0076 J0.
G1 X5.8173 Y7.2429
X5.8161 Y7.2419
X5.8152 Y7.2405
X5.8148 Y7.239
X5.815 Y7.2374
X5.8156 Y7.2359
X5.8167 Y7.2348
X5.8181 Y7.234
X5.8197 Y7.2337
X6.2407
G3 X6.2535 Y7.2465 I0. J0.0128
G1 Y7.4185
G2 X6.3077 Y7.4999 I0.0882 J0.
G3 X6.362 Y7.5813 I-0.0339 J0.0814
G1 Y7.651
G3 X6.3508 Y7.6576 I-0.0076 J0.
G1 X5.3921 Y7.1344
X5.3909 Y7.1334
X5.39 Y7.132
X5.3896 Y7.1305
X5.3898 Y7.1289
X5.3904 Y7.1274
X5.3915 Y7.1263
X5.3929 Y7.1255
X5.3944 Y7.1252
X6.3492
G3 X6.362 Y7.138 I0. J0.0128
G1 Y7.5813
G2 X6.4162 Y7.6626 I0.0882 J0.
G3 X6.4705 Y7.744 I-0.0339 J0.0814
G1 Y7.8338
G3 X6.4593 Y7.8405 I-0.0076 J0.
G1 X4.9669 Y7.0259
X4.9657 Y7.0249
X4.9648 Y7.0235
X4.9644 Y7.022
X4.9645 Y7.0204
X4.9652 Y7.0189
X4.9663 Y7.0178
X4.9677 Y7.017
X4.9692 Y7.0167
X6.4577
G3 X6.4705 Y7.0295 I0. J0.0128
G1 Y7.744
G2 X6.5247 Y7.8254 I0.0882 J0.
G3 X6.579 Y7.9068 I-0.0339 J0.0814
G1 Y8.0167
G3 X6.5678 Y8.0233 I-0.0076 J0.
G1 X4.5417 Y6.9174
X4.5404 Y6.9164
X4.5396 Y6.915
X4.5392 Y6.9135
X4.5393 Y6.9119
X4.54 Y6.9104
X4.541 Y6.9093
X4.5424 Y6.9085
X4.544 Y6.9082
X6.5662
G3 X6.579 Y6.921 I0. J0.0128
G1 Y7.9068
G2 X6.6332 Y7.9881 I0.0882 J0.
G3 X6.6875 Y8.0695 I-0.0339 J0.0814
G1 Y8.1995
G3 X6.6763 Y8.2062 I-0.0076 J0.
G1 X4.1165 Y6.8089
X4.1152 Y6.8079
X4.1144 Y6.8065
X4.114 Y6.805
X4.1141 Y6.8034
X4.1147 Y6.8019
X4.1158 Y6.8008
X4.1172 Y6.8
X4.1188 Y6.7997
X6.6747
G3 X6.6875 Y6.8125 I0. J0.0128
G1 Y8.0695
G2 X6.7417 Y8.1509 I0.0882 J0.
G3 X6.796 Y8.2323 I-0.0339 J0.0814
G1 Y8.3824
G3 X6.7848 Y8.389 I-0.0076 J0.
G1 X3.6913 Y6.7004
X3.69 Y6.6994
X3.6891 Y6.698
X3.6887 Y6.6965
X3.6889 Y6.6949
X3.6895 Y6.6934
X3.6906 Y6.6923
X3.692 Y6.6915
X3.6936 Y6.6912
X6.7832
G3 X6.796 Y6.704 I0. J0.0128
G1 Y8.2323
G2 X6.8502 Y8.3136 I0.0882 J0.
G3 X6.9045 Y8.395 I-0.0339 J0.0814
G1 Y8.5652
G3 X6.8933 Y8.5718 I-0.0076 J0.
G1 X3.266 Y6.5919
X3.2648 Y6.5909
X3.2639 Y6.5895
X3.2635 Y6.588
X3.2637 Y6.5864
X3.2643 Y6.5849
X3.2654 Y6.5838
X3.2668 Y6.583
X3.2684 Y6.5827
X6.8917
G3 X6.9045 Y6.5955 I0. J0.0128
G1 Y8.395
G2 X6.9587 Y8.4764 I0.0882 J0.
G3 X7.013 Y8.5578 I-0.0339 J0.0814
G1 Y8.748
G3 X7.0018 Y8.7547 I-0.0076 J0.
G1 X2.9884 Y6.5639
G3 X2.9743 Y6.5402 I0.0129 J-0.0236
G1 Y6.487
G3 X2.9871 Y6.4742 I0.0128 J0.
G1 X7.0002
G3 X7.013 Y6.487 I0. J0.0128
G1 Y8.5578
G2 X7.0672 Y8.6391 I0.0882 J0.
G3 X7.1215 Y8.7205 I-0.0339 J0.0814
G1 Y8.9309
G3 X7.1103 Y8.9375 I-0.0076 J0.
G1 X2.8799 Y6.6283
G3 X2.8658 Y6.6046 I0.0129 J-0.0236
G1 Y6.3785
G3 X2.8786 Y6.3657 I0.0128 J0.
G1 X7.1087
G3 X7.1215 Y6.3785 I0. J0.0128
G1 Y8.7205
G2 X7.1757 Y8.8019 I0.0882 J0.
G3 X7.23 Y8.8833 I-0.0339 J0.0814
G1 Y9.1137
G3 X7.2188 Y9.1204 I-0.0076 J0.
G1 X2.7714 Y6.6927
G3 X2.7573 Y6.669 I0.0129 J-0.0236
G1 Y6.27
G3 X2.7701 Y6.2572 I0.0128 J0.
G1 X7.2172
G3 X7.23 Y6.27 I0. J0.0128
G1 Y8.8833
G2 X7.2833 Y8.9633 I0.0867 J0.
G3 X7.3367 Y9.0433 I-0.0333 J0.08
G1 Y9.2629
G3 X7.2986 Y9.2855 I-0.0257 J0.
G1 X2.664 Y6.7556
G3 X2.6506 Y6.7331 I0.0123 J-0.0226
G1 Y6.1763
G3 X2.6764 Y6.1505 I0.0258 J0.
G1 X7.3109
G3 X7.3367 Y6.1763 I0. J0.0258
G1 Y9.0433
G2 X7.3919 Y9.1262 I0.0898 J0.
G3 X7.4472 Y9.2091 I-0.0345 J0.0829
G1 Y9.2629
G3 X7.2456 Y9.3825 I-0.1362 J0.
G1 X2.6111 Y6.8526
G3 X2.5401 Y6.7331 I0.0653 J-0.1196
G1 Y6.1763
G3 X2.6764 Y6.04 I0.1363 J0.
G1 X7.3109
G3 X7.4472 Y6.1763 I0. J0.1363
G1 Y9.2091
X7.4469 Y9.2114 Z-0.077
X7.4464 Y9.2138 Z-0.0765
X7.4456 Y9.216 Z-0.0761
X7.4441 Y9.2187 Z-0.074
X7.4422 Y9.2211 Z-0.072
X7.4408 Y9.2225 Z-0.069
X7.4392 Y9.2237 Z-0.0659
X7.438 Y9.2245 Z-0.0588
G0 Z0.4
X6.1625 Y7.2599
Z0.15
G1 Z0.0412 F24.
X6.1635 Y7.2608 Z0.0342 F33.3
X6.1663 Y7.2635 Z0.0282
X6.1702 Y7.2679 Z0.0241
X6.1746 Y7.2733 Z0.0225
G3 X6.0306 Y7.3783 Z0.0127 I-0.072 J0.0525
X6.1746 Y7.2733 Z0.003 I0.072 J-0.0525
X6.0306 Y7.3783 Z-0.0068 I-0.072 J0.0525
X6.1746 Y7.2733 Z-0.0166 I0.072 J-0.0525
X6.0306 Y7.3783 Z-0.0264 I-0.072 J0.0525
X6.1746 Y7.2733 Z-0.0361 I0.072 J-0.0525
X6.0306 Y7.3783 Z-0.0459 I-0.072 J0.0525
X6.1746 Y7.2733 Z-0.0557 I0.072 J-0.0525
X6.0306 Y7.3783 Z-0.0654 I-0.072 J0.0525
X6.1746 Y7.2733 Z-0.0752 I0.072 J-0.0525
X6.0306 Y7.3783 Z-0.085 I-0.072 J0.0525
X6.1746 Y7.2733 Z-0.0947 I0.072 J-0.0525
X6.0306 Y7.3783 Z-0.1045 I-0.072 J0.0525
X6.1746 Y7.2733 Z-0.1143 I0.072 J-0.0525
X6.1916 Y7.3258 Z-0.1162 I-0.072 J0.0525
G1 Y7.364 F75.
G3 X6.1805 Y7.3707 I-0.0076 J0.
G1 X6.0596 Y7.3047
X6.0583 Y7.3037
X6.0574 Y7.3023
X6.0571 Y7.3008
X6.0572 Y7.2992
X6.0578 Y7.2977
X6.0589 Y7.2966
X6.0603 Y7.2958
X6.0619 Y7.2956
X6.1789
G3 X6.1916 Y7.3083 I0. J0.0128
G1 Y7.3258
G2 X6.2226 Y7.3722 I0.0502 J0.
G3 X6.2535 Y7.4185 I-0.0193 J0.0464
G1 Y7.4682
G3 X6.2423 Y7.4748 I-0.0076 J0.
G1 X5.8173 Y7.2429
X5.8161 Y7.2419
X5.8152 Y7.2405
X5.8148 Y7.239
X5.815 Y7.2374
X5.8156 Y7.2359
X5.8167 Y7.2348
X5.8181 Y7.234
X5.8197 Y7.2337
X6.2407
G3 X6.2535 Y7.2465 I0. J0.0128
G1 Y7.4185
G2 X6.3077 Y7.4999 I0.0882 J0.
G3 X6.362 Y7.5813 I-0.0339 J0.0814
G1 Y7.651
G3 X6.3508 Y7.6576 I-0.0076 J0.
G1 X5.3921 Y7.1344
X5.3909 Y7.1334
X5.39 Y7.132
X5.3896 Y7.1305
X5.3898 Y7.1289
X5.3904 Y7.1274
X5.3915 Y7.1263
X5.3929 Y7.1255
X5.3944 Y7.1252
X6.3492
G3 X6.362 Y7.138 I0. J0.0128
G1 Y7.5813
G2 X6.4162 Y7.6626 I0.0882 J0.
G3 X6.4705 Y7.744 I-0.0339 J0.0814
G1 Y7.8338
G3 X6.4593 Y7.8405 I-0.0076 J0.
G1 X4.9669 Y7.0259
X4.9657 Y7.0249
X4.9648 Y7.0235
X4.9644 Y7.022
X4.9645 Y7.0204
X4.9652 Y7.0189
X4.9663 Y7.0178
X4.9677 Y7.017
X4.9692 Y7.0167
X6.4577
G3 X6.4705 Y7.0295 I0. J0.0128
G1 Y7.744
G2 X6.5247 Y7.8254 I0.0882 J0.
G3 X6.579 Y7.9068 I-0.0339 J0.0814
G1 Y8.0167
G3 X6.5678 Y8.0233 I-0.0076 J0.
G1 X4.5417 Y6.9174
X4.5404 Y6.9164
X4.5396 Y6.915
X4.5392 Y6.9135
X4.5393 Y6.9119
X4.54 Y6.9104
X4.541 Y6.9093
X4.5424 Y6.9085
X4.544 Y6.9082
X6.5662
G3 X6.579 Y6.921 I0. J0.0128
G1 Y7.9068
G2 X6.6332 Y7.9881 I0.0882 J0.
G3 X6.6875 Y8.0695 I-0.0339 J0.0814
G1 Y8.1995
G3 X6.6763 Y8.2062 I-0.0076 J0.
G1 X4.1165 Y6.8089
X4.1152 Y6.8079
X4.1144 Y6.8065
X4.114 Y6.805
X4.1141 Y6.8034
X4.1147 Y6.8019
X4.1158 Y6.8008
X4.1172 Y6.8
X4.1188 Y6.7997
X6.6747
G3 X6.6875 Y6.8125 I0. J0.0128
G1 Y8.0695
G2 X6.7417 Y8.1509 I0.0882 J0.
G3 X6.796 Y8.2323 I-0.0339 J0.0814
G1 Y8.3824
G3 X6.7848 Y8.389 I-0.0076 J0.
G1 X3.6913 Y6.7004
X3.69 Y6.6994
X3.6891 Y6.698
X3.6887 Y6.6965
X3.6889 Y6.6949
X3.6895 Y6.6934
X3.6906 Y6.6923
X3.692 Y6.6915
X3.6936 Y6.6912
X6.7832
G3 X6.796 Y6.704 I0. J0.0128
G1 Y8.2323
G2 X6.8502 Y8.3136 I0.0882 J0.
G3 X6.9045 Y8.395 I-0.0339 J0.0814
G1 Y8.5652
G3 X6.8933 Y8.5718 I-0.0076 J0.
G1 X3.266 Y6.5919
X3.2648 Y6.5909
X3.2639 Y6.5895
X3.2635 Y6.588
X3.2637 Y6.5864
X3.2643 Y6.5849
X3.2654 Y6.5838
X3.2668 Y6.583
X3.2684 Y6.5827
X6.8917
G3 X6.9045 Y6.5955 I0. J0.0128
G1 Y8.395
G2 X6.9587 Y8.4764 I0.0882 J0.
G3 X7.013 Y8.5578 I-0.0339 J0.0814
G1 Y8.748
G3 X7.0018 Y8.7547 I-0.0076 J0.
G1 X2.9884 Y6.5639
G3 X2.9743 Y6.5402 I0.0129 J-0.0236
G1 Y6.487
G3 X2.9871 Y6.4742 I0.0128 J0.
G1 X7.0002
G3 X7.013 Y6.487 I0. J0.0128
G1 Y8.5578
G2 X7.0672 Y8.6391 I0.0882 J0.
G3 X7.1215 Y8.7205 I-0.0339 J0.0814
G1 Y8.9309
G3 X7.1103 Y8.9375 I-0.0076 J0.
G1 X2.8799 Y6.6283
G3 X2.8658 Y6.6046 I0.0129 J-0.0236
G1 Y6.3785
G3 X2.8786 Y6.3657 I0.0128 J0.
G1 X7.1087
G3 X7.1215 Y6.3785 I0. J0.0128
G1 Y8.7205
G2 X7.1757 Y8.8019 I0.0882 J0.
G3 X7.23 Y8.8833 I-0.0339 J0.0814
G1 Y9.1137
G3 X7.2188 Y9.1204 I-0.0076 J0.
G1 X2.7714 Y6.6927
G3 X2.7573 Y6.669 I0.0129 J-0.0236
G1 Y6.27
G3 X2.7701 Y6.2572 I0.0128 J0.
G1 X7.2172
G3 X7.23 Y6.27 I0. J0.0128
G1 Y8.8833
G2 X7.2833 Y8.9633 I0.0867 J0.
G3 X7.3367 Y9.0433 I-0.0333 J0.08
G1 Y9.2629
G3 X7.2986 Y9.2855 I-0.0257 J0.
G1 X2.664 Y6.7556
G3 X2.6506 Y6.7331 I0.0123 J-0.0226
G1 Y6.1763
G3 X2.6764 Y6.1505 I0.0258 J0.
G1 X7.3109
G3 X7.3367 Y6.1763 I0. J0.0258
G1 Y9.0433
G2 X7.3919 Y9.1262 I0.0898 J0.
G3 X7.4472 Y9.2091 I-0.0345 J0.0829
G1 Y9.2629
G3 X7.2456 Y9.3825 I-0.1362 J0.
G1 X2.6111 Y6.8526
G3 X2.5401 Y6.7331 I0.0653 J-0.1196
G1 Y6.1763
G3 X2.6764 Y6.04 I0.1363 J0.
G1 X7.3109
G3 X7.4472 Y6.1763 I0. J0.1363
G1 Y9.2091
X7.4469 Y9.2114 Z-0.1158
X7.4464 Y9.2138 Z-0.1153
X7.4456 Y9.216 Z-0.1148
X7.4441 Y9.2187 Z-0.1128
X7.4422 Y9.2211 Z-0.1108
X7.4408 Y9.2225 Z-0.1077
X7.4392 Y9.2237 Z-0.1047
X7.438 Y9.2245 Z-0.0975
G0 Z0.4
X6.1625 Y7.2599
Z0.15
G1 Z0.0047 F24.
Z0.0025 F20.
X6.1635 Y7.2608 Z-0.0045 F33.3
X6.1663 Y7.2635 Z-0.0105
X6.1702 Y7.2679 Z-0.0146
X6.1746 Y7.2733 Z-0.0163
G3 X6.0306 Y7.3783 Z-0.026 I-0.072 J0.0525
X6.1746 Y7.2733 Z-0.0358 I0.072 J-0.0525
X6.0306 Y7.3783 Z-0.0456 I-0.072 J0.0525
X6.1746 Y7.2733 Z-0.0553 I0.072 J-0.0525
X6.0306 Y7.3783 Z-0.0651 I-0.072 J0.0525
X6.1746 Y7.2733 Z-0.0749 I0.072 J-0.0525
X6.0306 Y7.3783 Z-0.0846 I-0.072 J0.0525
X6.1746 Y7.2733 Z-0.0944 I0.072 J-0.0525
X6.0306 Y7.3783 Z-0.1042 I-0.072 J0.0525
X6.1746 Y7.2733 Z-0.114 I0.072 J-0.0525
X6.0306 Y7.3783 Z-0.1237 I-0.072 J0.0525
X6.1746 Y7.2733 Z-0.1335 I0.072 J-0.0525
X6.0306 Y7.3783 Z-0.1433 I-0.072 J0.0525
X6.1746 Y7.2733 Z-0.153 I0.072 J-0.0525
X6.1916 Y7.3258 Z-0.155 I-0.072 J0.0525
G1 Y7.364 F75.
G3 X6.1805 Y7.3707 I-0.0076 J0.
G1 X6.0596 Y7.3047
X6.0583 Y7.3037
X6.0574 Y7.3023
X6.0571 Y7.3008
X6.0572 Y7.2992
X6.0578 Y7.2977
X6.0589 Y7.2966
X6.0603 Y7.2958
X6.0619 Y7.2956
X6.1789
G3 X6.1916 Y7.3083 I0. J0.0128
G1 Y7.3258
G2 X6.2226 Y7.3722 I0.0502 J0.
G3 X6.2535 Y7.4185 I-0.0193 J0.0464
G1 Y7.4682
G3 X6.2423 Y7.4748 I-0.0076 J0.
G1 X5.8173 Y7.2429
X5.8161 Y7.2419
X5.8152 Y7.2405
X5.8148 Y7.239
X5.815 Y7.2374
X5.8156 Y7.2359
X5.8167 Y7.2348
X5.8181 Y7.234
X5.8197 Y7.2337
X6.2407
G3 X6.2535 Y7.2465 I0. J0.0128
G1 Y7.4185
G2 X6.3077 Y7.4999 I0.0882 J0.
G3 X6.362 Y7.5813 I-0.0339 J0.0814
G1 Y7.651
G3 X6.3508 Y7.6576 I-0.0076 J0.
G1 X5.3921 Y7.1344
X5.3909 Y7.1334
X5.39 Y7.132
X5.3896 Y7.1305
X5.3898 Y7.1289
X5.3904 Y7.1274
X5.3915 Y7.1263
X5.3929 Y7.1255
X5.3944 Y7.1252
X6.3492
G3 X6.362 Y7.138 I0. J0.0128
G1 Y7.5813
G2 X6.4162 Y7.6626 I0.0882 J0.
G3 X6.4705 Y7.744 I-0.0339 J0.0814
G1 Y7.8338
G3 X6.4593 Y7.8405 I-0.0076 J0.
G1 X4.9669 Y7.0259
X4.9657 Y7.0249
X4.9648 Y7.0235
X4.9644 Y7.022
X4.9645 Y7.0204
X4.9652 Y7.0189
X4.9663 Y7.0178
X4.9677 Y7.017
X4.9692 Y7.0167
X6.4577
G3 X6.4705 Y7.0295 I0. J0.0128
G1 Y7.744
G2 X6.5247 Y7.8254 I0.0882 J0.
G3 X6.579 Y7.9068 I-0.0339 J0.0814
G1 Y8.0167
G3 X6.5678 Y8.0233 I-0.0076 J0.
G1 X4.5417 Y6.9174
X4.5404 Y6.9164
X4.5396 Y6.915
X4.5392 Y6.9135
X4.5393 Y6.9119
X4.54 Y6.9104
X4.541 Y6.9093
X4.5424 Y6.9085
X4.544 Y6.9082
X6.5662
G3 X6.579 Y6.921 I0. J0.0128
G1 Y7.9068
G2 X6.6332 Y7.9881 I0.0882 J0.
G3 X6.6875 Y8.0695 I-0.0339 J0.0814
G1 Y8.1995
G3 X6.6763 Y8.2062 I-0.0076 J0.
G1 X4.1165 Y6.8089
X4.1152 Y6.8079
X4.1144 Y6.8065
X4.114 Y6.805
X4.1141 Y6.8034
X4.1147 Y6.8019
X4.1158 Y6.8008
X4.1172 Y6.8
X4.1188 Y6.7997
X6.6747
G3 X6.6875 Y6.8125 I0. J0.0128
G1 Y8.0695
G2 X6.7417 Y8.1509 I0.0882 J0.
G3 X6.796 Y8.2323 I-0.0339 J0.0814
G1 Y8.3824
G3 X6.7848 Y8.389 I-0.0076 J0.
G1 X3.6913 Y6.7004
X3.69 Y6.6994
X3.6891 Y6.698
X3.6887 Y6.6965
X3.6889 Y6.6949
X3.6895 Y6.6934
X3.6906 Y6.6923
X3.692 Y6.6915
X3.6936 Y6.6912
X6.7832
G3 X6.796 Y6.704 I0. J0.0128
G1 Y8.2323
G2 X6.8502 Y8.3136 I0.0882 J0.
G3 X6.9045 Y8.395 I-0.0339 J0.0814
G1 Y8.5652
G3 X6.8933 Y8.5718 I-0.0076 J0.
G1 X3.266 Y6.5919
X3.2648 Y6.5909
X3.2639 Y6.5895
X3.2635 Y6.588
X3.2637 Y6.5864
X3.2643 Y6.5849
X3.2654 Y6.5838
X3.2668 Y6.583
X3.2684 Y6.5827
X6.8917
G3 X6.9045 Y6.5955 I0. J0.0128
G1 Y8.395
G2 X6.9587 Y8.4764 I0.0882 J0.
G3 X7.013 Y8.5578 I-0.0339 J0.0814
G1 Y8.748
G3 X7.0018 Y8.7547 I-0.0076 J0.
G1 X2.9884 Y6.5639
G3 X2.9743 Y6.5402 I0.0129 J-0.0236
G1 Y6.487
G3 X2.9871 Y6.4742 I0.0128 J0.
G1 X7.0002
G3 X7.013 Y6.487 I0. J0.0128
G1 Y8.5578
G2 X7.0672 Y8.6391 I0.0882 J0.
G3 X7.1215 Y8.7205 I-0.0339 J0.0814
G1 Y8.9309
G3 X7.1103 Y8.9375 I-0.0076 J0.
G1 X2.8799 Y6.6283
G3 X2.8658 Y6.6046 I0.0129 J-0.0236
G1 Y6.3785
G3 X2.8786 Y6.3657 I0.0128 J0.
G1 X7.1087
G3 X7.1215 Y6.3785 I0. J0.0128
G1 Y8.7205
G2 X7.1757 Y8.8019 I0.0882 J0.
G3 X7.23 Y8.8833 I-0.0339 J0.0814
G1 Y9.1137
G3 X7.2188 Y9.1204 I-0.0076 J0.
G1 X2.7714 Y6.6927
G3 X2.7573 Y6.669 I0.0129 J-0.0236
G1 Y6.27
G3 X2.7701 Y6.2572 I0.0128 J0.
G1 X7.2172
G3 X7.23 Y6.27 I0. J0.0128
G1 Y8.8833
G2 X7.2833 Y8.9633 I0.0867 J0.
G3 X7.3367 Y9.0433 I-0.0333 J0.08
G1 Y9.2629
G3 X7.2986 Y9.2855 I-0.0257 J0.
G1 X2.664 Y6.7556
G3 X2.6506 Y6.7331 I0.0123 J-0.0226
G1 Y6.1763
G3 X2.6764 Y6.1505 I0.0258 J0.
G1 X7.3109
G3 X7.3367 Y6.1763 I0. J0.0258
G1 Y9.0433
G2 X7.3919 Y9.1262 I0.0898 J0.
G3 X7.4472 Y9.2091 I-0.0345 J0.0829
G1 Y9.2629
G3 X7.2456 Y9.3825 I-0.1362 J0.
G1 X2.6111 Y6.8526
G3 X2.5401 Y6.7331 I0.0653 J-0.1196
G1 Y6.1763
G3 X2.6764 Y6.04 I0.1363 J0.
G1 X7.3109
G3 X7.4472 Y6.1763 I0. J0.1363
G1 Y9.2091
X7.4469 Y9.2114 Z-0.1545
X7.4464 Y9.2138 Z-0.154
X7.4456 Y9.216 Z-0.1536
X7.4441 Y9.2187 Z-0.1515
X7.4422 Y9.2211 Z-0.1495
X7.4408 Y9.2225 Z-0.1465
X7.4392 Y9.2237 Z-0.1434
X7.438 Y9.2245 Z-0.1363
G0 Z0.4
X8.8303 Y13.0435
Z0.15
G1 Z0.1187 F24.
X8.8313 Y13.0444 Z0.1117 F33.3
X8.834 Y13.0472 Z0.1057
X8.838 Y13.0515 Z0.1016
X8.8423 Y13.0569 Z0.1
G3 X8.6984 Y13.1619 Z0.0902 I-0.072 J0.0525
X8.8423 Y13.0569 Z0.0805 I0.072 J-0.0525
X8.6984 Y13.1619 Z0.0707 I-0.072 J0.0525
X8.8423 Y13.0569 Z0.0609 I0.072 J-0.0525
X8.6984 Y13.1619 Z0.0511 I-0.072 J0.0525
X8.8423 Y13.0569 Z0.0414 I0.072 J-0.0525
X8.6984 Y13.1619 Z0.0316 I-0.072 J0.0525
X8.8423 Y13.0569 Z0.0218 I0.072 J-0.0525
X8.6984 Y13.1619 Z0.0121 I-0.072 J0.0525
X8.8423 Y13.0569 Z0.0023 I0.072 J-0.0525
X8.6984 Y13.1619 Z-0.0075 I-0.072 J0.0525
X8.8423 Y13.0569 Z-0.0172 I0.072 J-0.0525
X8.6984 Y13.1619 Z-0.027 I-0.072 J0.0525
X8.8423 Y13.0569 Z-0.0368 I0.072 J-0.0525
X8.8594 Y13.1094 Z-0.0388 I-0.072 J0.0525
G1 X8.8592 Y13.1099 F75.
X8.8587 Y13.1101
X8.8582 Y13.1099
X8.858 Y13.1094
G3 X8.9719 I0.057 J0.
X8.7455 I-0.1132 J0.
X9.0844 I0.1695 J0.
X8.633 I-0.2257 J0.
X9.1969 I0.282 J0.
X8.5205 I-0.3382 J0.
X9.1969 I0.3382 J0.
G2 X9.2445 Y13.1867 I0.0865 J0.
G3 X9.2771 Y13.2714 I-0.0304 J0.0603
X8.4099 Y13.1094 I-0.4185 J-0.1621
X9.3074 I0.4488 J0.
X9.2771 Y13.2714 I-0.4488 J0.
G1 X9.2755 Y13.2708
X8.8589 Y13.1189
G3 X8.6818 Y13.0999 Z-0.0485 I-0.0886 J-0.0095 F33.3
X8.8589 Y13.1189 Z-0.0583 I0.0886 J0.0095
X8.6818 Y13.0999 Z-0.0681 I-0.0886 J-0.0095
X8.8594 Y13.1094 Z-0.0775 I0.0886 J0.0095
G1 X8.8592 Y13.1099 F75.
X8.8587 Y13.1101
X8.8582 Y13.1099
X8.858 Y13.1094
G3 X8.9719 I0.057 J0.
X8.7455 I-0.1132 J0.
X9.0844 I0.1695 J0.
X8.633 I-0.2257 J0.
X9.1969 I0.282 J0.
X8.5205 I-0.3382 J0.
X9.1969 I0.3382 J0.
G2 X9.2445 Y13.1867 I0.0865 J0.
G3 X9.2771 Y13.2714 I-0.0304 J0.0603
X8.4099 Y13.1094 I-0.4185 J-0.1621
X9.3074 I0.4488 J0.
X9.2771 Y13.2714 I-0.4488 J0.
G1 X9.2755 Y13.2708
X8.8589 Y13.1189
G3 X8.6818 Y13.0999 Z-0.0873 I-0.0886 J-0.0095 F33.3
X8.8589 Y13.1189 Z-0.097 I0.0886 J0.0095
X8.6818 Y13.0999 Z-0.1068 I-0.0886 J-0.0095
X8.8594 Y13.1094 Z-0.1162 I0.0886 J0.0095
G1 X8.8592 Y13.1099 F75.
X8.8587 Y13.1101
X8.8582 Y13.1099
X8.858 Y13.1094
G3 X8.9719 I0.057 J0.
X8.7455 I-0.1132 J0.
X9.0844 I0.1695 J0.
X8.633 I-0.2257 J0.
X9.1969 I0.282 J0.
X8.5205 I-0.3382 J0.
X9.1969 I0.3382 J0.
G2 X9.2445 Y13.1867 I0.0865 J0.
G3 X9.2771 Y13.2714 I-0.0304 J0.0603
X8.4099 Y13.1094 I-0.4185 J-0.1621
X9.3074 I0.4488 J0.
X9.2771 Y13.2714 I-0.4488 J0.
G1 X9.2755 Y13.2708
X8.8589 Y13.1189
G3 X8.6818 Y13.0999 Z-0.126 I-0.0886 J-0.0095 F33.3
X8.8589 Y13.1189 Z-0.1358 I0.0886 J0.0095
X8.6818 Y13.0999 Z-0.1456 I-0.0886 J-0.0095
X8.8594 Y13.1094 Z-0.155 I0.0886 J0.0095
G1 X8.8592 Y13.1099 F75.
X8.8587 Y13.1101
X8.8582 Y13.1099
X8.858 Y13.1094
G3 X8.9719 I0.057 J0.
X8.7455 I-0.1132 J0.
X9.0844 I0.1695 J0.
X8.633 I-0.2257 J0.
X9.1969 I0.282 J0.
X8.5205 I-0.3382 J0.
X9.1969 I0.3382 J0.
G2 X9.2445 Y13.1867 I0.0865 J0.
G3 X9.2771 Y13.2714 I-0.0304 J0.0603
X8.4099 Y13.1094 I-0.4185 J-0.1621
X9.3074 I0.4488 J0.
X9.2771 Y13.2714 I-0.4488 J0.
G1 X9.2761 Y13.2736 Z-0.1545
X9.2748 Y13.2756 Z-0.154
X9.2732 Y13.2774 Z-0.1536
X9.2709 Y13.2793 Z-0.1515
X9.2682 Y13.2809 Z-0.1495
X9.2664 Y13.2816 Z-0.1465
X9.2644 Y13.2822 Z-0.1434
X9.263 Y13.2825 Z-0.1363
G0 Z0.4
X8.966 Y17.6471
Z0.15
G1 Z0.1187 F24.
X8.965 Y17.6481 Z0.1117 F33.3
X8.9623 Y17.6509 Z0.1057
X8.958 Y17.6548 Z0.1016
X8.9525 Y17.6591 Z0.1
G3 X8.8476 Y17.5152 Z0.0902 I-0.0525 J-0.072
X8.9525 Y17.6591 Z0.0805 I0.0525 J0.072
X8.8476 Y17.5152 Z0.0707 I-0.0525 J-0.072
X8.9525 Y17.6591 Z0.0609 I0.0525 J0.072
X8.8476 Y17.5152 Z0.0511 I-0.0525 J-0.072
X8.9525 Y17.6591 Z0.0414 I0.0525 J0.072
X8.8476 Y17.5152 Z0.0316 I-0.0525 J-0.072
X8.9525 Y17.6591 Z0.0218 I0.0525 J0.072
X8.8476 Y17.5152 Z0.0121 I-0.0525 J-0.072
X8.9525 Y17.6591 Z0.0023 I0.0525 J0.072
X8.8476 Y17.5152 Z-0.0075 I-0.0525 J-0.072
X8.9525 Y17.6591 Z-0.0172 I0.0525 J0.072
X8.8476 Y17.5152 Z-0.027 I-0.0525 J-0.072
X8.9525 Y17.6591 Z-0.0368 I0.0525 J0.072
X8.9001 Y17.6762 Z-0.0388 I-0.0525 J-0.072
G1 X8.6419 F75.
X8.6404 Y17.676
X8.639 Y17.6752
X8.6381 Y17.674
X8.6376 Y17.6726
Y17.6711
X8.6381 Y17.6697
X8.6391 Y17.6685
X8.6404 Y17.6678
X8.9364 Y17.5646
G3 X8.9481 Y17.573 I0.0029 J0.0083
G1 Y17.6635
G3 X8.9354 Y17.6762 I-0.0128 J0.
G1 X8.9001
G2 X8.8231 Y17.7276 I0. J0.0834
G3 X8.7461 Y17.7789 I-0.077 J-0.0321
G1 X8.0354
X8.0339 Y17.7786
X8.0325 Y17.7779
X8.0316 Y17.7767
X8.0311 Y17.7753
Y17.7737
X8.0316 Y17.7723
X8.0326 Y17.7712
X8.0339 Y17.7704
X9.0391 Y17.4201
G3 X9.0508 Y17.4285 I0.0029 J0.0083
G1 Y17.7661
G3 X9.038 Y17.7789 I-0.0128 J0.
G1 X8.7461
G2 X8.6691 Y17.8302 I0. J0.0834
G3 X8.5921 Y17.8816 I-0.077 J-0.0321
G1 X7.4289
X7.4274 Y17.8813
X7.426 Y17.8805
X7.4251 Y17.8794
X7.4246 Y17.8779
Y17.8764
X7.4251 Y17.875
X7.4261 Y17.8738
X7.4274 Y17.8731
X9.1417 Y17.2756
G3 X9.1535 Y17.284 I0.0029 J0.0083
G1 Y17.8688
G3 X9.1407 Y17.8816 I-0.0128 J0.
G1 X8.5921
G2 X8.5151 Y17.9329 I0. J0.0834
G3 X8.4381 Y17.9842 I-0.077 J-0.0321
G1 X6.8224
X6.8209 Y17.984
X6.8195 Y17.9832
X6.8186 Y17.982
X6.8181 Y17.9806
Y17.9791
X6.8186 Y17.9776
X6.8196 Y17.9765
X6.8209 Y17.9757
X9.2444 Y17.1311
G3 X9.2561 Y17.1395 I0.0029 J0.0083
G1 Y17.9715
G3 X9.2433 Y17.9842 I-0.0128 J0.
G1 X8.4381
G2 X8.3611 Y18.0356 I0. J0.0834
G3 X8.2841 Y18.0869 I-0.077 J-0.0321
G1 X6.2159
X6.2144 Y18.0866
X6.213 Y18.0859
X6.2121 Y18.0847
X6.2116 Y18.0833
Y18.0817
X6.2121 Y18.0803
X6.2131 Y18.0792
X6.2144 Y18.0784
X9.347 Y16.9866
G3 X9.3588 Y16.995 I0.0029 J0.0083
G1 Y18.0741
G3 X9.346 Y18.0869 I-0.0128 J0.
G1 X8.2841
G2 X8.2071 Y18.1382 I0. J0.0834
G3 X8.1301 Y18.1895 I-0.077 J-0.0321
G1 X5.6093
X5.6078 Y18.1893
X5.6065 Y18.1885
X5.6056 Y18.1874
X5.605 Y18.1859
X5.6051 Y18.1844
X5.6056 Y18.183
X5.6066 Y18.1818
X5.6079 Y18.1811
X9.4497 Y16.8421
G3 X9.4614 Y16.8505 I0.0029 J0.0083
G1 Y18.1768
G3 X9.4487 Y18.1895 I-0.0128 J0.
G1 X8.1301
G2 X8.0531 Y18.2409 I0. J0.0834
G3 X7.9761 Y18.2922 I-0.077 J-0.0321
G1 X5.0028
X5.0013 Y18.2919
X5. Y18.2912
X4.9991 Y18.29
X4.9985 Y18.2886
X4.9986 Y18.2871
X4.9991 Y18.2856
X5.0001 Y18.2845
X5.0014 Y18.2837
X9.5524 Y16.6976
G3 X9.5641 Y16.706 I0.0029 J0.0083
G1 Y18.2794
G3 X9.5513 Y18.2922 I-0.0128 J0.
G1 X7.9761
G2 X7.9005 Y18.3426 I0. J0.082
G3 X7.8248 Y18.3931 I-0.0756 J-0.0315
G1 X4.5334
G3 X4.5249 Y18.343 I0. J-0.0258
G1 X9.6308 Y16.5635
G3 X9.665 Y16.5878 I0.0085 J0.0243
G1 Y18.3673
G3 X9.6392 Y18.3931 I-0.0258 J0.
G1 X7.8248
G2 X7.7419 Y18.4483 I0. J0.0898
G3 X7.6591 Y18.5036 I-0.0829 J-0.0345
G1 X4.5334
G3 X4.4886 Y18.2386 I0. J-0.1363
G1 X9.5944 Y16.4591
G3 X9.7755 Y16.5878 I0.0448 J0.1287
G1 Y18.3673
G3 X9.6392 Y18.5036 I-0.1363 J0.
G1 X7.6591
G3 X7.6282 Y18.331 Z-0.0439 I0. J-0.0891 F33.3
G1 X8.931 Y17.8488 Z-0.0724
G2 X8.9001 Y17.6762 Z-0.0775 I-0.0309 J-0.0835
G1 X8.6419 F75.
X8.6404 Y17.676
X8.639 Y17.6752
X8.6381 Y17.674
X8.6376 Y17.6726
Y17.6711
X8.6381 Y17.6697
X8.6391 Y17.6685
X8.6404 Y17.6678
X8.9364 Y17.5646
G3 X8.9481 Y17.573 I0.0029 J0.0083
G1 Y17.6635
G3 X8.9354 Y17.6762 I-0.0128 J0.
G1 X8.9001
G2 X8.8231 Y17.7276 I0. J0.0834
G3 X8.7461 Y17.7789 I-0.077 J-0.0321
G1 X8.0354
X8.0339 Y17.7786
X8.0325 Y17.7779
X8.0316 Y17.7767
X8.0311 Y17.7753
Y17.7737
X8.0316 Y17.7723
X8.0326 Y17.7712
X8.0339 Y17.7704
X9.0391 Y17.4201
G3 X9.0508 Y17.4285 I0.0029 J0.0083
G1 Y17.7661
G3 X9.038 Y17.7789 I-0.0128 J0.
G1 X8.7461
G2 X8.6691 Y17.8302 I0. J0.0834
G3 X8.5921 Y17.8816 I-0.077 J-0.0321
G1 X7.4289
X7.4274 Y17.8813
X7.426 Y17.8805
X7.4251 Y17.8794
X7.4246 Y17.8779
Y17.8764
X7.4251 Y17.875
X7.4261 Y17.8738
X7.4274 Y17.8731
X9.1417 Y17.2756
G3 X9.1535 Y17.284 I0.0029 J0.0083
G1 Y17.8688
G3 X9.1407 Y17.8816 I-0.0128 J0.
G1 X8.5921
G2 X8.5151 Y17.9329 I0. J0.0834
G3 X8.4381 Y17.9842 I-0.077 J-0.0321
G1 X6.8224
X6.8209 Y17.984
X6.8195 Y17.9832
X6.8186 Y17.982
X6.8181 Y17.9806
Y17.9791
X6.8186 Y17.9776
X6.8196 Y17.9765
X6.8209 Y17.9757
X9.2444 Y17.1311
G3 X9.2561 Y17.1395 I0.0029 J0.0083
G1 Y17.9715
G3 X9.2433 Y17.9842 I-0.0128 J0.
G1 X8.4381
G2 X8.3611 Y18.0356 I0. J0.0834
G3 X8.2841 Y18.0869 I-0.077 J-0.0321
G1 X6.2159
X6.2144 Y18.0866
X6.213 Y18.0859
X6.2121 Y18.0847
X6.2116 Y18.0833
Y18.0817
X6.2121 Y18.0803
X6.2131 Y18.0792
X6.2144 Y18.0784
X9.347 Y16.9866
G3 X9.3588 Y16.995 I0.0029 J0.0083
G1 Y18.0741
G3 X9.346 Y18.0869 I-0.0128 J0.
G1 X8.2841
G2 X8.2071 Y18.1382 I0. J0.0834
G3 X8.1301 Y18.1895 I-0.077 J-0.0321
G1 X5.6093
X5.6078 Y18.1893
X5.6065 Y18.1885
X5.6056 Y18.1874
X5.605 Y18.1859
X5.6051 Y18.1844
X5.6056 Y18.183
X5.6066 Y18.1818
X5.6079 Y18.1811
X9.4497 Y16.8421
G3 X9.4614 Y16.8505 I0.0029 J0.0083
G1 Y18.1768
G3 X9.4487 Y18.1895 I-0.0128 J0.
G1 X8.1301
G2 X8.0531 Y18.2409 I0. J0.0834
G3 X7.9761 Y18.2922 I-0.077 J-0.0321
G1 X5.0028
X5.0013 Y18.2919
X5. Y18.2912
X4.9991 Y18.29
X4.9985 Y18.2886
X4.9986 Y18.2871
X4.9991 Y18.2856
X5.0001 Y18.2845
X5.0014 Y18.2837
X9.5524 Y16.6976
G3 X9.5641 Y16.706 I0.0029 J0.0083
G1 Y18.2794
G3 X9.5513 Y18.2922 I-0.0128 J0.
G1 X7.9761
G2 X7.9005 Y18.3426 I0. J0.082
G3 X7.8248 Y18.3931 I-0.0756 J-0.0315
G1 X4.5334
G3 X4.5249 Y18.343 I0. J-0.0258
G1 X9.6308 Y16.5635
G3 X9.665 Y16.5878 I0.0085 J0.0243
G1 Y18.3673
G3 X9.6392 Y18.3931 I-0.0258 J0.
G1 X7.8248
G2 X7.7419 Y18.4483 I0. J0.0898
G3 X7.6591 Y18.5036 I-0.0829 J-0.0345
G1 X4.5334
G3 X4.4886 Y18.2386 I0. J-0.1363
G1 X9.5944 Y16.4591
G3 X9.7755 Y16.5878 I0.0448 J0.1287
G1 Y18.3673
G3 X9.6392 Y18.5036 I-0.1363 J0.
G1 X7.6591
G3 X7.6282 Y18.331 Z-0.0826 I0. J-0.0891 F33.3
G1 X8.931 Y17.8488 Z-0.1111
G2 X8.9001 Y17.6762 Z-0.1162 I-0.0309 J-0.0835
G1 X8.6419 F75.
X8.6404 Y17.676
X8.639 Y17.6752
X8.6381 Y17.674
X8.6376 Y17.6726
Y17.6711
X8.6381 Y17.6697
X8.6391 Y17.6685
X8.6404 Y17.6678
X8.9364 Y17.5646
G3 X8.9481 Y17.573 I0.0029 J0.0083
G1 Y17.6635
G3 X8.9354 Y17.6762 I-0.0128 J0.
G1 X8.9001
G2 X8.8231 Y17.7276 I0. J0.0834
G3 X8.7461 Y17.7789 I-0.077 J-0.0321
G1 X8.0354
X8.0339 Y17.7786
X8.0325 Y17.7779
X8.0316 Y17.7767
X8.0311 Y17.7753
Y17.7737
X8.0316 Y17.7723
X8.0326 Y17.7712
X8.0339 Y17.7704
X9.0391 Y17.4201
G3 X9.0508 Y17.4285 I0.0029 J0.0083
G1 Y17.7661
G3 X9.038 Y17.7789 I-0.0128 J0.
G1 X8.7461
G2 X8.6691 Y17.8302 I0. J0.0834
G3 X8.5921 Y17.8816 I-0.077 J-0.0321
G1 X7.4289
X7.4274 Y17.8813
X7.426 Y17.8805
X7.4251 Y17.8794
X7.4246 Y17.8779
Y17.8764
X7.4251 Y17.875
X7.4261 Y17.8738
X7.4274 Y17.8731
X9.1417 Y17.2756
G3 X9.1535 Y17.284 I0.0029 J0.0083
G1 Y17.8688
G3 X9.1407 Y17.8816 I-0.0128 J0.
G1 X8.5921
G2 X8.5151 Y17.9329 I0. J0.0834
G3 X8.4381 Y17.9842 I-0.077 J-0.0321
G1 X6.8224
X6.8209 Y17.984
X6.8195 Y17.9832
X6.8186 Y17.982
X6.8181 Y17.9806
Y17.9791
X6.8186 Y17.9776
X6.8196 Y17.9765
X6.8209 Y17.9757
X9.2444 Y17.1311
G3 X9.2561 Y17.1395 I0.0029 J0.0083
G1 Y17.9715
G3 X9.2433 Y17.9842 I-0.0128 J0.
G1 X8.4381
G2 X8.3611 Y18.0356 I0. J0.0834
G3 X8.2841 Y18.0869 I-0.077 J-0.0321
G1 X6.2159
X6.2144 Y18.0866
X6.213 Y18.0859
X6.2121 Y18.0847
X6.2116 Y18.0833
Y18.0817
X6.2121 Y18.0803
X6.2131 Y18.0792
X6.2144 Y18.0784
X9.347 Y16.9866
G3 X9.3588 Y16.995 I0.0029 J0.0083
G1 Y18.0741
G3 X9.346 Y18.0869 I-0.0128 J0.
G1 X8.2841
G2 X8.2071 Y18.1382 I0. J0.0834
G3 X8.1301 Y18.1895 I-0.077 J-0.0321
G1 X5.6093
X5.6078 Y18.1893
X5.6065 Y18.1885
X5.6056 Y18.1874
X5.605 Y18.1859
X5.6051 Y18.1844
X5.6056 Y18.183
X5.6066 Y18.1818
X5.6079 Y18.1811
X9.4497 Y16.8421
G3 X9.4614 Y16.8505 I0.0029 J0.0083
G1 Y18.1768
G3 X9.4487 Y18.1895 I-0.0128 J0.
G1 X8.1301
G2 X8.0531 Y18.2409 I0. J0.0834
G3 X7.9761 Y18.2922 I-0.077 J-0.0321
G1 X5.0028
X5.0013 Y18.2919
X5. Y18.2912
X4.9991 Y18.29
X4.9985 Y18.2886
X4.9986 Y18.2871
X4.9991 Y18.2856
X5.0001 Y18.2845
X5.0014 Y18.2837
X9.5524 Y16.6976
G3 X9.5641 Y16.706 I0.0029 J0.0083
G1 Y18.2794
G3 X9.5513 Y18.2922 I-0.0128 J0.
G1 X7.9761
G2 X7.9005 Y18.3426 I0. J0.082
G3 X7.8248 Y18.3931 I-0.0756 J-0.0315
G1 X4.5334
G3 X4.5249 Y18.343 I0. J-0.0258
G1 X9.6308 Y16.5635
G3 X9.665 Y16.5878 I0.0085 J0.0243
G1 Y18.3673
G3 X9.6392 Y18.3931 I-0.0258 J0.
G1 X7.8248
G2 X7.7419 Y18.4483 I0. J0.0898
G3 X7.6591 Y18.5036 I-0.0829 J-0.0345
G1 X4.5334
G3 X4.4886 Y18.2386 I0. J-0.1363
G1 X9.5944 Y16.4591
G3 X9.7755 Y16.5878 I0.0448 J0.1287
G1 Y18.3673
G3 X9.6392 Y18.5036 I-0.1363 J0.
G1 X7.6591
G3 X7.6282 Y18.331 Z-0.1214 I0. J-0.0891 F33.3
G1 X8.931 Y17.8488 Z-0.1499
G2 X8.9001 Y17.6762 Z-0.155 I-0.0309 J-0.0835
G1 X8.6419 F75.
X8.6404 Y17.676
X8.639 Y17.6752
X8.6381 Y17.674
X8.6376 Y17.6726
Y17.6711
X8.6381 Y17.6697
X8.6391 Y17.6685
X8.6404 Y17.6678
X8.9364 Y17.5646
G3 X8.9481 Y17.573 I0.0029 J0.0083
G1 Y17.6635
G3 X8.9354 Y17.6762 I-0.0128 J0.
G1 X8.9001
G2 X8.8231 Y17.7276 I0. J0.0834
G3 X8.7461 Y17.7789 I-0.077 J-0.0321
G1 X8.0354
X8.0339 Y17.7786
X8.0325 Y17.7779
X8.0316 Y17.7767
X8.0311 Y17.7753
Y17.7737
X8.0316 Y17.7723
X8.0326 Y17.7712
X8.0339 Y17.7704
X9.0391 Y17.4201
G3 X9.0508 Y17.4285 I0.0029 J0.0083
G1 Y17.7661
G3 X9.038 Y17.7789 I-0.0128 J0.
G1 X8.7461
G2 X8.6691 Y17.8302 I0. J0.0834
G3 X8.5921 Y17.8816 I-0.077 J-0.0321
G1 X7.4289
X7.4274 Y17.8813
X7.426 Y17.8805
X7.4251 Y17.8794
X7.4246 Y17.8779
Y17.8764
X7.4251 Y17.875
X7.4261 Y17.8738
X7.4274 Y17.8731
X9.1417 Y17.2756
G3 X9.1535 Y17.284 I0.0029 J0.0083
G1 Y17.8688
G3 X9.1407 Y17.8816 I-0.0128 J0.
G1 X8.5921
G2 X8.5151 Y17.9329 I0. J0.0834
G3 X8.4381 Y17.9842 I-0.077 J-0.0321
G1 X6.8224
X6.8209 Y17.984
X6.8195 Y17.9832
X6.8186 Y17.982
X6.8181 Y17.9806
Y17.9791
X6.8186 Y17.9776
X6.8196 Y17.9765
X6.8209 Y17.9757
X9.2444 Y17.1311
G3 X9.2561 Y17.1395 I0.0029 J0.0083
G1 Y17.9715
G3 X9.2433 Y17.9842 I-0.0128 J0.
G1 X8.4381
G2 X8.3611 Y18.0356 I0. J0.0834
G3 X8.2841 Y18.0869 I-0.077 J-0.0321
G1 X6.2159
X6.2144 Y18.0866
X6.213 Y18.0859
X6.2121 Y18.0847
X6.2116 Y18.0833
Y18.0817
X6.2121 Y18.0803
X6.2131 Y18.0792
X6.2144 Y18.0784
X9.347 Y16.9866
G3 X9.3588 Y16.995 I0.0029 J0.0083
G1 Y18.0741
G3 X9.346 Y18.0869 I-0.0128 J0.
G1 X8.2841
G2 X8.2071 Y18.1382 I0. J0.0834
G3 X8.1301 Y18.1895 I-0.077 J-0.0321
G1 X5.6093
X5.6078 Y18.1893
X5.6065 Y18.1885
X5.6056 Y18.1874
X5.605 Y18.1859
X5.6051 Y18.1844
X5.6056 Y18.183
X5.6066 Y18.1818
X5.6079 Y18.1811
X9.4497 Y16.8421
G3 X9.4614 Y16.8505 I0.0029 J0.0083
G1 Y18.1768
G3 X9.4487 Y18.1895 I-0.0128 J0.
G1 X8.1301
G2 X8.0531 Y18.2409 I0. J0.0834
G3 X7.9761 Y18.2922 I-0.077 J-0.0321
G1 X5.0028
X5.0013 Y18.2919
X5. Y18.2912
X4.9991 Y18.29
X4.9985 Y18.2886
X4.9986 Y18.2871
X4.9991 Y18.2856
X5.0001 Y18.2845
X5.0014 Y18.2837
X9.5524 Y16.6976
G3 X9.5641 Y16.706 I0.0029 J0.0083
G1 Y18.2794
G3 X9.5513 Y18.2922 I-0.0128 J0.
G1 X7.9761
G2 X7.9005 Y18.3426 I0. J0.082
G3 X7.8248 Y18.3931 I-0.0756 J-0.0315
G1 X4.5334
G3 X4.5249 Y18.343 I0. J-0.0258
G1 X9.6308 Y16.5635
G3 X9.665 Y16.5878 I0.0085 J0.0243
G1 Y18.3673
G3 X9.6392 Y18.3931 I-0.0258 J0.
G1 X7.8248
G2 X7.7419 Y18.4483 I0. J0.0898
G3 X7.6591 Y18.5036 I-0.0829 J-0.0345
G1 X4.5334
G3 X4.4886 Y18.2386 I0. J-0.1363
G1 X9.5944 Y16.4591
G3 X9.7755 Y16.5878 I0.0448 J0.1287
G1 Y18.3673
G3 X9.6392 Y18.5036 I-0.1363 J0.
G1 X7.6591
X7.6567 Y18.5034 Z-0.1545
X7.6544 Y18.5028 Z-0.154
X7.6521 Y18.502 Z-0.1536
X7.6495 Y18.5005 Z-0.1515
X7.6471 Y18.4987 Z-0.1495
X7.6457 Y18.4972 Z-0.1465
X7.6444 Y18.4956 Z-0.1434
X7.6437 Y18.4944 Z-0.1363
G0 Z0.4
X3.9567 Y16.7466
Z0.15
G1 Z0.1187 F24.
X3.9561 Y16.7479 Z0.1117 F33.3
X3.9545 Y16.7514 Z0.1057
X3.9517 Y16.7565 Z0.1016
X3.948 Y16.7624 Z0.1
G3 X3.8015 Y16.661 Z0.0902 I-0.0732 J-0.0507
X3.948 Y16.7624 Z0.0805 I0.0732 J0.0507
X3.8015 Y16.661 Z0.0707 I-0.0732 J-0.0507
X3.948 Y16.7624 Z0.0609 I0.0732 J0.0507
X3.8015 Y16.661 Z0.0511 I-0.0732 J-0.0507
X3.948 Y16.7624 Z0.0414 I0.0732 J0.0507
X3.8015 Y16.661 Z0.0316 I-0.0732 J-0.0507
X3.948 Y16.7624 Z0.0218 I0.0732 J0.0507
X3.8015 Y16.661 Z0.0121 I-0.0732 J-0.0507
X3.948 Y16.7624 Z0.0023 I0.0732 J0.0507
X3.8015 Y16.661 Z-0.0075 I-0.0732 J-0.0507
X3.948 Y16.7624 Z-0.0172 I0.0732 J0.0507
X3.8015 Y16.661 Z-0.027 I-0.0732 J-0.0507
X3.948 Y16.7624 Z-0.0368 I0.0732 J0.0507
X3.904 Y16.7958 Z-0.0388 I-0.0732 J-0.0507
G1 X3.8893 Y16.801 F75.
G3 X3.8736 Y16.7942 I-0.0042 J-0.0119
G2 X3.8521 Y16.748 I-1.8267 J0.8231
G3 X3.8584 Y16.738 I0.0063 J-0.003
G1 X4.0443
X4.0458 Y16.7382
X4.0471 Y16.739
X4.0481 Y16.7402
X4.0486 Y16.7416
Y16.7431
X4.048 Y16.7446
X4.047 Y16.7457
X4.0457 Y16.7465
X3.904 Y16.7958
G2 X3.8573 Y16.8476 I0.0239 J0.0685
G3 X3.7878 Y16.8539 I-0.0358 J-0.0085
G2 X3.6809 Y16.6459 I-1.7409 J0.7634
G3 X3.6869 Y16.6353 I0.006 J-0.0036
G1 X4.6508
X4.6523 Y16.6356
X4.6536 Y16.6363
X4.6545 Y16.6375
X4.6551 Y16.6389
X4.655 Y16.6405
X4.6545 Y16.6419
X4.6535 Y16.643
X4.6522 Y16.6438
X3.8321 Y16.9296
G3 X3.8162 Y16.9223 I-0.0042 J-0.0119
G2 X3.7878 Y16.8539 I-1.7693 J0.695
X3.7079 Y16.8037 I-0.0769 J0.0337
G3 X3.626 Y16.757 I-0.0031 J-0.0897
G2 X3.4896 Y16.5438 I-1.5791 J0.8604
G3 X3.4952 Y16.5327 I0.0056 J-0.0042
G1 X5.2572
X5.2587 Y16.5329
X5.26 Y16.5337
X5.261 Y16.5349
X5.2615 Y16.5363
Y16.5378
X5.261 Y16.5392
X5.26 Y16.5404
X5.2587 Y16.5411
X3.7701 Y17.0599
G3 X3.754 Y17.052 I-0.0042 J-0.0119
G2 X3.626 Y16.757 I-1.7071 J0.5653
X3.542 Y16.7137 I-0.0738 J0.0402
G3 X3.4561 Y16.6744 I-0.0109 J-0.0895
G2 X3.266 Y16.4388 I-1.4092 J0.9429
G1 X3.265 Y16.4374
X3.2646 Y16.4357
X3.2647 Y16.434
X3.2653 Y16.4324
X3.2665 Y16.4311
X3.268 Y16.4303
X3.2697 Y16.43
X5.8637
X5.8652 Y16.4303
X5.8665 Y16.431
X5.8675 Y16.4322
X5.868 Y16.4336
Y16.4351
X5.8675 Y16.4366
X5.8665 Y16.4377
X5.8652 Y16.4385
X3.6992 Y17.1934
G3 X3.687 Y17.1869 I-0.0031 J-0.0089
G2 X3.4561 Y16.6744 I-1.6401 J0.4304
X3.3684 Y16.639 I-0.0699 J0.0468
G3 X3.2791 Y16.6078 I-0.0192 J-0.0886
G2 X2.9943 Y16.3367 I-1.2322 J1.0095
G3 X2.9974 Y16.3273 I0.0031 J-0.0042
G1 X6.4702
X6.4717 Y16.3276
X6.473 Y16.3284
X6.474 Y16.3295
X6.4745 Y16.331
Y16.3325
X6.474 Y16.3339
X6.473 Y16.3351
X6.4716 Y16.3358
X3.6244 Y17.3282
G3 X3.612 Y17.321 I-0.0031 J-0.0089
G2 X3.2791 Y16.6078 I-1.5652 J0.2963
X3.1883 Y16.581 I-0.0651 J0.0533
G3 X3.0961 Y16.559 I-0.0279 J-0.0868
G2 X2.7368 Y16.2963 I-1.0493 J1.0583
G3 X2.7247 Y16.2763 I0.0105 J-0.02
G1 Y16.2374
G3 X2.7374 Y16.2247 I0.0128 J0.
G1 X7.0767
X7.0782 Y16.2249
X7.0795 Y16.2257
X7.0805 Y16.2269
X7.081 Y16.2283
Y16.2298
X7.0804 Y16.2312
X7.0794 Y16.2324
X7.0781 Y16.2331
X3.5411 Y17.4659
G3 X3.5286 Y17.458 I-0.0031 J-0.0089
G2 X3.0961 Y16.559 I-1.4817 J0.1593
X3.0028 Y16.5418 I-0.0593 J0.0598
G3 X2.9087 Y16.5298 I-0.0371 J-0.084
G2 X2.635 Y16.3605 I-0.8618 J1.0875
G3 X2.622 Y16.34 I0.0096 J-0.0205
G1 Y16.1348
G3 X2.6348 Y16.122 I0.0128 J0.
G1 X7.6832
X7.6847 Y16.1223
X7.686 Y16.123
X7.687 Y16.1242
X7.6875 Y16.1256
Y16.1272
X7.6869 Y16.1286
X7.6859 Y16.1297
X7.6846 Y16.1305
X3.4437 Y17.6086
G3 X3.4344 Y17.602 I-0.0023 J-0.0066
G2 X2.9087 Y16.5298 I-1.3875 J0.0153
X2.8156 Y16.5232 I-0.0514 J0.0649
G3 X2.7222 Y16.522 I-0.0457 J-0.0783
G2 X2.5371 Y16.4276 I-0.6754 J1.0953
G3 X2.5211 Y16.4038 I0.0098 J-0.0238
G1 Y16.0469
G3 X2.5469 Y16.0211 I0.0258 J0.
G1 X8.1527
G3 X8.1612 Y16.0712 I0. J0.0257
G1 X3.3639 Y17.7432
G3 X3.3298 Y17.7169 I-0.0085 J-0.0243
G2 X2.7222 Y16.522 I-1.2829 J-0.0995
X2.6196 Y16.5271 I-0.0477 J0.0773
G3 X2.5175 Y16.5393 I-0.0615 J-0.0808
G2 X2.495 Y16.5297 I-0.4706 J1.078
G3 X2.4106 Y16.4038 I0.0519 J-0.126
G1 Y16.0469
G3 X2.5469 Y15.9106 I0.1363 J0.
G1 X8.1527
G3 X8.1975 Y16.1755 I0. J0.1362
G1 X3.4003 Y17.8475
G3 X3.2196 Y17.7083 I-0.0448 J-0.1287
G2 X2.5175 Y16.5393 I-1.1727 J-0.091
G3 X2.57 Y16.3702 Z-0.0442 I0.0356 J-0.0816 F33.3
G1 X3.8915 Y16.6243 Z-0.0726
G3 X3.904 Y16.7958 Z-0.0775 I-0.0168 J0.0875
G1 X3.8893 Y16.801 F75.
G3 X3.8736 Y16.7942 I-0.0042 J-0.0119
G2 X3.8521 Y16.748 I-1.8267 J0.8231
G3 X3.8584 Y16.738 I0.0063 J-0.003
G1 X4.0443
X4.0458 Y16.7382
X4.0471 Y16.739
X4.0481 Y16.7402
X4.0486 Y16.7416
Y16.7431
X4.048 Y16.7446
X4.047 Y16.7457
X4.0457 Y16.7465
X3.904 Y16.7958
G2 X3.8573 Y16.8476 I0.0239 J0.0685
G3 X3.7878 Y16.8539 I-0.0358 J-0.0085
G2 X3.6809 Y16.6459 I-1.7409 J0.7634
G3 X3.6869 Y16.6353 I0.006 J-0.0036
G1 X4.6508
X4.6523 Y16.6356
X4.6536 Y16.6363
X4.6545 Y16.6375
X4.6551 Y16.6389
X4.655 Y16.6405
X4.6545 Y16.6419
X4.6535 Y16.643
X4.6522 Y16.6438
X3.8321 Y16.9296
G3 X3.8162 Y16.9223 I-0.0042 J-0.0119
G2 X3.7878 Y16.8539 I-1.7693 J0.695
X3.7079 Y16.8037 I-0.0769 J0.0337
G3 X3.626 Y16.757 I-0.0031 J-0.0897
G2 X3.4896 Y16.5438 I-1.5791 J0.8604
G3 X3.4952 Y16.5327 I0.0056 J-0.0042
G1 X5.2572
X5.2587 Y16.5329
X5.26 Y16.5337
X5.261 Y16.5349
X5.2615 Y16.5363
Y16.5378
X5.261 Y16.5392
X5.26 Y16.5404
X5.2587 Y16.5411
X3.7701 Y17.0599
G3 X3.754 Y17.052 I-0.0042 J-0.0119
G2 X3.626 Y16.757 I-1.7071 J0.5653
X3.542 Y16.7137 I-0.0738 J0.0402
G3 X3.4561 Y16.6744 I-0.0109 J-0.0895
G2 X3.266 Y16.4388 I-1.4092 J0.9429
G1 X3.265 Y16.4374
X3.2646 Y16.4357
X3.2647 Y16.434
X3.2653 Y16.4324
X3.2665 Y16.4311
X3.268 Y16.4303
X3.2697 Y16.43
X5.8637
X5.8652 Y16.4303
X5.8665 Y16.431
X5.8675 Y16.4322
X5.868 Y16.4336
Y16.4351
X5.8675 Y16.4366
X5.8665 Y16.4377
X5.8652 Y16.4385
X3.6992 Y17.1934
G3 X3.687 Y17.1869 I-0.0031 J-0.0089
G2 X3.4561 Y16.6744 I-1.6401 J0.4304
X3.3684 Y16.639 I-0.0699 J0.0468
G3 X3.2791 Y16.6078 I-0.0192 J-0.0886
G2 X2.9943 Y16.3367 I-1.2322 J1.0095
G3 X2.9974 Y16.3273 I0.0031 J-0.0042
G1 X6.4702
X6.4717 Y16.3276
X6.473 Y16.3284
X6.474 Y16.3295
X6.4745 Y16.331
Y16.3325
X6.474 Y16.3339
X6.473 Y16.3351
X6.4716 Y16.3358
X3.6244 Y17.3282
G3 X3.612 Y17.321 I-0.0031 J-0.0089
G2 X3.2791 Y16.6078 I-1.5652 J0.2963
X3.1883 Y16.581 I-0.0651 J0.0533
G3 X3.0961 Y16.559 I-0.0279 J-0.0868
G2 X2.7368 Y16.2963 I-1.0493 J1.0583
G3 X2.7247 Y16.2763 I0.0105 J-0.02
G1 Y16.2374
G3 X2.7374 Y16.2247 I0.0128 J0.
G1 X7.0767
X7.0782 Y16.2249
X7.0795 Y16.2257
X7.0805 Y16.2269
X7.081 Y16.2283
Y16.2298
X7.0804 Y16.2312
X7.0794 Y16.2324
X7.0781 Y16.2331
X3.5411 Y17.4659
G3 X3.5286 Y17.458 I-0.0031 J-0.0089
G2 X3.0961 Y16.559 I-1.4817 J0.1593
X3.0028 Y16.5418 I-0.0593 J0.0598
G3 X2.9087 Y16.5298 I-0.0371 J-0.084
G2 X2.635 Y16.3605 I-0.8618 J1.0875
G3 X2.622 Y16.34 I0.0096 J-0.0205
G1 Y16.1348
G3 X2.6348 Y16.122 I0.0128 J0.
G1 X7.6832
X7.6847 Y16.1223
X7.686 Y16.123
X7.687 Y16.1242
X7.6875 Y16.1256
Y16.1272
X7.6869 Y16.1286
X7.6859 Y16.1297
X7.6846 Y16.1305
X3.4437 Y17.6086
G3 X3.4344 Y17.602 I-0.0023 J-0.0066
G2 X2.9087 Y16.5298 I-1.3875 J0.0153
X2.8156 Y16.5232 I-0.0514 J0.0649
G3 X2.7222 Y16.522 I-0.0457 J-0.0783
G2 X2.5371 Y16.4276 I-0.6754 J1.0953
G3 X2.5211 Y16.4038 I0.0098 J-0.0238
G1 Y16.0469
G3 X2.5469 Y16.0211 I0.0258 J0.
G1 X8.1527
G3 X8.1612 Y16.0712 I0. J0.0257
G1 X3.3639 Y17.7432
G3 X3.3298 Y17.7169 I-0.0085 J-0.0243
G2 X2.7222 Y16.522 I-1.2829 J-0.0995
X2.6196 Y16.5271 I-0.0477 J0.0773
G3 X2.5175 Y16.5393 I-0.0615 J-0.0808
G2 X2.495 Y16.5297 I-0.4706 J1.078
G3 X2.4106 Y16.4038 I0.0519 J-0.126
G1 Y16.0469
G3 X2.5469 Y15.9106 I0.1363 J0.
G1 X8.1527
G3 X8.1975 Y16.1755 I0. J0.1362
G1 X3.4003 Y17.8475
G3 X3.2196 Y17.7083 I-0.0448 J-0.1287
G2 X2.5175 Y16.5393 I-1.1727 J-0.091
G3 X2.57 Y16.3702 Z-0.083 I0.0356 J-0.0816 F33.3
G1 X3.8915 Y16.6243 Z-0.1113
G3 X3.904 Y16.7958 Z-0.1162 I-0.0168 J0.0875
G1 X3.8893 Y16.801 F75.
G3 X3.8736 Y16.7942 I-0.0042 J-0.0119
G2 X3.8521 Y16.748 I-1.8267 J0.8231
G3 X3.8584 Y16.738 I0.0063 J-0.003
G1 X4.0443
X4.0458 Y16.7382
X4.0471 Y16.739
X4.0481 Y16.7402
X4.0486 Y16.7416
Y16.7431
X4.048 Y16.7446
X4.047 Y16.7457
X4.0457 Y16.7465
X3.904 Y16.7958
G2 X3.8573 Y16.8476 I0.0239 J0.0685
G3 X3.7878 Y16.8539 I-0.0358 J-0.0085
G2 X3.6809 Y16.6459 I-1.7409 J0.7634
G3 X3.6869 Y16.6353 I0.006 J-0.0036
G1 X4.6508
X4.6523 Y16.6356
X4.6536 Y16.6363
X4.6545 Y16.6375
X4.6551 Y16.6389
X4.655 Y16.6405
X4.6545 Y16.6419
X4.6535 Y16.643
X4.6522 Y16.6438
X3.8321 Y16.9296
G3 X3.8162 Y16.9223 I-0.0042 J-0.0119
G2 X3.7878 Y16.8539 I-1.7693 J0.695
X3.7079 Y16.8037 I-0.0769 J0.0337
G3 X3.626 Y16.757 I-0.0031 J-0.0897
G2 X3.4896 Y16.5438 I-1.5791 J0.8604
G3 X3.4952 Y16.5327 I0.0056 J-0.0042
G1 X5.2572
X5.2587 Y16.5329
X5.26 Y16.5337
X5.261 Y16.5349
X5.2615 Y16.5363
Y16.5378
X5.261 Y16.5392
X5.26 Y16.5404
X5.2587 Y16.5411
X3.7701 Y17.0599
G3 X3.754 Y17.052 I-0.0042 J-0.0119
G2 X3.626 Y16.757 I-1.7071 J0.5653
X3.542 Y16.7137 I-0.0738 J0.0402
G3 X3.4561 Y16.6744 I-0.0109 J-0.0895
G2 X3.266 Y16.4388 I-1.4092 J0.9429
G1 X3.265 Y16.4374
X3.2646 Y16.4357
X3.2647 Y16.434
X3.2653 Y16.4324
X3.2665 Y16.4311
X3.268 Y16.4303
X3.2697 Y16.43
X5.8637
X5.8652 Y16.4303
X5.8665 Y16.431
X5.8675 Y16.4322
X5.868 Y16.4336
Y16.4351
X5.8675 Y16.4366
X5.8665 Y16.4377
X5.8652 Y16.4385
X3.6992 Y17.1934
G3 X3.687 Y17.1869 I-0.0031 J-0.0089
G2 X3.4561 Y16.6744 I-1.6401 J0.4304
X3.3684 Y16.639 I-0.0699 J0.0468
G3 X3.2791 Y16.6078 I-0.0192 J-0.0886
G2 X2.9943 Y16.3367 I-1.2322 J1.0095
G3 X2.9974 Y16.3273 I0.0031 J-0.0042
G1 X6.4702
X6.4717 Y16.3276
X6.473 Y16.3284
X6.474 Y16.3295
X6.4745 Y16.331
Y16.3325
X6.474 Y16.3339
X6.473 Y16.3351
X6.4716 Y16.3358
X3.6244 Y17.3282
G3 X3.612 Y17.321 I-0.0031 J-0.0089
G2 X3.2791 Y16.6078 I-1.5652 J0.2963
X3.1883 Y16.581 I-0.0651 J0.0533
G3 X3.0961 Y16.559 I-0.0279 J-0.0868
G2 X2.7368 Y16.2963 I-1.0493 J1.0583
G3 X2.7247 Y16.2763 I0.0105 J-0.02
G1 Y16.2374
G3 X2.7374 Y16.2247 I0.0128 J0.
G1 X7.0767
X7.0782 Y16.2249
X7.0795 Y16.2257
X7.0805 Y16.2269
X7.081 Y16.2283
Y16.2298
X7.0804 Y16.2312
X7.0794 Y16.2324
X7.0781 Y16.2331
X3.5411 Y17.4659
G3 X3.5286 Y17.458 I-0.0031 J-0.0089
G2 X3.0961 Y16.559 I-1.4817 J0.1593
X3.0028 Y16.5418 I-0.0593 J0.0598
G3 X2.9087 Y16.5298 I-0.0371 J-0.084
G2 X2.635 Y16.3605 I-0.8618 J1.0875
G3 X2.622 Y16.34 I0.0096 J-0.0205
G1 Y16.1348
G3 X2.6348 Y16.122 I0.0128 J0.
G1 X7.6832
X7.6847 Y16.1223
X7.686 Y16.123
X7.687 Y16.1242
X7.6875 Y16.1256
Y16.1272
X7.6869 Y16.1286
X7.6859 Y16.1297
X7.6846 Y16.1305
X3.4437 Y17.6086
G3 X3.4344 Y17.602 I-0.0023 J-0.0066
G2 X2.9087 Y16.5298 I-1.3875 J0.0153
X2.8156 Y16.5232 I-0.0514 J0.0649
G3 X2.7222 Y16.522 I-0.0457 J-0.0783
G2 X2.5371 Y16.4276 I-0.6754 J1.0953
G3 X2.5211 Y16.4038 I0.0098 J-0.0238
G1 Y16.0469
G3 X2.5469 Y16.0211 I0.0258 J0.
G1 X8.1527
G3 X8.1612 Y16.0712 I0. J0.0257
G1 X3.3639 Y17.7432
G3 X3.3298 Y17.7169 I-0.0085 J-0.0243
G2 X2.7222 Y16.522 I-1.2829 J-0.0995
X2.6196 Y16.5271 I-0.0477 J0.0773
G3 X2.5175 Y16.5393 I-0.0615 J-0.0808
G2 X2.495 Y16.5297 I-0.4706 J1.078
G3 X2.4106 Y16.4038 I0.0519 J-0.126
G1 Y16.0469
G3 X2.5469 Y15.9106 I0.1363 J0.
G1 X8.1527
G3 X8.1975 Y16.1755 I0. J0.1362
G1 X3.4003 Y17.8475
G3 X3.2196 Y17.7083 I-0.0448 J-0.1287
G2 X2.5175 Y16.5393 I-1.1727 J-0.091
G3 X2.57 Y16.3702 Z-0.1217 I0.0356 J-0.0816 F33.3
G1 X3.8915 Y16.6243 Z-0.1501
G3 X3.904 Y16.7958 Z-0.155 I-0.0168 J0.0875
G1 X3.8893 Y16.801 F75.
G3 X3.8736 Y16.7942 I-0.0042 J-0.0119
G2 X3.8521 Y16.748 I-1.8267 J0.8231
G3 X3.8584 Y16.738 I0.0063 J-0.003
G1 X4.0443
X4.0458 Y16.7382
X4.0471 Y16.739
X4.0481 Y16.7402
X4.0486 Y16.7416
Y16.7431
X4.048 Y16.7446
X4.047 Y16.7457
X4.0457 Y16.7465
X3.904 Y16.7958
G2 X3.8573 Y16.8476 I0.0239 J0.0685
G3 X3.7878 Y16.8539 I-0.0358 J-0.0085
G2 X3.6809 Y16.6459 I-1.7409 J0.7634
G3 X3.6869 Y16.6353 I0.006 J-0.0036
G1 X4.6508
X4.6523 Y16.6356
X4.6536 Y16.6363
X4.6545 Y16.6375
X4.6551 Y16.6389
X4.655 Y16.6405
X4.6545 Y16.6419
X4.6535 Y16.643
X4.6522 Y16.6438
X3.8321 Y16.9296
G3 X3.8162 Y16.9223 I-0.0042 J-0.0119
G2 X3.7878 Y16.8539 I-1.7693 J0.695
X3.7079 Y16.8037 I-0.0769 J0.0337
G3 X3.626 Y16.757 I-0.0031 J-0.0897
G2 X3.4896 Y16.5438 I-1.5791 J0.8604
G3 X3.4952 Y16.5327 I0.0056 J-0.0042
G1 X5.2572
X5.2587 Y16.5329
X5.26 Y16.5337
X5.261 Y16.5349
X5.2615 Y16.5363
Y16.5378
X5.261 Y16.5392
X5.26 Y16.5404
X5.2587 Y16.5411
X3.7701 Y17.0599
G3 X3.754 Y17.052 I-0.0042 J-0.0119
G2 X3.626 Y16.757 I-1.7071 J0.5653
X3.542 Y16.7137 I-0.0738 J0.0402
G3 X3.4561 Y16.6744 I-0.0109 J-0.0895
G2 X3.266 Y16.4388 I-1.4092 J0.9429
G1 X3.265 Y16.4374
X3.2646 Y16.4357
X3.2647 Y16.434
X3.2653 Y16.4324
X3.2665 Y16.4311
X3.268 Y16.4303
X3.2697 Y16.43
X5.8637
X5.8652 Y16.4303
X5.8665 Y16.431
X5.8675 Y16.4322
X5.868 Y16.4336
Y16.4351
X5.8675 Y16.4366
X5.8665 Y16.4377
X5.8652 Y16.4385
X3.6992 Y17.1934
G3 X3.687 Y17.1869 I-0.0031 J-0.0089
G2 X3.4561 Y16.6744 I-1.6401 J0.4304
X3.3684 Y16.639 I-0.0699 J0.0468
G3 X3.2791 Y16.6078 I-0.0192 J-0.0886
G2 X2.9943 Y16.3367 I-1.2322 J1.0095
G3 X2.9974 Y16.3273 I0.0031 J-0.0042
G1 X6.4702
X6.4717 Y16.3276
X6.473 Y16.3284
X6.474 Y16.3295
X6.4745 Y16.331
Y16.3325
X6.474 Y16.3339
X6.473 Y16.3351
X6.4716 Y16.3358
X3.6244 Y17.3282
G3 X3.612 Y17.321 I-0.0031 J-0.0089
G2 X3.2791 Y16.6078 I-1.5652 J0.2963
X3.1883 Y16.581 I-0.0651 J0.0533
G3 X3.0961 Y16.559 I-0.0279 J-0.0868
G2 X2.7368 Y16.2963 I-1.0493 J1.0583
G3 X2.7247 Y16.2763 I0.0105 J-0.02
G1 Y16.2374
G3 X2.7374 Y16.2247 I0.0128 J0.
G1 X7.0767
X7.0782 Y16.2249
X7.0795 Y16.2257
X7.0805 Y16.2269
X7.081 Y16.2283
Y16.2298
X7.0804 Y16.2312
X7.0794 Y16.2324
X7.0781 Y16.2331
X3.5411 Y17.4659
G3 X3.5286 Y17.458 I-0.0031 J-0.0089
G2 X3.0961 Y16.559 I-1.4817 J0.1593
X3.0028 Y16.5418 I-0.0593 J0.0598
G3 X2.9087 Y16.5298 I-0.0371 J-0.084
G2 X2.635 Y16.3605 I-0.8618 J1.0875
G3 X2.622 Y16.34 I0.0096 J-0.0205
G1 Y16.1348
G3 X2.6348 Y16.122 I0.0128 J0.
G1 X7.6832
X7.6847 Y16.1223
X7.686 Y16.123
X7.687 Y16.1242
X7.6875 Y16.1256
Y16.1272
X7.6869 Y16.1286
X7.6859 Y16.1297
X7.6846 Y16.1305
X3.4437 Y17.6086
G3 X3.4344 Y17.602 I-0.0023 J-0.0066
G2 X2.9087 Y16.5298 I-1.3875 J0.0153
X2.8156 Y16.5232 I-0.0514 J0.0649
G3 X2.7222 Y16.522 I-0.0457 J-0.0783
G2 X2.5371 Y16.4276 I-0.6754 J1.0953
G3 X2.5211 Y16.4038 I0.0098 J-0.0238
G1 Y16.0469
G3 X2.5469 Y16.0211 I0.0258 J0.
G1 X8.1527
G3 X8.1612 Y16.0712 I0. J0.0257
G1 X3.3639 Y17.7432
G3 X3.3298 Y17.7169 I-0.0085 J-0.0243
G2 X2.7222 Y16.522 I-1.2829 J-0.0995
X2.6196 Y16.5271 I-0.0477 J0.0773
G3 X2.5175 Y16.5393 I-0.0615 J-0.0808
G2 X2.495 Y16.5297 I-0.4706 J1.078
G3 X2.4106 Y16.4038 I0.0519 J-0.126
G1 Y16.0469
G3 X2.5469 Y15.9106 I0.1363 J0.
G1 X8.1527
G3 X8.1975 Y16.1755 I0. J0.1362
G1 X3.4003 Y17.8475
G3 X3.2196 Y17.7083 I-0.0448 J-0.1287
G2 X2.5175 Y16.5393 I-1.1727 J-0.091
G1 X2.5154 Y16.5382 Z-0.1545
X2.5135 Y16.5367 Z-0.154
X2.5118 Y16.5351 Z-0.1536
X2.5099 Y16.5327 Z-0.1515
X2.5085 Y16.53 Z-0.1495
X2.5078 Y16.5281 Z-0.1465
X2.5073 Y16.5261 Z-0.1434
X2.5071 Y16.5247 Z-0.1363
G0 Z0.4
X2.0773 Y17.6832
Z0.15
G1 Z0.1187 F24.
X2.0763 Y17.6823 Z0.1117 F33.3
X2.0735 Y17.6796 Z0.1057
X2.0696 Y17.6753 Z0.1016
X2.0652 Y17.6698 Z0.1
G3 X2.2092 Y17.5649 Z0.0902 I0.072 J-0.0525
X2.0652 Y17.6698 Z0.0805 I-0.072 J0.0525
X2.2092 Y17.5649 Z0.0707 I0.072 J-0.0525
X2.0652 Y17.6698 Z0.0609 I-0.072 J0.0525
X2.2092 Y17.5649 Z0.0511 I0.072 J-0.0525
X2.0652 Y17.6698 Z0.0414 I-0.072 J0.0525
X2.2092 Y17.5649 Z0.0316 I0.072 J-0.0525
X2.0652 Y17.6698 Z0.0218 I-0.072 J0.0525
X2.2092 Y17.5649 Z0.0121 I0.072 J-0.0525
X2.0652 Y17.6698 Z0.0023 I-0.072 J0.0525
X2.2092 Y17.5649 Z-0.0075 I0.072 J-0.0525
X2.0652 Y17.6698 Z-0.0172 I-0.072 J0.0525
X2.2092 Y17.5649 Z-0.027 I0.072 J-0.0525
X2.0652 Y17.6698 Z-0.0368 I-0.072 J0.0525
X2.0481 Y17.6173 Z-0.0388 I0.072 J-0.0525
X2.1581 I0.055 J0. F75.
X1.9356 I-0.1112 J0.
X2.2706 I0.1675 J0.
X1.8231 I-0.2238 J0.
X2.3831 I0.28 J0.
X1.7106 I-0.3362 J0.
X2.4956 I0.3925 J0.
X1.5981 I-0.4488 J0.
X2.4956 I0.4488 J0.
X2.4859 Y17.6267 I-0.0094 J0.
G1 X2.2718 Y17.6185
X2.058 Y17.6182
G3 X2.0487 Y17.6078 I0. J-0.0094
X2.2258 Y17.6268 Z-0.0485 I0.0886 J0.0095 F33.3
X2.0487 Y17.6078 Z-0.0583 I-0.0886 J-0.0095
X2.2258 Y17.6268 Z-0.0681 I0.0886 J0.0095
X2.0481 Y17.6173 Z-0.0775 I-0.0886 J-0.0095
X2.1581 I0.055 J0. F75.
X1.9356 I-0.1112 J0.
X2.2706 I0.1675 J0.
X1.8231 I-0.2238 J0.
X2.3831 I0.28 J0.
X1.7106 I-0.3362 J0.
X2.4956 I0.3925 J0.
X1.5981 I-0.4488 J0.
X2.4956 I0.4488 J0.
X2.4859 Y17.6267 I-0.0094 J0.
G1 X2.2718 Y17.6185
X2.058 Y17.6182
G3 X2.0487 Y17.6078 I0. J-0.0094
X2.2258 Y17.6268 Z-0.0873 I0.0886 J0.0095 F33.3
X2.0487 Y17.6078 Z-0.097 I-0.0886 J-0.0095
X2.2258 Y17.6268 Z-0.1068 I0.0886 J0.0095
X2.0481 Y17.6173 Z-0.1162 I-0.0886 J-0.0095
X2.1581 I0.055 J0. F75.
X1.9356 I-0.1112 J0.
X2.2706 I0.1675 J0.
X1.8231 I-0.2238 J0.
X2.3831 I0.28 J0.
X1.7106 I-0.3362 J0.
X2.4956 I0.3925 J0.
X1.5981 I-0.4488 J0.
X2.4956 I0.4488 J0.
X2.4859 Y17.6267 I-0.0094 J0.
G1 X2.2718 Y17.6185
X2.058 Y17.6182
G3 X2.0487 Y17.6078 I0. J-0.0094
X2.2258 Y17.6268 Z-0.126 I0.0886 J0.0095 F33.3
X2.0487 Y17.6078 Z-0.1358 I-0.0886 J-0.0095
X2.2258 Y17.6268 Z-0.1456 I0.0886 J0.0095
X2.0481 Y17.6173 Z-0.155 I-0.0886 J-0.0095
X2.1581 I0.055 J0. F75.
X1.9356 I-0.1112 J0.
X2.2706 I0.1675 J0.
X1.8231 I-0.2238 J0.
X2.3831 I0.28 J0.
X1.7106 I-0.3362 J0.
X2.4956 I0.3925 J0.
X1.5981 I-0.4488 J0.
X2.4956 I0.4488 J0.
G1 X2.4955 Y17.6197 Z-0.1545
X2.495 Y17.6221 Z-0.154
X2.4943 Y17.6243 Z-0.1536
X2.4929 Y17.627 Z-0.1515
X2.4911 Y17.6295 Z-0.1495
X2.4897 Y17.631 Z-0.1465
X2.4882 Y17.6323 Z-0.1434
X2.487 Y17.6331 Z-0.1363
G0 Z0.4
X3.9044 Y12.7205
Z0.15
G1 Z0.1187 F24.
X3.9034 Y12.7215 Z0.1117 F33.3
X3.9007 Y12.7243 Z0.1057
X3.8964 Y12.7282 Z0.1016
X3.8909 Y12.7326 Z0.1
G3 X3.786 Y12.5886 Z0.0902 I-0.0525 J-0.072
X3.8909 Y12.7326 Z0.0805 I0.0525 J0.072
X3.786 Y12.5886 Z0.0707 I-0.0525 J-0.072
X3.8909 Y12.7326 Z0.0609 I0.0525 J0.072
X3.786 Y12.5886 Z0.0511 I-0.0525 J-0.072
X3.8909 Y12.7326 Z0.0414 I0.0525 J0.072
X3.786 Y12.5886 Z0.0316 I-0.0525 J-0.072
X3.8909 Y12.7326 Z0.0218 I0.0525 J0.072
X3.786 Y12.5886 Z0.0121 I-0.0525 J-0.072
X3.8909 Y12.7326 Z0.0023 I0.0525 J0.072
X3.786 Y12.5886 Z-0.0075 I-0.0525 J-0.072
X3.8909 Y12.7326 Z-0.0172 I0.0525 J0.072
X3.786 Y12.5886 Z-0.027 I-0.0525 J-0.072
X3.8909 Y12.7326 Z-0.0368 I0.0525 J0.072
X3.8385 Y12.7497 Z-0.0388 I-0.0525 J-0.072
G1 X3.7824 F75.
G3 X3.7696 Y12.7369 I0. J-0.0128
G1 Y12.6055
G3 X3.7817 Y12.5961 I0.0097 J0.
G1 X4.3765 Y12.7415
X4.3778 Y12.7422
X4.3789 Y12.7432
X4.3795 Y12.7446
X4.3796 Y12.746
X4.3791 Y12.7475
X4.3782 Y12.7486
X4.3769 Y12.7494
X4.3755 Y12.7497
X3.8385
G2 X3.7647 Y12.7988 I0. J0.0799
G3 X3.691 Y12.848 I-0.0738 J-0.0307
G1 X3.6841
G3 X3.6713 Y12.8352 I0. J-0.0128
G1 Y12.4802
G3 X3.6833 Y12.4708 I0.0097 J0.
G1 X5.1925 Y12.8399
X5.1939 Y12.8405
X5.1949 Y12.8415
X5.1955 Y12.8429
X5.1956 Y12.8444
X5.1952 Y12.8458
X5.1943 Y12.847
X5.193 Y12.8477
X5.1915 Y12.848
X3.691
G2 X3.6349 Y12.8795 I0. J0.0656
G3 X3.5729 Y12.8622 I-0.0285 J-0.0174
G1 Y12.355
G3 X3.585 Y12.3455 I0.0097 J0.
G1 X6.0086 Y12.9382
X6.0099 Y12.9388
X6.011 Y12.9399
X6.0116 Y12.9412
X6.0117 Y12.9427
X6.0112 Y12.9441
X6.0103 Y12.9453
X6.0091 Y12.9461
X6.0076 Y12.9463
X3.5857
G3 X3.5729 Y12.9336 I0. J-0.0128
G1 Y12.8622
G2 X3.5238 Y12.7884 I-0.0799 J0.
G3 X3.4746 Y12.7147 I0.0307 J-0.0738
G1 Y12.2297
G3 X3.4867 Y12.2202 I0.0097 J0.
G1 X6.8246 Y13.0366
X6.826 Y13.0372
X6.827 Y13.0382
X6.8277 Y13.0396
Y13.0411
X6.8273 Y13.0425
X6.8264 Y13.0437
X6.8251 Y13.0444
X6.8237 Y13.0447
X3.4874
G3 X3.4746 Y13.0319 I0. J-0.0128
G1 Y12.7147
G2 X3.4254 Y12.6409 I-0.0799 J0.
G3 X3.3763 Y12.5672 I0.0307 J-0.0738
G1 Y12.1044
G3 X3.3883 Y12.0949 I0.0097 J0.
G1 X7.4015 Y13.0764
G3 X7.4149 Y13.0935 I-0.0042 J0.0171
G1 Y13.1303
G3 X7.4021 Y13.143 I-0.0128 J0.
G1 X3.389
G3 X3.3763 Y13.1303 I0. J-0.0128
G1 Y12.5672
G2 X3.322 Y12.4858 I-0.0882 J0.
G3 X3.2678 Y12.4044 I0.0339 J-0.0814
G1 Y11.9661
G3 X3.2798 Y11.9567 I0.0097 J0.
G1 X7.51 Y12.9912
G3 X7.5234 Y13.0084 I-0.0042 J0.0171
G1 Y13.2388
G3 X7.5106 Y13.2515 I-0.0128 J0.
G1 X3.2805
G3 X3.2678 Y13.2388 I0. J-0.0128
G1 Y12.4044
G2 X3.2135 Y12.323 I-0.0882 J0.
G3 X3.1593 Y12.2417 I0.0339 J-0.0814
G1 Y11.8279
G3 X3.1713 Y11.8184 I0.0097 J0.
G1 X7.6185 Y12.9061
G3 X7.6319 Y12.9232 I-0.0042 J0.0171
G1 Y13.3473
G3 X7.6191 Y13.36 I-0.0128 J0.
G1 X3.172
G3 X3.1593 Y13.3473 I0. J-0.0128
G1 Y12.2417
G2 X3.1059 Y12.1616 I-0.0867 J0.
G3 X3.0526 Y12.0816 I0.0333 J-0.08
G1 Y11.7124
G3 X3.0844 Y11.6874 I0.0257 J0.
G1 X7.719 Y12.8208
G3 X7.7386 Y12.8458 I-0.0061 J0.025
G1 Y13.441
G3 X7.7128 Y13.4667 I-0.0257 J0.
G1 X3.0783
G3 X3.0526 Y13.441 I0. J-0.0258
G1 Y12.0816
G2 X2.9973 Y11.9987 I-0.0898 J0.
G3 X2.9421 Y11.9159 I0.0345 J-0.0829
G1 Y11.7124
G3 X3.1107 Y11.58 I0.1362 J0.
G1 X7.7452 Y12.7135
G3 X7.8491 Y12.8458 I-0.0324 J0.1323
G1 Y13.441
G3 X7.7128 Y13.5772 I-0.1362 J0.
G1 X3.0783
G3 X2.9421 Y13.441 I0. J-0.1363
G1 Y11.9159
G3 X3.0915 Y11.8504 Z-0.044 I0.0891 J0. F33.3
G1 X3.8989 Y12.5951 Z-0.0721
G3 X3.8385 Y12.7497 Z-0.0775 I-0.0604 J0.0655
G1 X3.7824 F75.
G3 X3.7696 Y12.7369 I0. J-0.0128
G1 Y12.6055
G3 X3.7817 Y12.5961 I0.0097 J0.
G1 X4.3765 Y12.7415
X4.3778 Y12.7422
X4.3789 Y12.7432
X4.3795 Y12.7446
X4.3796 Y12.746
X4.3791 Y12.7475
X4.3782 Y12.7486
X4.3769 Y12.7494
X4.3755 Y12.7497
X3.8385
G2 X3.7647 Y12.7988 I0. J0.0799
G3 X3.691 Y12.848 I-0.0738 J-0.0307
G1 X3.6841
G3 X3.6713 Y12.8352 I0. J-0.0128
G1 Y12.4802
G3 X3.6833 Y12.4708 I0.0097 J0.
G1 X5.1925 Y12.8399
X5.1939 Y12.8405
X5.1949 Y12.8415
X5.1955 Y12.8429
X5.1956 Y12.8444
X5.1952 Y12.8458
X5.1943 Y12.847
X5.193 Y12.8477
X5.1915 Y12.848
X3.691
G2 X3.6349 Y12.8795 I0. J0.0656
G3 X3.5729 Y12.8622 I-0.0285 J-0.0174
G1 Y12.355
G3 X3.585 Y12.3455 I0.0097 J0.
G1 X6.0086 Y12.9382
X6.0099 Y12.9388
X6.011 Y12.9399
X6.0116 Y12.9412
X6.0117 Y12.9427
X6.0112 Y12.9441
X6.0103 Y12.9453
X6.0091 Y12.9461
X6.0076 Y12.9463
X3.5857
G3 X3.5729 Y12.9336 I0. J-0.0128
G1 Y12.8622
G2 X3.5238 Y12.7884 I-0.0799 J0.
G3 X3.4746 Y12.7147 I0.0307 J-0.0738
G1 Y12.2297
G3 X3.4867 Y12.2202 I0.0097 J0.
G1 X6.8246 Y13.0366
X6.826 Y13.0372
X6.827 Y13.0382
X6.8277 Y13.0396
Y13.0411
X6.8273 Y13.0425
X6.8264 Y13.0437
X6.8251 Y13.0444
X6.8237 Y13.0447
X3.4874
G3 X3.4746 Y13.0319 I0. J-0.0128
G1 Y12.7147
G2 X3.4254 Y12.6409 I-0.0799 J0.
G3 X3.3763 Y12.5672 I0.0307 J-0.0738
G1 Y12.1044
G3 X3.3883 Y12.0949 I0.0097 J0.
G1 X7.4015 Y13.0764
G3 X7.4149 Y13.0935 I-0.0042 J0.0171
G1 Y13.1303
G3 X7.4021 Y13.143 I-0.0128 J0.
G1 X3.389
G3 X3.3763 Y13.1303 I0. J-0.0128
G1 Y12.5672
G2 X3.322 Y12.4858 I-0.0882 J0.
G3 X3.2678 Y12.4044 I0.0339 J-0.0814
G1 Y11.9661
G3 X3.2798 Y11.9567 I0.0097 J0.
G1 X7.51 Y12.9912
G3 X7.5234 Y13.0084 I-0.0042 J0.0171
G1 Y13.2388
G3 X7.5106 Y13.2515 I-0.0128 J0.
G1 X3.2805
G3 X3.2678 Y13.2388 I0. J-0.0128
G1 Y12.4044
G2 X3.2135 Y12.323 I-0.0882 J0.
G3 X3.1593 Y12.2417 I0.0339 J-0.0814
G1 Y11.8279
G3 X3.1713 Y11.8184 I0.0097 J0.
G1 X7.6185 Y12.9061
G3 X7.6319 Y12.9232 I-0.0042 J0.0171
G1 Y13.3473
G3 X7.6191 Y13.36 I-0.0128 J0.
G1 X3.172
G3 X3.1593 Y13.3473 I0. J-0.0128
G1 Y12.2417
G2 X3.1059 Y12.1616 I-0.0867 J0.
G3 X3.0526 Y12.0816 I0.0333 J-0.08
G1 Y11.7124
G3 X3.0844 Y11.6874 I0.0257 J0.
G1 X7.719 Y12.8208
G3 X7.7386 Y12.8458 I-0.0061 J0.025
G1 Y13.441
G3 X7.7128 Y13.4667 I-0.0257 J0.
G1 X3.0783
G3 X3.0526 Y13.441 I0. J-0.0258
G1 Y12.0816
G2 X2.9973 Y11.9987 I-0.0898 J0.
G3 X2.9421 Y11.9159 I0.0345 J-0.0829
G1 Y11.7124
G3 X3.1107 Y11.58 I0.1362 J0.
G1 X7.7452 Y12.7135
G3 X7.8491 Y12.8458 I-0.0324 J0.1323
G1 Y13.441
G3 X7.7128 Y13.5772 I-0.1362 J0.
G1 X3.0783
G3 X2.9421 Y13.441 I0. J-0.1363
G1 Y11.9159
G3 X3.0915 Y11.8504 Z-0.0828 I0.0891 J0. F33.3
G1 X3.8989 Y12.5951 Z-0.1108
G3 X3.8385 Y12.7497 Z-0.1162 I-0.0604 J0.0655
G1 X3.7824 F75.
G3 X3.7696 Y12.7369 I0. J-0.0128
G1 Y12.6055
G3 X3.7817 Y12.5961 I0.0097 J0.
G1 X4.3765 Y12.7415
X4.3778 Y12.7422
X4.3789 Y12.7432
X4.3795 Y12.7446
X4.3796 Y12.746
X4.3791 Y12.7475
X4.3782 Y12.7486
X4.3769 Y12.7494
X4.3755 Y12.7497
X3.8385
G2 X3.7647 Y12.7988 I0. J0.0799
G3 X3.691 Y12.848 I-0.0738 J-0.0307
G1 X3.6841
G3 X3.6713 Y12.8352 I0. J-0.0128
G1 Y12.4802
G3 X3.6833 Y12.4708 I0.0097 J0.
G1 X5.1925 Y12.8399
X5.1939 Y12.8405
X5.1949 Y12.8415
X5.1955 Y12.8429
X5.1956 Y12.8444
X5.1952 Y12.8458
X5.1943 Y12.847
X5.193 Y12.8477
X5.1915 Y12.848
X3.691
G2 X3.6349 Y12.8795 I0. J0.0656
G3 X3.5729 Y12.8622 I-0.0285 J-0.0174
G1 Y12.355
G3 X3.585 Y12.3455 I0.0097 J0.
G1 X6.0086 Y12.9382
X6.0099 Y12.9388
X6.011 Y12.9399
X6.0116 Y12.9412
X6.0117 Y12.9427
X6.0112 Y12.9441
X6.0103 Y12.9453
X6.0091 Y12.9461
X6.0076 Y12.9463
X3.5857
G3 X3.5729 Y12.9336 I0. J-0.0128
G1 Y12.8622
G2 X3.5238 Y12.7884 I-0.0799 J0.
G3 X3.4746 Y12.7147 I0.0307 J-0.0738
G1 Y12.2297
G3 X3.4867 Y12.2202 I0.0097 J0.
G1 X6.8246 Y13.0366
X6.826 Y13.0372
X6.827 Y13.0382
X6.8277 Y13.0396
Y13.0411
X6.8273 Y13.0425
X6.8264 Y13.0437
X6.8251 Y13.0444
X6.8237 Y13.0447
X3.4874
G3 X3.4746 Y13.0319 I0. J-0.0128
G1 Y12.7147
G2 X3.4254 Y12.6409 I-0.0799 J0.
G3 X3.3763 Y12.5672 I0.0307 J-0.0738
G1 Y12.1044
G3 X3.3883 Y12.0949 I0.0097 J0.
G1 X7.4015 Y13.0764
G3 X7.4149 Y13.0935 I-0.0042 J0.0171
G1 Y13.1303
G3 X7.4021 Y13.143 I-0.0128 J0.
G1 X3.389
G3 X3.3763 Y13.1303 I0. J-0.0128
G1 Y12.5672
G2 X3.322 Y12.4858 I-0.0882 J0.
G3 X3.2678 Y12.4044 I0.0339 J-0.0814
G1 Y11.9661
G3 X3.2798 Y11.9567 I0.0097 J0.
G1 X7.51 Y12.9912
G3 X7.5234 Y13.0084 I-0.0042 J0.0171
G1 Y13.2388
G3 X7.5106 Y13.2515 I-0.0128 J0.
G1 X3.2805
G3 X3.2678 Y13.2388 I0. J-0.0128
G1 Y12.4044
G2 X3.2135 Y12.323 I-0.0882 J0.
G3 X3.1593 Y12.2417 I0.0339 J-0.0814
G1 Y11.8279
G3 X3.1713 Y11.8184 I0.0097 J0.
G1 X7.6185 Y12.9061
G3 X7.6319 Y12.9232 I-0.0042 J0.0171
G1 Y13.3473
G3 X7.6191 Y13.36 I-0.0128 J0.
G1 X3.172
G3 X3.1593 Y13.3473 I0. J-0.0128
G1 Y12.2417
G2 X3.1059 Y12.1616 I-0.0867 J0.
G3 X3.0526 Y12.0816 I0.0333 J-0.08
G1 Y11.7124
G3 X3.0844 Y11.6874 I0.0257 J0.
G1 X7.719 Y12.8208
G3 X7.7386 Y12.8458 I-0.0061 J0.025
G1 Y13.441
G3 X7.7128 Y13.4667 I-0.0257 J0.
G1 X3.0783
G3 X3.0526 Y13.441 I0. J-0.0258
G1 Y12.0816
G2 X2.9973 Y11.9987 I-0.0898 J0.
G3 X2.9421 Y11.9159 I0.0345 J-0.0829
G1 Y11.7124
G3 X3.1107 Y11.58 I0.1362 J0.
G1 X7.7452 Y12.7135
G3 X7.8491 Y12.8458 I-0.0324 J0.1323
G1 Y13.441
G3 X7.7128 Y13.5772 I-0.1362 J0.
G1 X3.0783
G3 X2.9421 Y13.441 I0. J-0.1363
G1 Y11.9159
G3 X3.0915 Y11.8504 Z-0.1215 I0.0891 J0. F33.3
G1 X3.8989 Y12.5951 Z-0.1496
G3 X3.8385 Y12.7497 Z-0.155 I-0.0604 J0.0655
G1 X3.7824 F75.
G3 X3.7696 Y12.7369 I0. J-0.0128
G1 Y12.6055
G3 X3.7817 Y12.5961 I0.0097 J0.
G1 X4.3765 Y12.7415
X4.3778 Y12.7422
X4.3789 Y12.7432
X4.3795 Y12.7446
X4.3796 Y12.746
X4.3791 Y12.7475
X4.3782 Y12.7486
X4.3769 Y12.7494
X4.3755 Y12.7497
X3.8385
G2 X3.7647 Y12.7988 I0. J0.0799
G3 X3.691 Y12.848 I-0.0738 J-0.0307
G1 X3.6841
G3 X3.6713 Y12.8352 I0. J-0.0128
G1 Y12.4802
G3 X3.6833 Y12.4708 I0.0097 J0.
G1 X5.1925 Y12.8399
X5.1939 Y12.8405
X5.1949 Y12.8415
X5.1955 Y12.8429
X5.1956 Y12.8444
X5.1952 Y12.8458
X5.1943 Y12.847
X5.193 Y12.8477
X5.1915 Y12.848
X3.691
G2 X3.6349 Y12.8795 I0. J0.0656
G3 X3.5729 Y12.8622 I-0.0285 J-0.0174
G1 Y12.355
G3 X3.585 Y12.3455 I0.0097 J0.
G1 X6.0086 Y12.9382
X6.0099 Y12.9388
X6.011 Y12.9399
X6.0116 Y12.9412
X6.0117 Y12.9427
X6.0112 Y12.9441
X6.0103 Y12.9453
X6.0091 Y12.9461
X6.0076 Y12.9463
X3.5857
G3 X3.5729 Y12.9336 I0. J-0.0128
G1 Y12.8622
G2 X3.5238 Y12.7884 I-0.0799 J0.
G3 X3.4746 Y12.7147 I0.0307 J-0.0738
G1 Y12.2297
G3 X3.4867 Y12.2202 I0.0097 J0.
G1 X6.8246 Y13.0366
X6.826 Y13.0372
X6.827 Y13.0382
X6.8277 Y13.0396
Y13.0411
X6.8273 Y13.0425
X6.8264 Y13.0437
X6.8251 Y13.0444
X6.8237 Y13.0447
X3.4874
G3 X3.4746 Y13.0319 I0. J-0.0128
G1 Y12.7147
G2 X3.4254 Y12.6409 I-0.0799 J0.
G3 X3.3763 Y12.5672 I0.0307 J-0.0738
G1 Y12.1044
G3 X3.3883 Y12.0949 I0.0097 J0.
G1 X7.4015 Y13.0764
G3 X7.4149 Y13.0935 I-0.0042 J0.0171
G1 Y13.1303
G3 X7.4021 Y13.143 I-0.0128 J0.
G1 X3.389
G3 X3.3763 Y13.1303 I0. J-0.0128
G1 Y12.5672
G2 X3.322 Y12.4858 I-0.0882 J0.
G3 X3.2678 Y12.4044 I0.0339 J-0.0814
G1 Y11.9661
G3 X3.2798 Y11.9567 I0.0097 J0.
G1 X7.51 Y12.9912
G3 X7.5234 Y13.0084 I-0.0042 J0.0171
G1 Y13.2388
G3 X7.5106 Y13.2515 I-0.0128 J0.
G1 X3.2805
G3 X3.2678 Y13.2388 I0. J-0.0128
G1 Y12.4044
G2 X3.2135 Y12.323 I-0.0882 J0.
G3 X3.1593 Y12.2417 I0.0339 J-0.0814
G1 Y11.8279
G3 X3.1713 Y11.8184 I0.0097 J0.
G1 X7.6185 Y12.9061
G3 X7.6319 Y12.9232 I-0.0042 J0.0171
G1 Y13.3473
G3 X7.6191 Y13.36 I-0.0128 J0.
G1 X3.172
G3 X3.1593 Y13.3473 I0. J-0.0128
G1 Y12.2417
G2 X3.1059 Y12.1616 I-0.0867 J0.
G3 X3.0526 Y12.0816 I0.0333 J-0.08
G1 Y11.7124
G3 X3.0844 Y11.6874 I0.0257 J0.
G1 X7.719 Y12.8208
G3 X7.7386 Y12.8458 I-0.0061 J0.025
G1 Y13.441
G3 X7.7128 Y13.4667 I-0.0257 J0.
G1 X3.0783
G3 X3.0526 Y13.441 I0. J-0.0258
G1 Y12.0816
G2 X2.9973 Y11.9987 I-0.0898 J0.
G3 X2.9421 Y11.9159 I0.0345 J-0.0829
G1 Y11.7124
G3 X3.1107 Y11.58 I0.1362 J0.
G1 X7.7452 Y12.7135
G3 X7.8491 Y12.8458 I-0.0324 J0.1323
G1 Y13.441
G3 X7.7128 Y13.5772 I-0.1362 J0.
G1 X3.0783
G3 X2.9421 Y13.441 I0. J-0.1363
G1 Y11.9159
X2.9423 Y11.9135 Z-0.1545
X2.9428 Y11.9111 Z-0.154
X2.9436 Y11.9089 Z-0.1536
X2.9451 Y11.9062 Z-0.1515
X2.947 Y11.9039 Z-0.1495
X2.9484 Y11.9024 Z-0.1465
X2.9501 Y11.9012 Z-0.1434
X2.9513 Y11.9005 Z-0.1363
G0 Z0.4
X2.0462 Y11.7575
Z0.15
G1 Z0.1187 F24.
X2.0452 Y11.7566 Z0.1117 F33.3
X2.0424 Y11.7539 Z0.1057
X2.0385 Y11.7495 Z0.1016
X2.0342 Y11.7441 Z0.1
G3 X2.1781 Y11.6391 Z0.0902 I0.072 J-0.0525
X2.0342 Y11.7441 Z0.0805 I-0.072 J0.0525
X2.1781 Y11.6391 Z0.0707 I0.072 J-0.0525
X2.0342 Y11.7441 Z0.0609 I-0.072 J0.0525
X2.1781 Y11.6391 Z0.0511 I0.072 J-0.0525
X2.0342 Y11.7441 Z0.0414 I-0.072 J0.0525
X2.1781 Y11.6391 Z0.0316 I0.072 J-0.0525
X2.0342 Y11.7441 Z0.0218 I-0.072 J0.0525
X2.1781 Y11.6391 Z0.0121 I0.072 J-0.0525
X2.0342 Y11.7441 Z0.0023 I-0.072 J0.0525
X2.1781 Y11.6391 Z-0.0075 I0.072 J-0.0525
X2.0342 Y11.7441 Z-0.0172 I-0.072 J0.0525
X2.1781 Y11.6391 Z-0.027 I0.072 J-0.0525
X2.0342 Y11.7441 Z-0.0368 I-0.072 J0.0525
X2.0171 Y11.6916 Z-0.0388 I0.072 J-0.0525
X2.1271 I0.055 J0. F75.
X1.9046 I-0.1113 J0.
X2.2396 I0.1675 J0.
X1.7921 I-0.2238 J0.
X2.3521 I0.28 J0.
X1.6796 I-0.3363 J0.
X2.4646 I0.3925 J0.
X1.5671 I-0.4488 J0.
X2.4646 I0.4488 J0.
X2.4548 Y11.701 I-0.0094 J0.
G1 X2.2407 Y11.6928
X2.0269 Y11.6925
G3 X2.0176 Y11.6821 I0. J-0.0094
X2.1947 Y11.7011 Z-0.0485 I0.0886 J0.0095 F33.3
X2.0176 Y11.6821 Z-0.0583 I-0.0886 J-0.0095
X2.1947 Y11.7011 Z-0.0681 I0.0886 J0.0095
X2.0171 Y11.6916 Z-0.0775 I-0.0886 J-0.0095
X2.1271 I0.055 J0. F75.
X1.9046 I-0.1113 J0.
X2.2396 I0.1675 J0.
X1.7921 I-0.2238 J0.
X2.3521 I0.28 J0.
X1.6796 I-0.3363 J0.
X2.4646 I0.3925 J0.
X1.5671 I-0.4488 J0.
X2.4646 I0.4488 J0.
X2.4548 Y11.701 I-0.0094 J0.
G1 X2.2407 Y11.6928
X2.0269 Y11.6925
G3 X2.0176 Y11.6821 I0. J-0.0094
X2.1947 Y11.7011 Z-0.0873 I0.0886 J0.0095 F33.3
X2.0176 Y11.6821 Z-0.097 I-0.0886 J-0.0095
X2.1947 Y11.7011 Z-0.1068 I0.0886 J0.0095
X2.0171 Y11.6916 Z-0.1162 I-0.0886 J-0.0095
X2.1271 I0.055 J0. F75.
X1.9046 I-0.1113 J0.
X2.2396 I0.1675 J0.
X1.7921 I-0.2238 J0.
X2.3521 I0.28 J0.
X1.6796 I-0.3363 J0.
X2.4646 I0.3925 J0.
X1.5671 I-0.4488 J0.
X2.4646 I0.4488 J0.
X2.4548 Y11.701 I-0.0094 J0.
G1 X2.2407 Y11.6928
X2.0269 Y11.6925
G3 X2.0176 Y11.6821 I0. J-0.0094
X2.1947 Y11.7011 Z-0.126 I0.0886 J0.0095 F33.3
X2.0176 Y11.6821 Z-0.1358 I-0.0886 J-0.0095
X2.1947 Y11.7011 Z-0.1456 I0.0886 J0.0095
X2.0171 Y11.6916 Z-0.155 I-0.0886 J-0.0095
X2.1271 I0.055 J0. F75.
X1.9046 I-0.1113 J0.
X2.2396 I0.1675 J0.
X1.7921 I-0.2238 J0.
X2.3521 I0.28 J0.
X1.6796 I-0.3363 J0.
X2.4646 I0.3925 J0.
X1.5671 I-0.4488 J0.
X2.4646 I0.4488 J0.
G1 X2.4644 Y11.694 Z-0.1545
X2.464 Y11.6963 Z-0.154
X2.4632 Y11.6986 Z-0.1536
X2.4618 Y11.7013 Z-0.1515
X2.4601 Y11.7038 Z-0.1495
X2.4587 Y11.7053 Z-0.1465
X2.4571 Y11.7066 Z-0.1434
X2.4559 Y11.7074 Z-0.1363
G0 Z0.4
X1.561 Y6.5738
Z0.15
G1 Z0.1187 F24.
X1.56 Y6.5729 Z0.1117 F33.3
X1.5572 Y6.5702 Z0.1057
X1.5532 Y6.5658 Z0.1016
X1.5489 Y6.5604 Z0.1
G3 X1.6928 Y6.4554 Z0.0902 I0.072 J-0.0525
X1.5489 Y6.5604 Z0.0805 I-0.072 J0.0525
X1.6928 Y6.4554 Z0.0707 I0.072 J-0.0525
X1.5489 Y6.5604 Z0.0609 I-0.072 J0.0525
X1.6928 Y6.4554 Z0.0511 I0.072 J-0.0525
X1.5489 Y6.5604 Z0.0414 I-0.072 J0.0525
X1.6928 Y6.4554 Z0.0316 I0.072 J-0.0525
X1.5489 Y6.5604 Z0.0218 I-0.072 J0.0525
X1.6928 Y6.4554 Z0.0121 I0.072 J-0.0525
X1.5489 Y6.5604 Z0.0023 I-0.072 J0.0525
X1.6928 Y6.4554 Z-0.0075 I0.072 J-0.0525
X1.5489 Y6.5604 Z-0.0172 I-0.072 J0.0525
X1.6928 Y6.4554 Z-0.027 I0.072 J-0.0525
X1.5489 Y6.5604 Z-0.0368 I-0.072 J0.0525
X1.5318 Y6.5079 Z-0.0388 I0.072 J-0.0525
X1.6418 I0.055 J0. F75.
X1.4193 I-0.1113 J0.
X1.7543 I0.1675 J0.
X1.3068 I-0.2238 J0.
X1.8668 I0.28 J0.
X1.1943 I-0.3363 J0.
X1.9793 I0.3925 J0.
X1.0818 I-0.4488 J0.
X1.9793 I0.4488 J0.
X1.9696 Y6.5173 I-0.0094 J0.
G1 X1.7555 Y6.5091
X1.5416 Y6.5088
G3 X1.5323 Y6.4984 I0. J-0.0094
X1.7094 Y6.5174 Z-0.0485 I0.0886 J0.0095 F33.3
X1.5323 Y6.4984 Z-0.0583 I-0.0886 J-0.0095
X1.7094 Y6.5174 Z-0.0681 I0.0886 J0.0095
X1.5318 Y6.5079 Z-0.0775 I-0.0886 J-0.0095
X1.6418 I0.055 J0. F75.
X1.4193 I-0.1113 J0.
X1.7543 I0.1675 J0.
X1.3068 I-0.2238 J0.
X1.8668 I0.28 J0.
X1.1943 I-0.3363 J0.
X1.9793 I0.3925 J0.
X1.0818 I-0.4488 J0.
X1.9793 I0.4488 J0.
X1.9696 Y6.5173 I-0.0094 J0.
G1 X1.7555 Y6.5091
X1.5416 Y6.5088
G3 X1.5323 Y6.4984 I0. J-0.0094
X1.7094 Y6.5174 Z-0.0873 I0.0886 J0.0095 F33.3
X1.5323 Y6.4984 Z-0.097 I-0.0886 J-0.0095
X1.7094 Y6.5174 Z-0.1068 I0.0886 J0.0095
X1.5318 Y6.5079 Z-0.1162 I-0.0886 J-0.0095
X1.6418 I0.055 J0. F75.
X1.4193 I-0.1113 J0.
X1.7543 I0.1675 J0.
X1.3068 I-0.2238 J0.
X1.8668 I0.28 J0.
X1.1943 I-0.3363 J0.
X1.9793 I0.3925 J0.
X1.0818 I-0.4488 J0.
X1.9793 I0.4488 J0.
X1.9696 Y6.5173 I-0.0094 J0.
G1 X1.7555 Y6.5091
X1.5416 Y6.5088
G3 X1.5323 Y6.4984 I0. J-0.0094
X1.7094 Y6.5174 Z-0.126 I0.0886 J0.0095 F33.3
X1.5323 Y6.4984 Z-0.1358 I-0.0886 J-0.0095
X1.7094 Y6.5174 Z-0.1456 I0.0886 J0.0095
X1.5318 Y6.5079 Z-0.155 I-0.0886 J-0.0095
X1.6418 I0.055 J0. F75.
X1.4193 I-0.1113 J0.
X1.7543 I0.1675 J0.
X1.3068 I-0.2238 J0.
X1.8668 I0.28 J0.
X1.1943 I-0.3363 J0.
X1.9793 I0.3925 J0.
X1.0818 I-0.4488 J0.
X1.9793 I0.4488 J0.
G1 X1.9791 Y6.5103 Z-0.1545
X1.9786 Y6.5126 Z-0.154
X1.9777 Y6.5149 Z-0.1536
X1.9763 Y6.5175 Z-0.1515
X1.9744 Y6.5199 Z-0.1495
X1.9729 Y6.5213 Z-0.1465
X1.9713 Y6.5226 Z-0.1434
X1.9701 Y6.5233 Z-0.1363
G0 Z0.4
X1.5576 Y1.9853
Z0.15
G1 Z0.1187 F24.
X1.5571 Y1.9866 Z0.1117 F33.3
X1.5554 Y1.9901 Z0.1057
X1.5526 Y1.9952 Z0.1016
X1.5489 Y2.0011 Z0.1
G3 X1.4024 Y1.8997 Z0.0902 I-0.0732 J-0.0507
X1.5489 Y2.0011 Z0.0805 I0.0732 J0.0507
X1.4024 Y1.8997 Z0.0707 I-0.0732 J-0.0507
X1.5489 Y2.0011 Z0.0609 I0.0732 J0.0507
X1.4024 Y1.8997 Z0.0511 I-0.0732 J-0.0507
X1.5489 Y2.0011 Z0.0414 I0.0732 J0.0507
X1.4024 Y1.8997 Z0.0316 I-0.0732 J-0.0507
X1.5489 Y2.0011 Z0.0218 I0.0732 J0.0507
X1.4024 Y1.8997 Z0.0121 I-0.0732 J-0.0507
X1.5489 Y2.0011 Z0.0023 I0.0732 J0.0507
X1.4024 Y1.8997 Z-0.0075 I-0.0732 J-0.0507
X1.5489 Y2.0011 Z-0.0172 I0.0732 J0.0507
X1.4024 Y1.8997 Z-0.027 I-0.0732 J-0.0507
X1.5489 Y2.0011 Z-0.0368 I0.0732 J0.0507
X1.505 Y2.0345 Z-0.0388 I-0.0732 J-0.0507
G1 X1.4528 Y2.0527 F75.
G3 X1.4411 Y2.0444 I-0.0029 J-0.0083
G1 Y1.9539
G3 X1.4539 Y1.9411 I0.0128 J0.
G1 X1.7473
X1.7488 Y1.9413
X1.7502 Y1.9421
X1.7511 Y1.9433
X1.7516 Y1.9447
Y1.9462
X1.7511 Y1.9477
X1.7501 Y1.9488
X1.7488 Y1.9496
X1.505 Y2.0345
G2 X1.4492 Y2.1083 I0.0275 J0.0788
G3 X1.3933 Y2.1822 I-0.0833 J-0.005
G1 X1.3502 Y2.1972
G3 X1.3384 Y2.1889 I-0.0029 J-0.0083
G1 Y1.8512
G3 X1.3512 Y1.8384 I0.0128 J0.
G1 X2.3538
X2.3553 Y1.8387
X2.3566 Y1.8395
X2.3576 Y1.8406
X2.3581 Y1.8421
Y1.8436
X2.3576 Y1.845
X2.3566 Y1.8462
X2.3553 Y1.8469
X1.3933 Y2.1822
G2 X1.3375 Y2.256 I0.0275 J0.0788
G3 X1.2817 Y2.3298 I-0.0833 J-0.005
G1 X1.2475 Y2.3417
G3 X1.2358 Y2.3334 I-0.0029 J-0.0083
G1 Y1.7485
G3 X1.2485 Y1.7358 I0.0128 J0.
G1 X2.9603
X2.9618 Y1.736
X2.9631 Y1.7368
X2.9641 Y1.738
X2.9646 Y1.7394
Y1.7409
X2.9641 Y1.7423
X2.9631 Y1.7435
X2.9618 Y1.7442
X1.2817 Y2.3298
G2 X1.2259 Y2.4036 I0.0275 J0.0788
G3 X1.1701 Y2.4774 I-0.0833 J-0.005
G1 X1.1448 Y2.4862
G3 X1.1331 Y2.4779 I-0.0029 J-0.0083
G1 Y1.6459
G3 X1.1459 Y1.6331 I0.0128 J0.
G1 X3.5668
X3.5683 Y1.6334
X3.5696 Y1.6341
X3.5706 Y1.6353
X3.5711 Y1.6367
Y1.6383
X3.5706 Y1.6397
X3.5696 Y1.6408
X3.5682 Y1.6416
X1.1701 Y2.4774
G2 X1.1143 Y2.5512 I0.0275 J0.0788
G3 X1.0585 Y2.625 I-0.0833 J-0.005
G1 X1.0422 Y2.6307
G3 X1.0304 Y2.6224 I-0.0029 J-0.0083
G1 Y1.5432
G3 X1.0432 Y1.5304 I0.0128 J0.
G1 X4.1733
X4.1748 Y1.5307
X4.1761 Y1.5315
X4.1771 Y1.5326
X4.1776 Y1.5341
Y1.5356
X4.1771 Y1.537
X4.1761 Y1.5382
X4.1747 Y1.5389
X1.0585 Y2.625
G2 X1.0026 Y2.6988 I0.0275 J0.0788
G3 X0.9468 Y2.7727 I-0.0833 J-0.005
G1 X0.9395 Y2.7752
G3 X0.9278 Y2.7669 I-0.0029 J-0.0083
G1 Y1.4405
G3 X0.9405 Y1.4278 I0.0128 J0.
G1 X4.7798
X4.7813 Y1.428
X4.7826 Y1.4288
X4.7836 Y1.43
X4.7841 Y1.4314
Y1.4329
X4.7836 Y1.4344
X4.7826 Y1.4355
X4.7812 Y1.4363
X0.9468 Y2.7727
G2 X0.8926 Y2.8168 I0.0338 J0.097
G3 X0.8251 Y2.7981 I-0.0311 J-0.0187
G1 Y1.3379
G3 X0.8379 Y1.3251 I0.0128 J0.
G1 X5.3863
X5.3878 Y1.3254
X5.3891 Y1.3261
X5.3901 Y1.3273
X5.3906 Y1.3287
Y1.3303
X5.39 Y1.3317
X5.3891 Y1.3328
X5.3877 Y1.3336
X0.8368 Y2.9197
G3 X0.8251 Y2.9114 I-0.0029 J-0.0083
G1 Y2.7981
G2 X0.7747 Y2.7225 I-0.082 J0.
G3 X0.7243 Y2.6468 I0.0315 J-0.0756
G1 Y1.25
G3 X0.75 Y1.2242 I0.0257 J0.
G1 X5.8558
G3 X5.8643 Y1.2743 I0. J0.0258
G1 X0.7585 Y3.0538
G3 X0.7243 Y3.0295 I-0.0085 J-0.0243
G1 Y2.6468
G2 X0.669 Y2.564 I-0.0898 J0.
G3 X0.6137 Y2.4811 I0.0345 J-0.0829
G1 Y1.25
G3 X0.75 Y1.1137 I0.1362 J0.
G1 X5.8558
G3 X5.9006 Y1.3787 I0. J0.1363
G1 X0.7948 Y3.1582
G3 X0.6137 Y3.0295 I-0.0448 J-0.1287
G1 Y2.4811
G3 X0.6839 Y2.3941 Z-0.0424 I0.0891 J0. F33.3
G1 X1.5531 Y2.2057 Z-0.0688
G2 X1.62 Y2.0945 Z-0.0732 I-0.0189 J-0.087
X1.505 Y2.0345 Z-0.0775 I-0.0857 J0.0241
G1 X1.4528 Y2.0527 F75.
G3 X1.4411 Y2.0444 I-0.0029 J-0.0083
G1 Y1.9539
G3 X1.4539 Y1.9411 I0.0128 J0.
G1 X1.7473
X1.7488 Y1.9413
X1.7502 Y1.9421
X1.7511 Y1.9433
X1.7516 Y1.9447
Y1.9462
X1.7511 Y1.9477
X1.7501 Y1.9488
X1.7488 Y1.9496
X1.505 Y2.0345
G2 X1.4492 Y2.1083 I0.0275 J0.0788
G3 X1.3933 Y2.1822 I-0.0833 J-0.005
G1 X1.3502 Y2.1972
G3 X1.3384 Y2.1889 I-0.0029 J-0.0083
G1 Y1.8512
G3 X1.3512 Y1.8384 I0.0128 J0.
G1 X2.3538
X2.3553 Y1.8387
X2.3566 Y1.8395
X2.3576 Y1.8406
X2.3581 Y1.8421
Y1.8436
X2.3576 Y1.845
X2.3566 Y1.8462
X2.3553 Y1.8469
X1.3933 Y2.1822
G2 X1.3375 Y2.256 I0.0275 J0.0788
G3 X1.2817 Y2.3298 I-0.0833 J-0.005
G1 X1.2475 Y2.3417
G3 X1.2358 Y2.3334 I-0.0029 J-0.0083
G1 Y1.7485
G3 X1.2485 Y1.7358 I0.0128 J0.
G1 X2.9603
X2.9618 Y1.736
X2.9631 Y1.7368
X2.9641 Y1.738
X2.9646 Y1.7394
Y1.7409
X2.9641 Y1.7423
X2.9631 Y1.7435
X2.9618 Y1.7442
X1.2817 Y2.3298
G2 X1.2259 Y2.4036 I0.0275 J0.0788
G3 X1.1701 Y2.4774 I-0.0833 J-0.005
G1 X1.1448 Y2.4862
G3 X1.1331 Y2.4779 I-0.0029 J-0.0083
G1 Y1.6459
G3 X1.1459 Y1.6331 I0.0128 J0.
G1 X3.5668
X3.5683 Y1.6334
X3.5696 Y1.6341
X3.5706 Y1.6353
X3.5711 Y1.6367
Y1.6383
X3.5706 Y1.6397
X3.5696 Y1.6408
X3.5682 Y1.6416
X1.1701 Y2.4774
G2 X1.1143 Y2.5512 I0.0275 J0.0788
G3 X1.0585 Y2.625 I-0.0833 J-0.005
G1 X1.0422 Y2.6307
G3 X1.0304 Y2.6224 I-0.0029 J-0.0083
G1 Y1.5432
G3 X1.0432 Y1.5304 I0.0128 J0.
G1 X4.1733
X4.1748 Y1.5307
X4.1761 Y1.5315
X4.1771 Y1.5326
X4.1776 Y1.5341
Y1.5356
X4.1771 Y1.537
X4.1761 Y1.5382
X4.1747 Y1.5389
X1.0585 Y2.625
G2 X1.0026 Y2.6988 I0.0275 J0.0788
G3 X0.9468 Y2.7727 I-0.0833 J-0.005
G1 X0.9395 Y2.7752
G3 X0.9278 Y2.7669 I-0.0029 J-0.0083
G1 Y1.4405
G3 X0.9405 Y1.4278 I0.0128 J0.
G1 X4.7798
X4.7813 Y1.428
X4.7826 Y1.4288
X4.7836 Y1.43
X4.7841 Y1.4314
Y1.4329
X4.7836 Y1.4344
X4.7826 Y1.4355
X4.7812 Y1.4363
X0.9468 Y2.7727
G2 X0.8926 Y2.8168 I0.0338 J0.097
G3 X0.8251 Y2.7981 I-0.0311 J-0.0187
G1 Y1.3379
G3 X0.8379 Y1.3251 I0.0128 J0.
G1 X5.3863
X5.3878 Y1.3254
X5.3891 Y1.3261
X5.3901 Y1.3273
X5.3906 Y1.3287
Y1.3303
X5.39 Y1.3317
X5.3891 Y1.3328
X5.3877 Y1.3336
X0.8368 Y2.9197
G3 X0.8251 Y2.9114 I-0.0029 J-0.0083
G1 Y2.7981
G2 X0.7747 Y2.7225 I-0.082 J0.
G3 X0.7243 Y2.6468 I0.0315 J-0.0756
G1 Y1.25
G3 X0.75 Y1.2242 I0.0257 J0.
G1 X5.8558
G3 X5.8643 Y1.2743 I0. J0.0258
G1 X0.7585 Y3.0538
G3 X0.7243 Y3.0295 I-0.0085 J-0.0243
G1 Y2.6468
G2 X0.669 Y2.564 I-0.0898 J0.
G3 X0.6137 Y2.4811 I0.0345 J-0.0829
G1 Y1.25
G3 X0.75 Y1.1137 I0.1362 J0.
G1 X5.8558
G3 X5.9006 Y1.3787 I0. J0.1363
G1 X0.7948 Y3.1582
G3 X0.6137 Y3.0295 I-0.0448 J-0.1287
G1 Y2.4811
G3 X0.6839 Y2.3941 Z-0.0811 I0.0891 J0. F33.3
G1 X1.5531 Y2.2057 Z-0.1076
G2 X1.62 Y2.0945 Z-0.1119 I-0.0189 J-0.087
X1.505 Y2.0345 Z-0.1162 I-0.0857 J0.0241
G1 X1.4528 Y2.0527 F75.
G3 X1.4411 Y2.0444 I-0.0029 J-0.0083
G1 Y1.9539
G3 X1.4539 Y1.9411 I0.0128 J0.
G1 X1.7473
X1.7488 Y1.9413
X1.7502 Y1.9421
X1.7511 Y1.9433
X1.7516 Y1.9447
Y1.9462
X1.7511 Y1.9477
X1.7501 Y1.9488
X1.7488 Y1.9496
X1.505 Y2.0345
G2 X1.4492 Y2.1083 I0.0275 J0.0788
G3 X1.3933 Y2.1822 I-0.0833 J-0.005
G1 X1.3502 Y2.1972
G3 X1.3384 Y2.1889 I-0.0029 J-0.0083
G1 Y1.8512
G3 X1.3512 Y1.8384 I0.0128 J0.
G1 X2.3538
X2.3553 Y1.8387
X2.3566 Y1.8395
X2.3576 Y1.8406
X2.3581 Y1.8421
Y1.8436
X2.3576 Y1.845
X2.3566 Y1.8462
X2.3553 Y1.8469
X1.3933 Y2.1822
G2 X1.3375 Y2.256 I0.0275 J0.0788
G3 X1.2817 Y2.3298 I-0.0833 J-0.005
G1 X1.2475 Y2.3417
G3 X1.2358 Y2.3334 I-0.0029 J-0.0083
G1 Y1.7485
G3 X1.2485 Y1.7358 I0.0128 J0.
G1 X2.9603
X2.9618 Y1.736
X2.9631 Y1.7368
X2.9641 Y1.738
X2.9646 Y1.7394
Y1.7409
X2.9641 Y1.7423
X2.9631 Y1.7435
X2.9618 Y1.7442
X1.2817 Y2.3298
G2 X1.2259 Y2.4036 I0.0275 J0.0788
G3 X1.1701 Y2.4774 I-0.0833 J-0.005
G1 X1.1448 Y2.4862
G3 X1.1331 Y2.4779 I-0.0029 J-0.0083
G1 Y1.6459
G3 X1.1459 Y1.6331 I0.0128 J0.
G1 X3.5668
X3.5683 Y1.6334
X3.5696 Y1.6341
X3.5706 Y1.6353
X3.5711 Y1.6367
Y1.6383
X3.5706 Y1.6397
X3.5696 Y1.6408
X3.5682 Y1.6416
X1.1701 Y2.4774
G2 X1.1143 Y2.5512 I0.0275 J0.0788
G3 X1.0585 Y2.625 I-0.0833 J-0.005
G1 X1.0422 Y2.6307
G3 X1.0304 Y2.6224 I-0.0029 J-0.0083
G1 Y1.5432
G3 X1.0432 Y1.5304 I0.0128 J0.
G1 X4.1733
X4.1748 Y1.5307
X4.1761 Y1.5315
X4.1771 Y1.5326
X4.1776 Y1.5341
Y1.5356
X4.1771 Y1.537
X4.1761 Y1.5382
X4.1747 Y1.5389
X1.0585 Y2.625
G2 X1.0026 Y2.6988 I0.0275 J0.0788
G3 X0.9468 Y2.7727 I-0.0833 J-0.005
G1 X0.9395 Y2.7752
G3 X0.9278 Y2.7669 I-0.0029 J-0.0083
G1 Y1.4405
G3 X0.9405 Y1.4278 I0.0128 J0.
G1 X4.7798
X4.7813 Y1.428
X4.7826 Y1.4288
X4.7836 Y1.43
X4.7841 Y1.4314
Y1.4329
X4.7836 Y1.4344
X4.7826 Y1.4355
X4.7812 Y1.4363
X0.9468 Y2.7727
G2 X0.8926 Y2.8168 I0.0338 J0.097
G3 X0.8251 Y2.7981 I-0.0311 J-0.0187
G1 Y1.3379
G3 X0.8379 Y1.3251 I0.0128 J0.
G1 X5.3863
X5.3878 Y1.3254
X5.3891 Y1.3261
X5.3901 Y1.3273
X5.3906 Y1.3287
Y1.3303
X5.39 Y1.3317
X5.3891 Y1.3328
X5.3877 Y1.3336
X0.8368 Y2.9197
G3 X0.8251 Y2.9114 I-0.0029 J-0.0083
G1 Y2.7981
G2 X0.7747 Y2.7225 I-0.082 J0.
G3 X0.7243 Y2.6468 I0.0315 J-0.0756
G1 Y1.25
G3 X0.75 Y1.2242 I0.0257 J0.
G1 X5.8558
G3 X5.8643 Y1.2743 I0. J0.0258
G1 X0.7585 Y3.0538
G3 X0.7243 Y3.0295 I-0.0085 J-0.0243
G1 Y2.6468
G2 X0.669 Y2.564 I-0.0898 J0.
G3 X0.6137 Y2.4811 I0.0345 J-0.0829
G1 Y1.25
G3 X0.75 Y1.1137 I0.1362 J0.
G1 X5.8558
G3 X5.9006 Y1.3787 I0. J0.1363
G1 X0.7948 Y3.1582
G3 X0.6137 Y3.0295 I-0.0448 J-0.1287
G1 Y2.4811
G3 X0.6839 Y2.3941 Z-0.1199 I0.0891 J0. F33.3
G1 X1.5531 Y2.2057 Z-0.1463
G2 X1.62 Y2.0945 Z-0.1507 I-0.0189 J-0.087
X1.505 Y2.0345 Z-0.155 I-0.0857 J0.0241
G1 X1.4528 Y2.0527 F75.
G3 X1.4411 Y2.0444 I-0.0029 J-0.0083
G1 Y1.9539
G3 X1.4539 Y1.9411 I0.0128 J0.
G1 X1.7473
X1.7488 Y1.9413
X1.7502 Y1.9421
X1.7511 Y1.9433
X1.7516 Y1.9447
Y1.9462
X1.7511 Y1.9477
X1.7501 Y1.9488
X1.7488 Y1.9496
X1.505 Y2.0345
G2 X1.4492 Y2.1083 I0.0275 J0.0788
G3 X1.3933 Y2.1822 I-0.0833 J-0.005
G1 X1.3502 Y2.1972
G3 X1.3384 Y2.1889 I-0.0029 J-0.0083
G1 Y1.8512
G3 X1.3512 Y1.8384 I0.0128 J0.
G1 X2.3538
X2.3553 Y1.8387
X2.3566 Y1.8395
X2.3576 Y1.8406
X2.3581 Y1.8421
Y1.8436
X2.3576 Y1.845
X2.3566 Y1.8462
X2.3553 Y1.8469
X1.3933 Y2.1822
G2 X1.3375 Y2.256 I0.0275 J0.0788
G3 X1.2817 Y2.3298 I-0.0833 J-0.005
G1 X1.2475 Y2.3417
G3 X1.2358 Y2.3334 I-0.0029 J-0.0083
G1 Y1.7485
G3 X1.2485 Y1.7358 I0.0128 J0.
G1 X2.9603
X2.9618 Y1.736
X2.9631 Y1.7368
X2.9641 Y1.738
X2.9646 Y1.7394
Y1.7409
X2.9641 Y1.7423
X2.9631 Y1.7435
X2.9618 Y1.7442
X1.2817 Y2.3298
G2 X1.2259 Y2.4036 I0.0275 J0.0788
G3 X1.1701 Y2.4774 I-0.0833 J-0.005
G1 X1.1448 Y2.4862
G3 X1.1331 Y2.4779 I-0.0029 J-0.0083
G1 Y1.6459
G3 X1.1459 Y1.6331 I0.0128 J0.
G1 X3.5668
X3.5683 Y1.6334
X3.5696 Y1.6341
X3.5706 Y1.6353
X3.5711 Y1.6367
Y1.6383
X3.5706 Y1.6397
X3.5696 Y1.6408
X3.5682 Y1.6416
X1.1701 Y2.4774
G2 X1.1143 Y2.5512 I0.0275 J0.0788
G3 X1.0585 Y2.625 I-0.0833 J-0.005
G1 X1.0422 Y2.6307
G3 X1.0304 Y2.6224 I-0.0029 J-0.0083
G1 Y1.5432
G3 X1.0432 Y1.5304 I0.0128 J0.
G1 X4.1733
X4.1748 Y1.5307
X4.1761 Y1.5315
X4.1771 Y1.5326
X4.1776 Y1.5341
Y1.5356
X4.1771 Y1.537
X4.1761 Y1.5382
X4.1747 Y1.5389
X1.0585 Y2.625
G2 X1.0026 Y2.6988 I0.0275 J0.0788
G3 X0.9468 Y2.7727 I-0.0833 J-0.005
G1 X0.9395 Y2.7752
G3 X0.9278 Y2.7669 I-0.0029 J-0.0083
G1 Y1.4405
G3 X0.9405 Y1.4278 I0.0128 J0.
G1 X4.7798
X4.7813 Y1.428
X4.7826 Y1.4288
X4.7836 Y1.43
X4.7841 Y1.4314
Y1.4329
X4.7836 Y1.4344
X4.7826 Y1.4355
X4.7812 Y1.4363
X0.9468 Y2.7727
G2 X0.8926 Y2.8168 I0.0338 J0.097
G3 X0.8251 Y2.7981 I-0.0311 J-0.0187
G1 Y1.3379
G3 X0.8379 Y1.3251 I0.0128 J0.
G1 X5.3863
X5.3878 Y1.3254
X5.3891 Y1.3261
X5.3901 Y1.3273
X5.3906 Y1.3287
Y1.3303
X5.39 Y1.3317
X5.3891 Y1.3328
X5.3877 Y1.3336
X0.8368 Y2.9197
G3 X0.8251 Y2.9114 I-0.0029 J-0.0083
G1 Y2.7981
G2 X0.7747 Y2.7225 I-0.082 J0.
G3 X0.7243 Y2.6468 I0.0315 J-0.0756
G1 Y1.25
G3 X0.75 Y1.2242 I0.0257 J0.
G1 X5.8558
G3 X5.8643 Y1.2743 I0. J0.0258
G1 X0.7585 Y3.0538
G3 X0.7243 Y3.0295 I-0.0085 J-0.0243
G1 Y2.6468
G2 X0.669 Y2.564 I-0.0898 J0.
G3 X0.6137 Y2.4811 I0.0345 J-0.0829
G1 Y1.25
G3 X0.75 Y1.1137 I0.1362 J0.
G1 X5.8558
G3 X5.9006 Y1.3787 I0. J0.1363
G1 X0.7948 Y3.1582
G3 X0.6137 Y3.0295 I-0.0448 J-0.1287
G1 Y2.4811
X0.614 Y2.4787 Z-0.1545
X0.6145 Y2.4764 Z-0.154
X0.6153 Y2.4741 Z-0.1536
X0.6168 Y2.4715 Z-0.1515
X0.6187 Y2.4691 Z-0.1495
X0.6201 Y2.4677 Z-0.1465
X0.6217 Y2.4664 Z-0.1434
X0.6229 Y2.4657 Z-0.1363
G0 Z0.4
X6.5609 Y2.8502
Z0.15
G1 Z0.1187 F24.
X6.56 Y2.8512 Z0.1117 F33.3
X6.5573 Y2.854 Z0.1057
X6.5529 Y2.8579 Z0.1016
X6.5475 Y2.8622 Z0.1
G3 X6.4425 Y2.7183 Z0.0902 I-0.0525 J-0.072
X6.5475 Y2.8622 Z0.0805 I0.0525 J0.072
X6.4425 Y2.7183 Z0.0707 I-0.0525 J-0.072
X6.5475 Y2.8622 Z0.0609 I0.0525 J0.072
X6.4425 Y2.7183 Z0.0511 I-0.0525 J-0.072
X6.5475 Y2.8622 Z0.0414 I0.0525 J0.072
X6.4425 Y2.7183 Z0.0316 I-0.0525 J-0.072
X6.5475 Y2.8622 Z0.0218 I0.0525 J0.072
X6.4425 Y2.7183 Z0.0121 I-0.0525 J-0.072
X6.5475 Y2.8622 Z0.0023 I0.0525 J0.072
X6.4425 Y2.7183 Z-0.0075 I-0.0525 J-0.072
X6.5475 Y2.8622 Z-0.0172 I0.0525 J0.072
X6.4425 Y2.7183 Z-0.027 I-0.0525 J-0.072
X6.5475 Y2.8622 Z-0.0368 I0.0525 J0.072
X6.495 Y2.8793 Z-0.0388 I-0.0525 J-0.072
G1 X6.345 F75.
X6.3435 Y2.8791
X6.3422 Y2.8783
X6.3412 Y2.8771
X6.3407 Y2.8757
Y2.8742
X6.3412 Y2.8728
X6.3422 Y2.8716
X6.3436 Y2.8709
X6.5 Y2.8163
G3 X6.5156 Y2.8231 I0.0042 J0.0119
G2 X6.5372 Y2.8693 I1.8267 J-0.8231
G3 X6.5308 Y2.8793 I-0.0063 J0.003
G1 X6.495
G2 X6.418 Y2.9307 I0. J0.0834
G3 X6.341 Y2.982 I-0.077 J-0.0321
G1 X5.7385
X5.737 Y2.9817
X5.7357 Y2.981
X5.7347 Y2.9798
X5.7342 Y2.9784
Y2.9768
X5.7347 Y2.9754
X5.7357 Y2.9743
X5.7371 Y2.9735
X6.5571 Y2.6877
G3 X6.573 Y2.695 I0.0042 J0.0119
G2 X6.7084 Y2.9714 I1.7693 J-0.695
G3 X6.7023 Y2.982 I-0.006 J0.0036
G1 X6.341
G2 X6.264 Y3.0333 I0. J0.0834
G3 X6.187 Y3.0847 I-0.077 J-0.0321
G1 X5.132
X5.1305 Y3.0844
X5.1292 Y3.0836
X5.1282 Y3.0825
X5.1277 Y3.081
Y3.0795
X5.1283 Y3.0781
X5.1292 Y3.0769
X5.1306 Y3.0762
X6.6191 Y2.5574
G3 X6.6353 Y2.5653 I0.0042 J0.0119
G2 X6.8996 Y3.0735 I1.7071 J-0.5653
G3 X6.894 Y3.0847 I-0.0056 J0.0042
G1 X6.187
G2 X6.11 Y3.136 I0. J0.0834
G3 X6.033 Y3.1873 I-0.077 J-0.0321
G1 X4.5255
X4.524 Y3.1871
X4.5227 Y3.1863
X4.5217 Y3.1851
X4.5212 Y3.1837
Y3.1822
X4.5218 Y3.1807
X4.5227 Y3.1796
X4.5241 Y3.1788
X6.6901 Y2.4239
G3 X6.7023 Y2.4304 I0.0031 J0.0089
G2 X7.1232 Y3.1785 I1.6401 J-0.4304
G1 X7.1242 Y3.1799
X7.1247 Y3.1816
X7.1246 Y3.1833
X7.1239 Y3.1849
X7.1227 Y3.1862
X7.1212 Y3.187
X7.1195 Y3.1873
X6.033
G2 X5.956 Y3.2386 I0. J0.0834
G3 X5.879 Y3.29 I-0.077 J-0.0321
G1 X3.919
X3.9175 Y3.2897
X3.9162 Y3.2889
X3.9152 Y3.2878
X3.9147 Y3.2863
Y3.2848
X3.9153 Y3.2834
X3.9163 Y3.2822
X3.9176 Y3.2815
X6.7649 Y2.2891
G3 X6.7772 Y2.2963 I0.0031 J0.0089
G2 X7.3949 Y3.2806 I1.5651 J-0.2963
G3 X7.3918 Y3.29 I-0.0031 J0.0042
G1 X5.879
G2 X5.802 Y3.3413 I0. J0.0834
G3 X5.725 Y3.3926 I-0.077 J-0.0321
G1 X3.3125
X3.311 Y3.3924
X3.3097 Y3.3916
X3.3087 Y3.3904
X3.3082 Y3.389
Y3.3875
X3.3088 Y3.3861
X3.3098 Y3.3849
X3.3111 Y3.3842
X6.8482 Y2.1514
G3 X6.8606 Y2.1593 I0.0031 J0.0089
G2 X7.6524 Y3.321 I1.4817 J-0.1593
G3 X7.6645 Y3.341 I-0.0105 J0.02
G1 Y3.3799
G3 X7.6518 Y3.3926 I-0.0128 J0.
G1 X5.725
G2 X5.648 Y3.444 I0. J0.0834
G3 X5.571 Y3.4953 I-0.077 J-0.0321
G1 X2.706
X2.7045 Y3.495
X2.7032 Y3.4943
X2.7022 Y3.4931
X2.7017 Y3.4917
Y3.4901
X2.7023 Y3.4887
X2.7033 Y3.4876
X2.7046 Y3.4868
X6.9455 Y2.0087
G3 X6.9548 Y2.0153 I0.0023 J0.0066
G2 X7.7542 Y3.2568 I1.3875 J-0.0153
G3 X7.7672 Y3.2773 I-0.0096 J0.0205
G1 Y3.4825
G3 X7.7544 Y3.4953 I-0.0128 J0.
G1 X5.571
G2 X5.4954 Y3.5457 I0. J0.082
G3 X5.4197 Y3.5962 I-0.0756 J-0.0315
G1 X2.2365
G3 X2.2281 Y3.5461 I0. J-0.0258
G1 X7.0253 Y1.8741
G3 X7.0595 Y1.9004 I0.0085 J0.0243
G2 X7.8521 Y3.1897 I1.2829 J0.0996
G3 X7.8681 Y3.2135 I-0.0098 J0.0238
G1 Y3.5704
G3 X7.8423 Y3.5962 I-0.0257 J0.
G1 X5.4197
G2 X5.3369 Y3.6514 I0. J0.0898
G3 X5.254 Y3.7067 I-0.0829 J-0.0345
G1 X2.2365
G3 X2.1917 Y3.4418 I0. J-0.1363
G1 X6.9889 Y1.7698
G3 X7.1696 Y1.909 I0.0448 J0.1287
G2 X7.8942 Y3.0876 I1.1727 J0.091
G3 X7.9786 Y3.2135 I-0.0519 J0.126
G1 Y3.5704
G3 X7.8423 Y3.7067 I-0.1362 J0.
G1 X5.254
G3 X5.2231 Y3.5341 Z-0.0439 I0. J-0.0891 F33.3
G1 X6.5259 Y3.0519 Z-0.0724
G2 X6.495 Y2.8793 Z-0.0775 I-0.0309 J-0.0835
G1 X6.345 F75.
X6.3435 Y2.8791
X6.3422 Y2.8783
X6.3412 Y2.8771
X6.3407 Y2.8757
Y2.8742
X6.3412 Y2.8728
X6.3422 Y2.8716
X6.3436 Y2.8709
X6.5 Y2.8163
G3 X6.5156 Y2.8231 I0.0042 J0.0119
G2 X6.5372 Y2.8693 I1.8267 J-0.8231
G3 X6.5308 Y2.8793 I-0.0063 J0.003
G1 X6.495
G2 X6.418 Y2.9307 I0. J0.0834
G3 X6.341 Y2.982 I-0.077 J-0.0321
G1 X5.7385
X5.737 Y2.9817
X5.7357 Y2.981
X5.7347 Y2.9798
X5.7342 Y2.9784
Y2.9768
X5.7347 Y2.9754
X5.7357 Y2.9743
X5.7371 Y2.9735
X6.5571 Y2.6877
G3 X6.573 Y2.695 I0.0042 J0.0119
G2 X6.7084 Y2.9714 I1.7693 J-0.695
G3 X6.7023 Y2.982 I-0.006 J0.0036
G1 X6.341
G2 X6.264 Y3.0333 I0. J0.0834
G3 X6.187 Y3.0847 I-0.077 J-0.0321
G1 X5.132
X5.1305 Y3.0844
X5.1292 Y3.0836
X5.1282 Y3.0825
X5.1277 Y3.081
Y3.0795
X5.1283 Y3.0781
X5.1292 Y3.0769
X5.1306 Y3.0762
X6.6191 Y2.5574
G3 X6.6353 Y2.5653 I0.0042 J0.0119
G2 X6.8996 Y3.0735 I1.7071 J-0.5653
G3 X6.894 Y3.0847 I-0.0056 J0.0042
G1 X6.187
G2 X6.11 Y3.136 I0. J0.0834
G3 X6.033 Y3.1873 I-0.077 J-0.0321
G1 X4.5255
X4.524 Y3.1871
X4.5227 Y3.1863
X4.5217 Y3.1851
X4.5212 Y3.1837
Y3.1822
X4.5218 Y3.1807
X4.5227 Y3.1796
X4.5241 Y3.1788
X6.6901 Y2.4239
G3 X6.7023 Y2.4304 I0.0031 J0.0089
G2 X7.1232 Y3.1785 I1.6401 J-0.4304
G1 X7.1242 Y3.1799
X7.1247 Y3.1816
X7.1246 Y3.1833
X7.1239 Y3.1849
X7.1227 Y3.1862
X7.1212 Y3.187
X7.1195 Y3.1873
X6.033
G2 X5.956 Y3.2386 I0. J0.0834
G3 X5.879 Y3.29 I-0.077 J-0.0321
G1 X3.919
X3.9175 Y3.2897
X3.9162 Y3.2889
X3.9152 Y3.2878
X3.9147 Y3.2863
Y3.2848
X3.9153 Y3.2834
X3.9163 Y3.2822
X3.9176 Y3.2815
X6.7649 Y2.2891
G3 X6.7772 Y2.2963 I0.0031 J0.0089
G2 X7.3949 Y3.2806 I1.5651 J-0.2963
G3 X7.3918 Y3.29 I-0.0031 J0.0042
G1 X5.879
G2 X5.802 Y3.3413 I0. J0.0834
G3 X5.725 Y3.3926 I-0.077 J-0.0321
G1 X3.3125
X3.311 Y3.3924
X3.3097 Y3.3916
X3.3087 Y3.3904
X3.3082 Y3.389
Y3.3875
X3.3088 Y3.3861
X3.3098 Y3.3849
X3.3111 Y3.3842
X6.8482 Y2.1514
G3 X6.8606 Y2.1593 I0.0031 J0.0089
G2 X7.6524 Y3.321 I1.4817 J-0.1593
G3 X7.6645 Y3.341 I-0.0105 J0.02
G1 Y3.3799
G3 X7.6518 Y3.3926 I-0.0128 J0.
G1 X5.725
G2 X5.648 Y3.444 I0. J0.0834
G3 X5.571 Y3.4953 I-0.077 J-0.0321
G1 X2.706
X2.7045 Y3.495
X2.7032 Y3.4943
X2.7022 Y3.4931
X2.7017 Y3.4917
Y3.4901
X2.7023 Y3.4887
X2.7033 Y3.4876
X2.7046 Y3.4868
X6.9455 Y2.0087
G3 X6.9548 Y2.0153 I0.0023 J0.0066
G2 X7.7542 Y3.2568 I1.3875 J-0.0153
G3 X7.7672 Y3.2773 I-0.0096 J0.0205
G1 Y3.4825
G3 X7.7544 Y3.4953 I-0.0128 J0.
G1 X5.571
G2 X5.4954 Y3.5457 I0. J0.082
G3 X5.4197 Y3.5962 I-0.0756 J-0.0315
G1 X2.2365
G3 X2.2281 Y3.5461 I0. J-0.0258
G1 X7.0253 Y1.8741
G3 X7.0595 Y1.9004 I0.0085 J0.0243
G2 X7.8521 Y3.1897 I1.2829 J0.0996
G3 X7.8681 Y3.2135 I-0.0098 J0.0238
G1 Y3.5704
G3 X7.8423 Y3.5962 I-0.0257 J0.
G1 X5.4197
G2 X5.3369 Y3.6514 I0. J0.0898
G3 X5.254 Y3.7067 I-0.0829 J-0.0345
G1 X2.2365
G3 X2.1917 Y3.4418 I0. J-0.1363
G1 X6.9889 Y1.7698
G3 X7.1696 Y1.909 I0.0448 J0.1287
G2 X7.8942 Y3.0876 I1.1727 J0.091
G3 X7.9786 Y3.2135 I-0.0519 J0.126
G1 Y3.5704
G3 X7.8423 Y3.7067 I-0.1362 J0.
G1 X5.254
G3 X5.2231 Y3.5341 Z-0.0826 I0. J-0.0891 F33.3
G1 X6.5259 Y3.0519 Z-0.1111
G2 X6.495 Y2.8793 Z-0.1162 I-0.0309 J-0.0835
G1 X6.345 F75.
X6.3435 Y2.8791
X6.3422 Y2.8783
X6.3412 Y2.8771
X6.3407 Y2.8757
Y2.8742
X6.3412 Y2.8728
X6.3422 Y2.8716
X6.3436 Y2.8709
X6.5 Y2.8163
G3 X6.5156 Y2.8231 I0.0042 J0.0119
G2 X6.5372 Y2.8693 I1.8267 J-0.8231
G3 X6.5308 Y2.8793 I-0.0063 J0.003
G1 X6.495
G2 X6.418 Y2.9307 I0. J0.0834
G3 X6.341 Y2.982 I-0.077 J-0.0321
G1 X5.7385
X5.737 Y2.9817
X5.7357 Y2.981
X5.7347 Y2.9798
X5.7342 Y2.9784
Y2.9768
X5.7347 Y2.9754
X5.7357 Y2.9743
X5.7371 Y2.9735
X6.5571 Y2.6877
G3 X6.573 Y2.695 I0.0042 J0.0119
G2 X6.7084 Y2.9714 I1.7693 J-0.695
G3 X6.7023 Y2.982 I-0.006 J0.0036
G1 X6.341
G2 X6.264 Y3.0333 I0. J0.0834
G3 X6.187 Y3.0847 I-0.077 J-0.0321
G1 X5.132
X5.1305 Y3.0844
X5.1292 Y3.0836
X5.1282 Y3.0825
X5.1277 Y3.081
Y3.0795
X5.1283 Y3.0781
X5.1292 Y3.0769
X5.1306 Y3.0762
X6.6191 Y2.5574
G3 X6.6353 Y2.5653 I0.0042 J0.0119
G2 X6.8996 Y3.0735 I1.7071 J-0.5653
G3 X6.894 Y3.0847 I-0.0056 J0.0042
G1 X6.187
G2 X6.11 Y3.136 I0. J0.0834
G3 X6.033 Y3.1873 I-0.077 J-0.0321
G1 X4.5255
X4.524 Y3.1871
X4.5227 Y3.1863
X4.5217 Y3.1851
X4.5212 Y3.1837
Y3.1822
X4.5218 Y3.1807
X4.5227 Y3.1796
X4.5241 Y3.1788
X6.6901 Y2.4239
G3 X6.7023 Y2.4304 I0.0031 J0.0089
G2 X7.1232 Y3.1785 I1.6401 J-0.4304
G1 X7.1242 Y3.1799
X7.1247 Y3.1816
X7.1246 Y3.1833
X7.1239 Y3.1849
X7.1227 Y3.1862
X7.1212 Y3.187
X7.1195 Y3.1873
X6.033
G2 X5.956 Y3.2386 I0. J0.0834
G3 X5.879 Y3.29 I-0.077 J-0.0321
G1 X3.919
X3.9175 Y3.2897
X3.9162 Y3.2889
X3.9152 Y3.2878
X3.9147 Y3.2863
Y3.2848
X3.9153 Y3.2834
X3.9163 Y3.2822
X3.9176 Y3.2815
X6.7649 Y2.2891
G3 X6.7772 Y2.2963 I0.0031 J0.0089
G2 X7.3949 Y3.2806 I1.5651 J-0.2963
G3 X7.3918 Y3.29 I-0.0031 J0.0042
G1 X5.879
G2 X5.802 Y3.3413 I0. J0.0834
G3 X5.725 Y3.3926 I-0.077 J-0.0321
G1 X3.3125
X3.311 Y3.3924
X3.3097 Y3.3916
X3.3087 Y3.3904
X3.3082 Y3.389
Y3.3875
X3.3088 Y3.3861
X3.3098 Y3.3849
X3.3111 Y3.3842
X6.8482 Y2.1514
G3 X6.8606 Y2.1593 I0.0031 J0.0089
G2 X7.6524 Y3.321 I1.4817 J-0.1593
G3 X7.6645 Y3.341 I-0.0105 J0.02
G1 Y3.3799
G3 X7.6518 Y3.3926 I-0.0128 J0.
G1 X5.725
G2 X5.648 Y3.444 I0. J0.0834
G3 X5.571 Y3.4953 I-0.077 J-0.0321
G1 X2.706
X2.7045 Y3.495
X2.7032 Y3.4943
X2.7022 Y3.4931
X2.7017 Y3.4917
Y3.4901
X2.7023 Y3.4887
X2.7033 Y3.4876
X2.7046 Y3.4868
X6.9455 Y2.0087
G3 X6.9548 Y2.0153 I0.0023 J0.0066
G2 X7.7542 Y3.2568 I1.3875 J-0.0153
G3 X7.7672 Y3.2773 I-0.0096 J0.0205
G1 Y3.4825
G3 X7.7544 Y3.4953 I-0.0128 J0.
G1 X5.571
G2 X5.4954 Y3.5457 I0. J0.082
G3 X5.4197 Y3.5962 I-0.0756 J-0.0315
G1 X2.2365
G3 X2.2281 Y3.5461 I0. J-0.0258
G1 X7.0253 Y1.8741
G3 X7.0595 Y1.9004 I0.0085 J0.0243
G2 X7.8521 Y3.1897 I1.2829 J0.0996
G3 X7.8681 Y3.2135 I-0.0098 J0.0238
G1 Y3.5704
G3 X7.8423 Y3.5962 I-0.0257 J0.
G1 X5.4197
G2 X5.3369 Y3.6514 I0. J0.0898
G3 X5.254 Y3.7067 I-0.0829 J-0.0345
G1 X2.2365
G3 X2.1917 Y3.4418 I0. J-0.1363
G1 X6.9889 Y1.7698
G3 X7.1696 Y1.909 I0.0448 J0.1287
G2 X7.8942 Y3.0876 I1.1727 J0.091
G3 X7.9786 Y3.2135 I-0.0519 J0.126
G1 Y3.5704
G3 X7.8423 Y3.7067 I-0.1362 J0.
G1 X5.254
G3 X5.2231 Y3.5341 Z-0.1214 I0. J-0.0891 F33.3
G1 X6.5259 Y3.0519 Z-0.1499
G2 X6.495 Y2.8793 Z-0.155 I-0.0309 J-0.0835
G1 X6.345 F75.
X6.3435 Y2.8791
X6.3422 Y2.8783
X6.3412 Y2.8771
X6.3407 Y2.8757
Y2.8742
X6.3412 Y2.8728
X6.3422 Y2.8716
X6.3436 Y2.8709
X6.5 Y2.8163
G3 X6.5156 Y2.8231 I0.0042 J0.0119
G2 X6.5372 Y2.8693 I1.8267 J-0.8231
G3 X6.5308 Y2.8793 I-0.0063 J0.003
G1 X6.495
G2 X6.418 Y2.9307 I0. J0.0834
G3 X6.341 Y2.982 I-0.077 J-0.0321
G1 X5.7385
X5.737 Y2.9817
X5.7357 Y2.981
X5.7347 Y2.9798
X5.7342 Y2.9784
Y2.9768
X5.7347 Y2.9754
X5.7357 Y2.9743
X5.7371 Y2.9735
X6.5571 Y2.6877
G3 X6.573 Y2.695 I0.0042 J0.0119
G2 X6.7084 Y2.9714 I1.7693 J-0.695
G3 X6.7023 Y2.982 I-0.006 J0.0036
G1 X6.341
G2 X6.264 Y3.0333 I0. J0.0834
G3 X6.187 Y3.0847 I-0.077 J-0.0321
G1 X5.132
X5.1305 Y3.0844
X5.1292 Y3.0836
X5.1282 Y3.0825
X5.1277 Y3.081
Y3.0795
X5.1283 Y3.0781
X5.1292 Y3.0769
X5.1306 Y3.0762
X6.6191 Y2.5574
G3 X6.6353 Y2.5653 I0.0042 J0.0119
G2 X6.8996 Y3.0735 I1.7071 J-0.5653
G3 X6.894 Y3.0847 I-0.0056 J0.0042
G1 X6.187
G2 X6.11 Y3.136 I0. J0.0834
G3 X6.033 Y3.1873 I-0.077 J-0.0321
G1 X4.5255
X4.524 Y3.1871
X4.5227 Y3.1863
X4.5217 Y3.1851
X4.5212 Y3.1837
Y3.1822
X4.5218 Y3.1807
X4.5227 Y3.1796
X4.5241 Y3.1788
X6.6901 Y2.4239
G3 X6.7023 Y2.4304 I0.0031 J0.0089
G2 X7.1232 Y3.1785 I1.6401 J-0.4304
G1 X7.1242 Y3.1799
X7.1247 Y3.1816
X7.1246 Y3.1833
X7.1239 Y3.1849
X7.1227 Y3.1862
X7.1212 Y3.187
X7.1195 Y3.1873
X6.033
G2 X5.956 Y3.2386 I0. J0.0834
G3 X5.879 Y3.29 I-0.077 J-0.0321
G1 X3.919
X3.9175 Y3.2897
X3.9162 Y3.2889
X3.9152 Y3.2878
X3.9147 Y3.2863
Y3.2848
X3.9153 Y3.2834
X3.9163 Y3.2822
X3.9176 Y3.2815
X6.7649 Y2.2891
G3 X6.7772 Y2.2963 I0.0031 J0.0089
G2 X7.3949 Y3.2806 I1.5651 J-0.2963
G3 X7.3918 Y3.29 I-0.0031 J0.0042
G1 X5.879
G2 X5.802 Y3.3413 I0. J0.0834
G3 X5.725 Y3.3926 I-0.077 J-0.0321
G1 X3.3125
X3.311 Y3.3924
X3.3097 Y3.3916
X3.3087 Y3.3904
X3.3082 Y3.389
Y3.3875
X3.3088 Y3.3861
X3.3098 Y3.3849
X3.3111 Y3.3842
X6.8482 Y2.1514
G3 X6.8606 Y2.1593 I0.0031 J0.0089
G2 X7.6524 Y3.321 I1.4817 J-0.1593
G3 X7.6645 Y3.341 I-0.0105 J0.02
G1 Y3.3799
G3 X7.6518 Y3.3926 I-0.0128 J0.
G1 X5.725
G2 X5.648 Y3.444 I0. J0.0834
G3 X5.571 Y3.4953 I-0.077 J-0.0321
G1 X2.706
X2.7045 Y3.495
X2.7032 Y3.4943
X2.7022 Y3.4931
X2.7017 Y3.4917
Y3.4901
X2.7023 Y3.4887
X2.7033 Y3.4876
X2.7046 Y3.4868
X6.9455 Y2.0087
G3 X6.9548 Y2.0153 I0.0023 J0.0066
G2 X7.7542 Y3.2568 I1.3875 J-0.0153
G3 X7.7672 Y3.2773 I-0.0096 J0.0205
G1 Y3.4825
G3 X7.7544 Y3.4953 I-0.0128 J0.
G1 X5.571
G2 X5.4954 Y3.5457 I0. J0.082
G3 X5.4197 Y3.5962 I-0.0756 J-0.0315
G1 X2.2365
G3 X2.2281 Y3.5461 I0. J-0.0258
G1 X7.0253 Y1.8741
G3 X7.0595 Y1.9004 I0.0085 J0.0243
G2 X7.8521 Y3.1897 I1.2829 J0.0996
G3 X7.8681 Y3.2135 I-0.0098 J0.0238
G1 Y3.5704
G3 X7.8423 Y3.5962 I-0.0257 J0.
G1 X5.4197
G2 X5.3369 Y3.6514 I0. J0.0898
G3 X5.254 Y3.7067 I-0.0829 J-0.0345
G1 X2.2365
G3 X2.1917 Y3.4418 I0. J-0.1363
G1 X6.9889 Y1.7698
G3 X7.1696 Y1.909 I0.0448 J0.1287
G2 X7.8942 Y3.0876 I1.1727 J0.091
G3 X7.9786 Y3.2135 I-0.0519 J0.126
G1 Y3.5704
G3 X7.8423 Y3.7067 I-0.1362 J0.
G1 X5.254
X5.2516 Y3.7064 Z-0.1545
X5.2493 Y3.7059 Z-0.154
X5.247 Y3.7051 Z-0.1536
X5.2444 Y3.7036 Z-0.1515
X5.242 Y3.7018 Z-0.1495
X5.2406 Y3.7003 Z-0.1465
X5.2394 Y3.6987 Z-0.1434
X5.2386 Y3.6975 Z-0.1363
G0 Z0.4
X8.3139 Y1.9341
Z0.15
G1 Z0.1187 F24.
X8.3149 Y1.935 Z0.1117 F33.3
X8.3177 Y1.9377 Z0.1057
X8.3217 Y1.9421 Z0.1016
X8.326 Y1.9475 Z0.1
G3 X8.182 Y2.0525 Z0.0902 I-0.072 J0.0525
X8.326 Y1.9475 Z0.0805 I0.072 J-0.0525
X8.182 Y2.0525 Z0.0707 I-0.072 J0.0525
X8.326 Y1.9475 Z0.0609 I0.072 J-0.0525
X8.182 Y2.0525 Z0.0511 I-0.072 J0.0525
X8.326 Y1.9475 Z0.0414 I0.072 J-0.0525
X8.182 Y2.0525 Z0.0316 I-0.072 J0.0525
X8.326 Y1.9475 Z0.0218 I0.072 J-0.0525
X8.182 Y2.0525 Z0.0121 I-0.072 J0.0525
X8.326 Y1.9475 Z0.0023 I0.072 J-0.0525
X8.182 Y2.0525 Z-0.0075 I-0.072 J0.0525
X8.326 Y1.9475 Z-0.0172 I0.072 J-0.0525
X8.182 Y2.0525 Z-0.027 I-0.072 J0.0525
X8.326 Y1.9475 Z-0.0368 I0.072 J-0.0525
X8.3431 Y2. Z-0.0388 I-0.072 J0.0525
G1 X8.3429 Y2.0005 F75.
X8.3423 Y2.0007
X8.3418 Y2.0005
X8.3416 Y2.
G3 X8.4556 I0.057 J0.
X8.2291 I-0.1132 J0.
X8.5681 I0.1695 J0.
X8.1166 I-0.2257 J0.
X8.6806 I0.282 J0.
X8.0041 I-0.3382 J0.
X8.6806 I0.3382 J0.
G2 X8.7282 Y2.0773 I0.0865 J0.
G3 X8.7608 Y2.162 I-0.0304 J0.0603
X7.8936 Y2. I-0.4185 J-0.1621
X8.7911 I0.4487 J0.
X8.7608 Y2.162 I-0.4488 J0.
G1 X8.7592 Y2.1614
X8.3426 Y2.0095
