(BRITISH GUSSETS 3-16 CNT)
(T3 D=0.1875 CR=0. - ZMIN=-0.165 - FLAT END MILL)
G90 G94 G91.1 G40 G49 G17
G20
G28 G91 Z0.
G90

(2D CONTOUR5)
T3 M6
S20000 M3
G17 G90 G94
G54
G0 X10.2423 Y3.4212
G43 Z0.6 H3
G0 Z0.2
G1 Z0.1187 F24.
G18 G3 X10.2236 Z0.1 I-0.0188 K0. F20.
G1 X10.2048
G17 G3 X10.1861 Y3.4025 I0. J-0.0187
G1 Y0.25 Z0.0967 F33.3
G2 X9.8423 Y-0.0937 Z0.0962 I-0.3438 J0.
G1 X0.25 Z0.0863
G2 X-0.0937 Y0.25 Z0.0857 I0. J0.3437
G1 Y5.782 Z0.08
G2 X-0.0779 Y5.8851 Z0.0799 I0.3437 J0.
G1 X0.3861 Y7.361 Z0.0783
G2 X0.714 Y7.6017 Z0.0779 I0.3279 J-0.1031
G1 X2.4668 Z0.0761
G3 X2.5416 Y7.6208 Z0.076 I0. J0.1563
G1 X7.9914 Y10.5956 Z0.0696
G2 X8.1561 Y10.6376 Z0.0694 I0.1647 J-0.3017
G1 X9.8423 Z0.0677
G2 X10.1861 Y10.2939 Z0.0671 I0. J-0.3438
G1 Y0.25 Z0.0567
G2 X9.8423 Y-0.0937 Z0.0562 I-0.3438 J0.
G1 X0.25 Z0.0463
G2 X-0.0937 Y0.25 Z0.0457 I0. J0.3437
G1 Y5.782 Z0.04
G2 X-0.0779 Y5.8851 Z0.0399 I0.3437 J0.
G1 X0.3861 Y7.361 Z0.0383
G2 X0.714 Y7.6017 Z0.0379 I0.3279 J-0.1031
G1 X2.4668 Z0.0361
G3 X2.5416 Y7.6208 Z0.036 I0. J0.1563
G1 X7.9914 Y10.5956 Z0.0296
G2 X8.1561 Y10.6376 Z0.0294 I0.1647 J-0.3017
G1 X9.8423 Z0.0277
G2 X10.1861 Y10.2939 Z0.0271 I0. J-0.3438
G1 Y0.25 Z0.0167
G2 X9.8423 Y-0.0937 Z0.0162 I-0.3438 J0.
G1 X0.25 Z0.0063
G2 X-0.0937 Y0.25 Z0.0057 I0. J0.3437
G1 Y5.782 Z0.
G2 X-0.0779 Y5.8851 Z-0.0001 I0.3437 J0.
G1 X0.3861 Y7.361 Z-0.0017
G2 X0.714 Y7.6017 Z-0.0021 I0.3279 J-0.1031
G1 X2.4668 Z-0.0039
G3 X2.5416 Y7.6208 Z-0.004 I0. J0.1563
G1 X7.9914 Y10.5956 Z-0.0104
G2 X8.1561 Y10.6376 Z-0.0106 I0.1647 J-0.3017
G1 X9.8423 Z-0.0123
G2 X10.1861 Y10.2939 Z-0.0129 I0. J-0.3438
G1 Y0.25 Z-0.0233
G2 X9.8423 Y-0.0937 Z-0.0238 I-0.3438 J0.
G1 X0.25 Z-0.0337
G2 X-0.0937 Y0.25 Z-0.0343 I0. J0.3437
G1 Y5.782 Z-0.04
G2 X-0.0925 Y5.8117 I0.3437 J0.
X-0.0779 Y5.8851 I0.3425 J-0.0296 F75.
G1 X0.3861 Y7.361
G2 X0.714 Y7.6017 I0.3279 J-0.1031
G1 X2.4668
G3 X2.5416 Y7.6208 I0. J0.1563
G1 X7.9914 Y10.5956
G2 X8.1561 Y10.6376 I0.1647 J-0.3017
G1 X9.8423
G2 X10.1861 Y10.2939 I0. J-0.3438
G1 Y0.25
G2 X9.8423 Y-0.0937 I-0.3438 J0.
G1 X0.25
G2 X-0.0937 Y0.25 I0. J0.3437
G1 Y5.782
G2 X-0.0925 Y5.8117 I0.3437 J0.
X-0.0779 Y5.8851 Z-0.0401 I0.3425 J-0.0296 F33.3
G1 X0.3861 Y7.361 Z-0.0417
G2 X0.714 Y7.6017 Z-0.0421 I0.3279 J-0.1031
G1 X2.4668 Z-0.0439
G3 X2.5416 Y7.6208 Z-0.044 I0. J0.1563
G1 X7.9914 Y10.5956 Z-0.0504
G2 X8.1561 Y10.6376 Z-0.0506 I0.1647 J-0.3017
G1 X9.8423 Z-0.0523
G2 X10.1861 Y10.2939 Z-0.0529 I0. J-0.3438
G1 Y0.25 Z-0.0633
G2 X9.8423 Y-0.0937 Z-0.0638 I-0.3438 J0.
G1 X4.5565 Z-0.0693
Z-0.065
X4.1815
Z-0.0696 F24.
X0.25 Z-0.0737 F33.3
G2 X-0.0937 Y0.25 Z-0.0743 I0. J0.3437
G1 Y1.9148 Z-0.076
Z-0.065
Y2.2898
Z-0.0764 F24.
Y5.782 Z-0.08 F33.3
G2 X-0.0925 Y5.8117 I0.3437 J0.
X-0.0779 Y5.8851 I0.3425 J-0.0296 F75.
G1 X0.3861 Y7.361
G2 X0.714 Y7.6017 I0.3279 J-0.1031
G1 X1.2709
Z-0.065
X1.6459
Z-0.08 F24.
X2.4668 F75.
G3 X2.5416 Y7.6208 I0. J0.1563
G1 X6.9683 Y10.0371
Z-0.065
X7.2974 Y10.2168
Z-0.08 F24.
X7.9914 Y10.5956 F75.
G2 X8.1561 Y10.6376 I0.1647 J-0.3017
G1 X9.8423
G2 X10.1861 Y10.2939 I0. J-0.3438
G1 Y7.2994
Z-0.065
Y6.9244
Z-0.08 F24.
Y0.9355 F75.
Z-0.065
Y0.5605
Z-0.08 F24.
Y0.25 F75.
G2 X9.8423 Y-0.0937 I-0.3438 J0.
G1 X4.5565
Z-0.065
X4.1815
Z-0.08 F24.
X0.25 F75.
G2 X-0.0937 Y0.25 I0. J0.3437
G1 Y1.9148
Z-0.065
Y2.2898
Z-0.08 F24.
Y5.782 F75.
G2 X-0.0925 Y5.8117 I0.3437 J0.
X-0.0779 Y5.8851 Z-0.0801 I0.3425 J-0.0296 F33.3
G1 X0.3861 Y7.361 Z-0.0817
G2 X0.714 Y7.6017 Z-0.0821 I0.3279 J-0.1031
G1 X1.2709 Z-0.0827
Z-0.065
X1.6459
Z-0.0831 F24.
X2.4668 Z-0.0839 F33.3
G3 X2.5416 Y7.6208 Z-0.084 I0. J0.1563
G1 X6.9683 Y10.0371 Z-0.0892
Z-0.065
X7.2974 Y10.2168
Z-0.0896 F24.
X7.9914 Y10.5956 Z-0.0904 F33.3
G2 X8.1561 Y10.6376 Z-0.0906 I0.1647 J-0.3017
G1 X9.8423 Z-0.0923
G2 X10.1861 Y10.2939 Z-0.0929 I0. J-0.3438
G1 Y7.2994 Z-0.096
Z-0.065
Y6.9244
Z-0.0964 F24.
Y0.9355 Z-0.1025 F33.3
Z-0.065
Y0.5605
Z-0.1029 F24.
Y0.25 Z-0.1033 F33.3
G2 X9.8423 Y-0.0937 Z-0.1038 I-0.3438 J0.
G1 X4.5565 Z-0.1093
Z-0.065
X4.1815
Z-0.1096 F24.
X0.25 Z-0.1137 F33.3
G2 X-0.0937 Y0.25 Z-0.1143 I0. J0.3437
G1 Y1.9148 Z-0.116
Z-0.065
Y2.2898
Z-0.1164 F24.
Y5.782 Z-0.12 F33.3
G2 X-0.0925 Y5.8117 I0.3437 J0.
X-0.0779 Y5.8851 I0.3425 J-0.0296 F75.
G1 X0.3861 Y7.361
G2 X0.714 Y7.6017 I0.3279 J-0.1031
G1 X1.2709
Z-0.065
X1.6459
Z-0.12 F24.
X2.4668 F75.
G3 X2.5416 Y7.6208 I0. J0.1563
G1 X6.9683 Y10.0371
Z-0.065
X7.2974 Y10.2168
Z-0.12 F24.
X7.9914 Y10.5956 F75.
G2 X8.1561 Y10.6376 I0.1647 J-0.3017
G1 X9.8423
G2 X10.1861 Y10.2939 I0. J-0.3438
G1 Y7.2994
Z-0.065
Y6.9244
Z-0.12 F24.
Y0.9355 F75.
Z-0.065
Y0.5605
Z-0.12 F24.
Y0.25 F75.
G2 X9.8423 Y-0.0937 I-0.3438 J0.
G1 X4.5565
Z-0.065
X4.1815
Z-0.12 F24.
X0.25 F75.
G2 X-0.0937 Y0.25 I0. J0.3437
G1 Y1.9148
Z-0.065
Y2.2898
Z-0.12 F24.
Y5.782 F75.
G2 X-0.0925 Y5.8117 I0.3437 J0.
X-0.0779 Y5.8851 Z-0.1201 I0.3425 J-0.0296 F33.3
G1 X0.3861 Y7.361 Z-0.1217
G2 X0.714 Y7.6017 Z-0.1221 I0.3279 J-0.1031
G1 X1.2709 Z-0.1227
Z-0.065
X1.6459
Z-0.1231 F24.
X2.4668 Z-0.1239 F33.3
G3 X2.5416 Y7.6208 Z-0.124 I0. J0.1563
G1 X6.9683 Y10.0371 Z-0.1292
Z-0.065
X7.2974 Y10.2168
Z-0.1296 F24.
X7.9914 Y10.5956 Z-0.1304 F33.3
G2 X8.1561 Y10.6376 Z-0.1306 I0.1647 J-0.3017
G1 X9.8423 Z-0.1323
G2 X10.1861 Y10.2939 Z-0.1329 I0. J-0.3438
G1 Y7.2994 Z-0.136
Z-0.065
Y6.9244
Z-0.1364 F24.
Y0.9792 Z-0.1425 F33.3
Y0.9355 F75.
Z-0.065
Y0.5605
Z-0.1425 F24.
Y0.25 F75.
G2 X9.8423 Y-0.0937 I-0.3438 J0.
G1 X4.5565
Z-0.065
X4.1815
Z-0.1425 F24.
X0.25 F75.
G2 X-0.0937 Y0.25 I0. J0.3437
G1 Y1.9148
Z-0.065
Y2.2898
Z-0.1425 F24.
Y5.782 F75.
G2 X-0.0779 Y5.8851 I0.3437 J0.
G1 X0.3861 Y7.361
G2 X0.714 Y7.6017 I0.3279 J-0.1031
G1 X1.2709
Z-0.065
X1.6459
Z-0.1425 F24.
X2.4668 F75.
G3 X2.5416 Y7.6208 I0. J0.1563
G1 X6.9683 Y10.0371
Z-0.065
X7.2974 Y10.2168
Z-0.1425 F24.
X7.9914 Y10.5956 F75.
G2 X8.1561 Y10.6376 I0.1647 J-0.3017
G1 X9.8423
G2 X10.1861 Y10.2939 I0. J-0.3438
G1 Y7.2994
Z-0.065
Y6.9244
Z-0.1425 F24.
Y0.9792 F75.
Y0.9355 F33.3
Z-0.065
Y0.5605
Z-0.1429 F24.
Y0.25 Z-0.1433 F33.3
G2 X9.8423 Y-0.0937 Z-0.1438 I-0.3438 J0.
G1 X4.5565 Z-0.1493
Z-0.065
X4.1815
Z-0.1496 F24.
X0.25 Z-0.1537 F33.3
G2 X-0.0937 Y0.25 Z-0.1543 I0. J0.3437
G1 Y1.9148 Z-0.156
Z-0.065
Y2.2898
Z-0.1564 F24.
Y5.782 Z-0.16 F33.3
G2 X-0.0779 Y5.8851 Z-0.1601 I0.3437 J0.
G1 X0.3861 Y7.361 Z-0.1617
G2 X0.714 Y7.6017 Z-0.1621 I0.3279 J-0.1031
G1 X1.2709 Z-0.1627
Z-0.065
X1.6459
Z-0.1631 F24.
X2.4668 Z-0.1639 F33.3
G3 X2.5416 Y7.6208 Z-0.164 I0. J0.1563
G1 X3.3828 Y8.0799 Z-0.165
X6.9683 Y10.0371 F75.
Z-0.065
X7.2974 Y10.2168
Z-0.165 F24.
X7.9914 Y10.5956 F75.
G2 X8.1561 Y10.6376 I0.1647 J-0.3017
G1 X9.8423
G2 X10.1861 Y10.2939 I0. J-0.3438
G1 Y7.2994
Z-0.065
Y6.9244
Z-0.165 F24.
Y0.9355 F75.
Z-0.065
Y0.5605
Z-0.165 F24.
Y0.25 F75.
G2 X9.8423 Y-0.0937 I-0.3438 J0.
G1 X4.5565
Z-0.065
X4.1815
Z-0.165 F24.
X0.25 F75.
G2 X-0.0937 Y0.25 I0. J0.3437
G1 Y1.9148
Z-0.065
Y2.2898
Z-0.165 F24.
Y5.782 F75.
G2 X-0.0779 Y5.8851 I0.3437 J0.
G1 X0.3861 Y7.361
G2 X0.714 Y7.6017 I0.3279 J-0.1031
G1 X1.2709
Z-0.065
X1.6459
Z-0.165 F24.
X2.4668 F75.
G3 X2.5416 Y7.6208 I0. J0.1563
G1 X3.3828 Y8.0799
G3 X3.3903 Y8.1054 I-0.009 J0.0165
G1 X3.3813 Y8.1218
X3.3798 Y8.1247 Z-0.1647
X3.3783 Y8.1275 Z-0.1639
X3.3768 Y8.1301 Z-0.1625
X3.3756 Y8.1324 Z-0.1606
X3.3744 Y8.1345 Z-0.1583
X3.3736 Y8.1361 Z-0.1556
X3.3729 Y8.1373 Z-0.1527
X3.3725 Y8.1381 Z-0.1495
X3.3723 Y8.1383 Z-0.1463
G0 Z0.2
X0.1469 Y15.7576
G1 Z0.1187 F24.
G18 G2 X0.1656 Z0.1 I0.0188 K0. F20.
G1 X0.1844
G17 G3 X0.2031 Y15.7764 I0. J0.0188
G1 Y19.3673 Z0.0964 F33.3
G2 X0.5469 Y19.7111 Z0.0958 I0.3438 J0.
G1 X10.1392 Z0.0862
G2 X10.483 Y19.3673 Z0.0856 I0. J-0.3438
G1 Y13.8353 Z0.08
G2 X10.4672 Y13.7322 Z0.0799 I-0.3438 J-0.0001
G1 X10.0031 Y12.2563 Z0.0784
G2 X9.6752 Y12.0157 Z0.0779 I-0.3279 J0.1031
G1 X7.8888 Z0.0761
G3 X7.8517 Y12.0112 I0. J-0.1562
G1 X3.0412 Y10.8347 Z0.0711
G3 X2.9221 Y10.6829 Z0.0709 I0.0371 J-0.1518
G1 Y9.5119 Z0.0697
G2 X2.743 Y9.2101 Z0.0693 I-0.3438 J0.
G1 X2.3978 Y9.0217 Z0.0689
G2 X2.2331 Y8.9796 Z0.0688 I-0.1648 J0.3017
G1 X0.5469 Z0.0671
G2 X0.2031 Y9.3234 Z0.0665 I0. J0.3438
G1 Y19.3673 Z0.0564
G2 X0.5469 Y19.7111 Z0.0558 I0.3438 J0.
G1 X10.1392 Z0.0462
G2 X10.483 Y19.3673 Z0.0456 I0. J-0.3438
G1 Y13.8353 Z0.04
G2 X10.4672 Y13.7322 Z0.0399 I-0.3438 J-0.0001
G1 X10.0031 Y12.2563 Z0.0384
G2 X9.6752 Y12.0157 Z0.0379 I-0.3279 J0.1031
G1 X7.8888 Z0.0361
G3 X7.8517 Y12.0112 I0. J-0.1562
G1 X3.0412 Y10.8347 Z0.0311
G3 X2.9221 Y10.6829 Z0.0309 I0.0371 J-0.1518
G1 Y9.5119 Z0.0297
G2 X2.743 Y9.2101 Z0.0293 I-0.3438 J0.
G1 X2.3978 Y9.0217 Z0.0289
G2 X2.2331 Y8.9796 Z0.0288 I-0.1648 J0.3017
G1 X0.5469 Z0.0271
G2 X0.2031 Y9.3234 Z0.0265 I0. J0.3438
G1 Y19.3673 Z0.0164
G2 X0.5469 Y19.7111 Z0.0158 I0.3438 J0.
G1 X10.1392 Z0.0062
G2 X10.483 Y19.3673 Z0.0056 I0. J-0.3438
G1 Y13.8353 Z0.
G2 X10.4672 Y13.7322 Z-0.0001 I-0.3438 J-0.0001
G1 X10.0031 Y12.2563 Z-0.0016
G2 X9.6752 Y12.0157 Z-0.0021 I-0.3279 J0.1031
G1 X7.8888 Z-0.0039
G3 X7.8517 Y12.0112 I0. J-0.1562
G1 X3.0412 Y10.8347 Z-0.0089
G3 X2.9221 Y10.6829 Z-0.0091 I0.0371 J-0.1518
G1 Y9.5119 Z-0.0103
G2 X2.743 Y9.2101 Z-0.0107 I-0.3438 J0.
G1 X2.3978 Y9.0217 Z-0.0111
G2 X2.2331 Y8.9796 Z-0.0112 I-0.1648 J0.3017
G1 X0.5469 Z-0.0129
G2 X0.2031 Y9.3234 Z-0.0135 I0. J0.3438
G1 Y19.3673 Z-0.0236
G2 X0.5469 Y19.7111 Z-0.0242 I0.3438 J0.
G1 X10.1392 Z-0.0338
G2 X10.483 Y19.3673 Z-0.0344 I0. J-0.3438
G1 Y13.8353 Z-0.04
G2 X10.4817 Y13.8056 I-0.3438 J-0.0001
X10.4672 Y13.7322 I-0.3425 J0.0296 F75.
G1 X10.0031 Y12.2563
G2 X9.6752 Y12.0157 I-0.3279 J0.1031
G1 X7.8888
G3 X7.8517 Y12.0112 I0. J-0.1562
G1 X3.0412 Y10.8347
G3 X2.9221 Y10.6829 I0.0371 J-0.1518
G1 Y9.5119
G2 X2.743 Y9.2101 I-0.3438 J0.
G1 X2.3978 Y9.0217
G2 X2.2331 Y8.9796 I-0.1648 J0.3017
G1 X0.5469
G2 X0.2031 Y9.3234 I0. J0.3438
G1 Y19.3673
G2 X0.5469 Y19.7111 I0.3438 J0.
G1 X10.1392
G2 X10.483 Y19.3673 I0. J-0.3438
G1 Y13.8353
G2 X10.4817 Y13.8056 I-0.3438 J-0.0001
X10.4672 Y13.7322 Z-0.0401 I-0.3425 J0.0296 F33.3
G1 X10.0031 Y12.2563 Z-0.0416
G2 X9.6752 Y12.0157 Z-0.0421 I-0.3279 J0.1031
G1 X7.8888 Z-0.0439
G3 X7.8517 Y12.0112 I0. J-0.1562
G1 X3.0412 Y10.8347 Z-0.0489
G3 X2.9221 Y10.6829 Z-0.0491 I0.0371 J-0.1518
G1 Y9.5119 Z-0.0503
G2 X2.743 Y9.2101 Z-0.0507 I-0.3438 J0.
G1 X2.3978 Y9.0217 Z-0.0511
G2 X2.2331 Y8.9796 Z-0.0512 I-0.1648 J0.3017
G1 X0.5469 Z-0.0529
G2 X0.2031 Y9.3234 Z-0.0535 I0. J0.3438
G1 Y19.3673 Z-0.0636
G2 X0.5469 Y19.7111 Z-0.0642 I0.3438 J0.
G1 X3.3873 Z-0.067
Z-0.065
X3.7623
Z-0.0674 F24.
X9.8974 Z-0.0736 F33.3
Z-0.065
X10.1392
G2 X10.2724 Y19.6842 I0. J-0.3438
G1 Z-0.074 F24.
G2 X10.483 Y19.3673 Z-0.0744 I-0.1332 J-0.3169 F33.3
G1 Y13.8353 Z-0.08
G2 X10.4817 Y13.8056 I-0.3438 J-0.0001
X10.4672 Y13.7322 I-0.3425 J0.0296 F75.
G1 X10.3869 Y13.477
Z-0.065
X10.2745 Y13.1193
Z-0.08 F24.
X10.0031 Y12.2563 F75.
G2 X9.6752 Y12.0157 I-0.3279 J0.1031
G1 X7.8888
G3 X7.8517 Y12.0112 I0. J-0.1562
G1 X4.8719 Y11.2824
Z-0.065
X4.5077 Y11.1933
Z-0.08 F24.
X3.0412 Y10.8347 F75.
G3 X2.9221 Y10.6829 I0.0371 J-0.1518
G1 Y9.5119
G2 X2.743 Y9.2101 I-0.3438 J0.
G1 X2.3978 Y9.0217
G2 X2.2331 Y8.9796 I-0.1648 J0.3017
G1 X0.5469
G2 X0.2031 Y9.3234 I0. J0.3438
G1 Y9.5801
Z-0.065
Y9.9551
Z-0.08 F24.
Y16.0903 F75.
Z-0.065
Y16.4653
Z-0.08 F24.
Y19.3673 F75.
G2 X0.5469 Y19.7111 I0.3438 J0.
G1 X3.3873
Z-0.065
X3.7623
Z-0.08 F24.
X9.8974 F75.
Z-0.065
X10.1392
G2 X10.2724 Y19.6842 I0. J-0.3438
G1 Z-0.08 F24.
G2 X10.483 Y19.3673 I-0.1332 J-0.3169 F75.
G1 Y13.8353
G2 X10.4817 Y13.8056 I-0.3438 J-0.0001
X10.4672 Y13.7322 Z-0.0801 I-0.3425 J0.0296 F33.3
G1 X10.3869 Y13.477 Z-0.0803
Z-0.065
X10.2745 Y13.1193
Z-0.0807 F24.
X10.0031 Y12.2563 Z-0.0816 F33.3
G2 X9.6752 Y12.0157 Z-0.0821 I-0.3279 J0.1031
G1 X7.8888 Z-0.0839
G3 X7.8517 Y12.0112 I0. J-0.1562
G1 X4.8719 Y11.2824 Z-0.087
Z-0.065
X4.5077 Y11.1933
Z-0.0874 F24.
X3.0412 Y10.8347 Z-0.0889 F33.3
G3 X2.9221 Y10.6829 Z-0.0891 I0.0371 J-0.1518
G1 Y9.5119 Z-0.0903
G2 X2.743 Y9.2101 Z-0.0907 I-0.3438 J0.
G1 X2.3978 Y9.0217 Z-0.0911
G2 X2.2331 Y8.9796 Z-0.0912 I-0.1648 J0.3017
G1 X0.5469 Z-0.0929
G2 X0.2031 Y9.3234 Z-0.0935 I0. J0.3438
G1 Y9.5801 Z-0.0937
Z-0.065
Y9.9551
Z-0.0941 F24.
Y16.0903 Z-0.1003 F33.3
Z-0.065
Y16.4653
Z-0.1007 F24.
Y19.3673 Z-0.1036 F33.3
G2 X0.5469 Y19.7111 Z-0.1042 I0.3438 J0.
G1 X3.3873 Z-0.107
Z-0.065
X3.7623
Z-0.1074 F24.
X9.8974 Z-0.1136 F33.3
Z-0.065
X10.1392
G2 X10.2724 Y19.6842 I0. J-0.3438
G1 Z-0.114 F24.
G2 X10.483 Y19.3673 Z-0.1144 I-0.1332 J-0.3169 F33.3
G1 Y13.8353 Z-0.12
G2 X10.4817 Y13.8056 I-0.3438 J-0.0001
X10.4672 Y13.7322 I-0.3425 J0.0296 F75.
G1 X10.3869 Y13.477
Z-0.065
X10.2745 Y13.1193
Z-0.12 F24.
X10.0031 Y12.2563 F75.
G2 X9.6752 Y12.0157 I-0.3279 J0.1031
G1 X7.8888
G3 X7.8517 Y12.0112 I0. J-0.1562
G1 X4.8719 Y11.2824
Z-0.065
X4.5077 Y11.1933
Z-0.12 F24.
X3.0412 Y10.8347 F75.
G3 X2.9221 Y10.6829 I0.0371 J-0.1518
G1 Y9.5119
G2 X2.743 Y9.2101 I-0.3438 J0.
G1 X2.3978 Y9.0217
G2 X2.2331 Y8.9796 I-0.1648 J0.3017
G1 X0.5469
G2 X0.2031 Y9.3234 I0. J0.3438
G1 Y9.5801
Z-0.065
Y9.9551
Z-0.12 F24.
Y16.0903 F75.
Z-0.065
Y16.4653
Z-0.12 F24.
Y19.3673 F75.
G2 X0.5469 Y19.7111 I0.3438 J0.
G1 X3.3873
Z-0.065
X3.7623
Z-0.12 F24.
X9.8974 F75.
Z-0.065
X10.1392
G2 X10.2724 Y19.6842 I0. J-0.3438
G1 Z-0.12 F24.
G2 X10.483 Y19.3673 I-0.1332 J-0.3169 F75.
G1 Y13.8353
G2 X10.4817 Y13.8056 I-0.3438 J-0.0001
X10.4672 Y13.7322 Z-0.1201 I-0.3425 J0.0296 F33.3
G1 X10.3869 Y13.477 Z-0.1203
Z-0.065
X10.2745 Y13.1193
Z-0.1207 F24.
X10.0031 Y12.2563 Z-0.1216 F33.3
G2 X9.6752 Y12.0157 Z-0.1221 I-0.3279 J0.1031
G1 X7.8888 Z-0.1239
G3 X7.8517 Y12.0112 I0. J-0.1562
G1 X4.8719 Y11.2824 Z-0.127
Z-0.065
X4.5077 Y11.1933
Z-0.1274 F24.
X3.0412 Y10.8347 Z-0.1289 F33.3
G3 X2.9221 Y10.6829 Z-0.1291 I0.0371 J-0.1518
G1 Y9.5119 Z-0.1303
G2 X2.743 Y9.2101 Z-0.1307 I-0.3438 J0.
G1 X2.3978 Y9.0217 Z-0.1311
G2 X2.2331 Y8.9796 Z-0.1312 I-0.1648 J0.3017
G1 X0.5469 Z-0.1329
G2 X0.2031 Y9.3234 Z-0.1335 I0. J0.3438
G1 Y9.5801 Z-0.1337
Z-0.065
Y9.9551
Z-0.1341 F24.
Y16.0903 Z-0.1403 F33.3
Z-0.065
Y16.4653
Z-0.1407 F24.
Y18.2545 Z-0.1425 F33.3
Y19.3673 F75.
G2 X0.5469 Y19.7111 I0.3438 J0.
G1 X3.3873
Z-0.065
X3.7623
Z-0.1425 F24.
X9.8974 F75.
Z-0.065
X10.1392
G2 X10.2724 Y19.6842 I0. J-0.3438
G1 Z-0.1425 F24.
G2 X10.483 Y19.3673 I-0.1332 J-0.3169 F75.
G1 Y13.8353
G2 X10.4672 Y13.7322 I-0.3438 J-0.0001
G1 X10.3869 Y13.477
Z-0.065
X10.2745 Y13.1193
Z-0.1425 F24.
X10.0031 Y12.2563 F75.
G2 X9.6752 Y12.0157 I-0.3279 J0.1031
G1 X7.8888
G3 X7.8517 Y12.0112 I0. J-0.1562
G1 X4.8719 Y11.2824
Z-0.065
X4.5077 Y11.1933
Z-0.1425 F24.
X3.0412 Y10.8347 F75.
G3 X2.9221 Y10.6829 I0.0371 J-0.1518
G1 Y9.5119
G2 X2.743 Y9.2101 I-0.3438 J0.
G1 X2.3978 Y9.0217
G2 X2.2331 Y8.9796 I-0.1648 J0.3017
G1 X0.5469
G2 X0.2031 Y9.3234 I0. J0.3438
G1 Y9.5801
Z-0.065
Y9.9551
Z-0.1425 F24.
Y16.0903 F75.
Z-0.065
Y16.4653
Z-0.1425 F24.
Y18.2545 F75.
Y19.3673 Z-0.1436 F33.3
G2 X0.5469 Y19.7111 Z-0.1442 I0.3438 J0.
G1 X3.3873 Z-0.147
Z-0.065
X3.7623
Z-0.1474 F24.
X9.8974 Z-0.1536 F33.3
Z-0.065
X10.1392
G2 X10.2724 Y19.6842 I0. J-0.3438
G1 Z-0.154 F24.
G2 X10.483 Y19.3673 Z-0.1544 I-0.1332 J-0.3169 F33.3
G1 Y13.8353 Z-0.16
G2 X10.4672 Y13.7322 Z-0.1601 I-0.3438 J-0.0001
G1 X10.3869 Y13.477 Z-0.1603
Z-0.065
X10.2745 Y13.1193
Z-0.1607 F24.
X10.0031 Y12.2563 Z-0.1616 F33.3
G2 X9.6752 Y12.0157 Z-0.1621 I-0.3279 J0.1031
G1 X7.8888 Z-0.1639
G3 X7.8517 Y12.0112 I0. J-0.1562
G1 X6.8074 Y11.7558 Z-0.165
X4.8719 Y11.2824 F75.
Z-0.065
X4.5077 Y11.1933
Z-0.165 F24.
X3.0412 Y10.8347 F75.
G3 X2.9221 Y10.6829 I0.0371 J-0.1518
G1 Y9.5119
G2 X2.743 Y9.2101 I-0.3438 J0.
G1 X2.3978 Y9.0217
G2 X2.2331 Y8.9796 I-0.1648 J0.3017
G1 X0.5469
G2 X0.2031 Y9.3234 I0. J0.3438
G1 Y9.5801
Z-0.065
Y9.9551
Z-0.165 F24.
Y16.0903 F75.
Z-0.065
Y16.4653
Z-0.165 F24.
Y19.3673 F75.
G2 X0.5469 Y19.7111 I0.3438 J0.
G1 X3.3873
Z-0.065
X3.7623
Z-0.165 F24.
X9.8974 F75.
Z-0.065
X10.1392
G2 X10.2724 Y19.6842 I0. J-0.3438
G1 Z-0.165 F24.
G2 X10.483 Y19.3673 I-0.1332 J-0.3169 F75.
G1 Y13.8353
G2 X10.4672 Y13.7322 I-0.3438 J-0.0001
G1 X10.3869 Y13.477
Z-0.065
X10.2745 Y13.1193
Z-0.165 F24.
X10.0031 Y12.2563 F75.
G2 X9.6752 Y12.0157 I-0.3279 J0.1031
G1 X7.8888
G3 X7.8517 Y12.0112 I0. J-0.1562
G1 X6.8074 Y11.7558
G3 X6.7937 Y11.7331 I0.0045 J-0.0182
G1 X6.7981 Y11.7149
X6.7989 Y11.7117 Z-0.1647
X6.7997 Y11.7087 Z-0.1639
X6.8004 Y11.7058 Z-0.1625
X6.801 Y11.7032 Z-0.1606
X6.8015 Y11.701 Z-0.1583
X6.802 Y11.6991 Z-0.1556
X6.8023 Y11.6978 Z-0.1527
X6.8025 Y11.697 Z-0.1495
X6.8026 Y11.6967 Z-0.1463
G0 Z0.6

M5
G28 G91 Z0.
G90
G28 G91 X0. Y0.
G90
M30
