(0.191 DRILL INDEXER ROLLER WALL)
(T13 D=0.191 CR=0. TAPER=118DEG - ZMIN=-0.3474 - DRILL)
G90 G94 G91.1 G40 G49 G17
G20
G28 G91 Z0.
G90

(DRILL2)
T13 M6
S2500 M3
G17 G90 G94
G54
G0 X1.6338 Y2.4641
G43 Z0.8 H13
G0 Z0.4
G98 G81 X1.6338 Y2.4641 Z-0.3474 R0.1 F20.
X3.048 Y3.8783
X4.066 Y5.414
X5.0562 Y5.5532
X6.0465 Y5.6923
X11.4609 Y6.4533
X12.4511 Y6.5924
X13.4414 Y6.7316
G80
Z0.8

M5
G28 G91 Z0.
G90
G28 G91 X0. Y0.
G90
M30
