(0.25 DRILL INDEXER ROLLER WALL)
(T3 D=0.25 CR=0. TAPER=118DEG - ZMIN=-0.3651 - DRILL)
G90 G94 G91.1 G40 G49 G17
G20
G28 G91 Z0.
G90

(DRILL3)
T3 M6
S3200 M3
G17 G90 G94
G54
G0 X8.75 Y0.5
G43 Z0.8 H3
G0 Z0.4
G98 G81 X8.75 Y0.5 Z-0.3651 R0.1 F3.2
Y1.5
X6.25
Y0.5
X1.5
X0.5
Y1.5
X4.3051 Y3.0409
X6.2437 Y3.3827
X8.1823 Y3.7245
X10.1209 Y4.0663
X12.0595 Y4.4082
X13.9981 Y4.75
X13.5 Y1.5
X14.5
Y0.5
X13.5
G80
Z0.8

M5
G28 G91 Z0.
G90
G28 G91 X0. Y0.
G90
M30
