(3-16 PKTCNT INDEXER ROLLER WALL)
(T3 D=0.1875 CR=0. - ZMIN=-0.3 - FLAT END MILL)
G90 G94 G91.1 G40 G49 G17
G20
G28 G91 Z0.
G90

(2D POCKET1 2)
T3 M6
S20000 M3
G17 G90 G94
G54
G0 X7.5381 Y1.0313
G43 Z0.8 H3
G0 Z0.1
G1 Z0.0687 F24.
X7.5376 Y1.0326 Z0.0617 F33.3
X7.5361 Y1.0361 Z0.0557
X7.5335 Y1.0414 Z0.0516
X7.5301 Y1.0475 Z0.05
G3 X7.3793 Y0.9525 Z0.0402 I-0.0754 J-0.0475
X7.5301 Y1.0475 Z0.0305 I0.0754 J0.0475
X7.3793 Y0.9525 Z0.0207 I-0.0754 J-0.0475
X7.5301 Y1.0475 Z0.0109 I0.0754 J0.0475
X7.3793 Y0.9525 Z0.0011 I-0.0754 J-0.0475
X7.5301 Y1.0475 Z-0.0086 I0.0754 J0.0475
X7.3793 Y0.9525 Z-0.0184 I-0.0754 J-0.0475
X7.5301 Y1.0475 Z-0.0282 I0.0754 J0.0475
X7.3793 Y0.9525 Z-0.0379 I-0.0754 J-0.0475
X7.5301 Y1.0475 Z-0.0477 I0.0754 J0.0475
X7.3793 Y0.9525 Z-0.0575 I-0.0754 J-0.0475
X7.5301 Y1.0475 Z-0.0672 I0.0754 J0.0475
X7.3793 Y0.9525 Z-0.077 I-0.0754 J-0.0475
X7.5301 Y1.0475 Z-0.0868 I0.0754 J0.0475
X7.3793 Y0.9525 Z-0.0966 I-0.0754 J-0.0475
X7.5301 Y1.0475 Z-0.1063 I0.0754 J0.0475
X7.3793 Y0.9525 Z-0.1161 I-0.0754 J-0.0475
X7.5301 Y1.0475 Z-0.1259 I0.0754 J0.0475
X7.3793 Y0.9525 Z-0.1356 I-0.0754 J-0.0475
X7.5301 Y1.0475 Z-0.1454 I0.0754 J0.0475
X7.3793 Y0.9525 Z-0.1552 I-0.0754 J-0.0475
X7.5301 Y1.0475 Z-0.165 I0.0754 J0.0475
X7.3793 Y0.9525 Z-0.1747 I-0.0754 J-0.0475
X7.5301 Y1.0475 Z-0.1845 I0.0754 J0.0475
X7.3793 Y0.9525 Z-0.1943 I-0.0754 J-0.0475
X7.5301 Y1.0475 Z-0.204 I0.0754 J0.0475
X7.3793 Y0.9525 Z-0.2138 I-0.0754 J-0.0475
X7.5301 Y1.0475 Z-0.2236 I0.0754 J0.0475
X7.3793 Y0.9525 Z-0.2334 I-0.0754 J-0.0475
X7.5301 Y1.0475 Z-0.2431 I0.0754 J0.0475
X7.3793 Y0.9525 Z-0.2529 I-0.0754 J-0.0475
X7.5301 Y1.0475 Z-0.2627 I0.0754 J0.0475
X7.3793 Y0.9525 Z-0.2724 I-0.0754 J-0.0475
X7.5301 Y1.0475 Z-0.2822 I0.0754 J0.0475
X7.3793 Y0.9525 Z-0.292 I-0.0754 J-0.0475
X7.5438 Y1. Z-0.3 I0.0754 J0.0475
X7.4562 I-0.0438 J0. F75.
X7.6563 I0.1 J0.
X7.3438 I-0.1563 J0.
X7.7687 I0.2125 J0.
X7.2313 I-0.2687 J0.
X7.8812 I0.325 J0.
X7.1188 I-0.3812 J0.
X7.9937 I0.4375 J0.
X7.0063 I-0.4937 J0.
X8.1062 I0.55 J0.
X6.8938 I-0.6062 J0.
X8.2188 I0.6625 J0.
X6.7812 I-0.7188 J0.
X8.2188 I0.7188 J0.
G1 X8.2186 Y1.0024 Z-0.2995
X8.2181 Y1.0047 Z-0.299
X8.2174 Y1.007 Z-0.2986
X8.216 Y1.0097 Z-0.2965
X8.2143 Y1.0122 Z-0.2945
X8.2129 Y1.0137 Z-0.2915
X8.2113 Y1.015 Z-0.2884
X8.2101 Y1.0158 Z-0.2813
G0 Z0.4
X12.0381 Y1.0313
Z0.1
G1 Z0.0687 F24.
X12.0376 Y1.0326 Z0.0617 F33.3
X12.0361 Y1.0361 Z0.0557
X12.0335 Y1.0414 Z0.0516
X12.0301 Y1.0475 Z0.05
G3 X11.8793 Y0.9525 Z0.0402 I-0.0754 J-0.0475
X12.0301 Y1.0475 Z0.0305 I0.0754 J0.0475
X11.8793 Y0.9525 Z0.0207 I-0.0754 J-0.0475
X12.0301 Y1.0475 Z0.0109 I0.0754 J0.0475
X11.8793 Y0.9525 Z0.0011 I-0.0754 J-0.0475
X12.0301 Y1.0475 Z-0.0086 I0.0754 J0.0475
X11.8793 Y0.9525 Z-0.0184 I-0.0754 J-0.0475
X12.0301 Y1.0475 Z-0.0282 I0.0754 J0.0475
X11.8793 Y0.9525 Z-0.0379 I-0.0754 J-0.0475
X12.0301 Y1.0475 Z-0.0477 I0.0754 J0.0475
X11.8793 Y0.9525 Z-0.0575 I-0.0754 J-0.0475
X12.0301 Y1.0475 Z-0.0672 I0.0754 J0.0475
X11.8793 Y0.9525 Z-0.077 I-0.0754 J-0.0475
X12.0301 Y1.0475 Z-0.0868 I0.0754 J0.0475
X11.8793 Y0.9525 Z-0.0966 I-0.0754 J-0.0475
X12.0301 Y1.0475 Z-0.1063 I0.0754 J0.0475
X11.8793 Y0.9525 Z-0.1161 I-0.0754 J-0.0475
X12.0301 Y1.0475 Z-0.1259 I0.0754 J0.0475
X11.8793 Y0.9525 Z-0.1356 I-0.0754 J-0.0475
X12.0301 Y1.0475 Z-0.1454 I0.0754 J0.0475
X11.8793 Y0.9525 Z-0.1552 I-0.0754 J-0.0475
X12.0301 Y1.0475 Z-0.165 I0.0754 J0.0475
X11.8793 Y0.9525 Z-0.1747 I-0.0754 J-0.0475
X12.0301 Y1.0475 Z-0.1845 I0.0754 J0.0475
X11.8793 Y0.9525 Z-0.1943 I-0.0754 J-0.0475
X12.0301 Y1.0475 Z-0.204 I0.0754 J0.0475
X11.8793 Y0.9525 Z-0.2138 I-0.0754 J-0.0475
X12.0301 Y1.0475 Z-0.2236 I0.0754 J0.0475
X11.8793 Y0.9525 Z-0.2334 I-0.0754 J-0.0475
X12.0301 Y1.0475 Z-0.2431 I0.0754 J0.0475
X11.8793 Y0.9525 Z-0.2529 I-0.0754 J-0.0475
X12.0301 Y1.0475 Z-0.2627 I0.0754 J0.0475
X11.8793 Y0.9525 Z-0.2724 I-0.0754 J-0.0475
X12.0301 Y1.0475 Z-0.2822 I0.0754 J0.0475
X11.8793 Y0.9525 Z-0.292 I-0.0754 J-0.0475
X12.0438 Y1. Z-0.3 I0.0754 J0.0475
X11.9563 I-0.0438 J0. F75.
X12.1562 I0.1 J0.
X11.8437 I-0.1563 J0.
X12.2688 I0.2125 J0.
X11.7313 I-0.2688 J0.
X12.3813 I0.325 J0.
X11.6187 I-0.3813 J0.
X12.4937 I0.4375 J0.
X11.5063 I-0.4938 J0.
X12.6063 I0.55 J0.
X11.3937 I-0.6063 J0.
X12.7187 I0.6625 J0.
X11.2812 I-0.7188 J0.
X12.7187 I0.7188 J0.
G1 X12.7186 Y1.0024 Z-0.2995
X12.7181 Y1.0047 Z-0.299
X12.7174 Y1.007 Z-0.2986
X12.716 Y1.0097 Z-0.2965
X12.7143 Y1.0122 Z-0.2945
X12.7129 Y1.0137 Z-0.2915
X12.7113 Y1.015 Z-0.2884
X12.7101 Y1.0158 Z-0.2813
G0 Z0.4
X2.4046 Y1.44
Z0.1
G1 Z0.0687 F24.
X2.4041 Y1.4413 Z0.0617 F33.3
X2.4026 Y1.4449 Z0.0557
X2.4 Y1.4502 Z0.0516
X2.3966 Y1.4562 Z0.05
G3 X2.2458 Y1.3613 Z0.0402 I-0.0754 J-0.0475
X2.3966 Y1.4562 Z0.0305 I0.0754 J0.0475
X2.2458 Y1.3613 Z0.0207 I-0.0754 J-0.0475
X2.3966 Y1.4562 Z0.0109 I0.0754 J0.0475
X2.2458 Y1.3613 Z0.0011 I-0.0754 J-0.0475
X2.3966 Y1.4562 Z-0.0086 I0.0754 J0.0475
X2.2458 Y1.3613 Z-0.0184 I-0.0754 J-0.0475
X2.3966 Y1.4562 Z-0.0282 I0.0754 J0.0475
X2.2458 Y1.3613 Z-0.0379 I-0.0754 J-0.0475
X2.3966 Y1.4562 Z-0.0477 I0.0754 J0.0475
X2.2458 Y1.3613 Z-0.0575 I-0.0754 J-0.0475
X2.3966 Y1.4562 Z-0.0672 I0.0754 J0.0475
X2.2458 Y1.3613 Z-0.077 I-0.0754 J-0.0475
X2.3966 Y1.4562 Z-0.0868 I0.0754 J0.0475
X2.2458 Y1.3613 Z-0.0966 I-0.0754 J-0.0475
X2.3966 Y1.4562 Z-0.1063 I0.0754 J0.0475
X2.2458 Y1.3613 Z-0.1161 I-0.0754 J-0.0475
X2.3966 Y1.4562 Z-0.1259 I0.0754 J0.0475
X2.2458 Y1.3613 Z-0.1356 I-0.0754 J-0.0475
X2.3966 Y1.4562 Z-0.1454 I0.0754 J0.0475
X2.2458 Y1.3613 Z-0.1552 I-0.0754 J-0.0475
X2.3966 Y1.4562 Z-0.165 I0.0754 J0.0475
X2.2458 Y1.3613 Z-0.1747 I-0.0754 J-0.0475
X2.3966 Y1.4562 Z-0.1845 I0.0754 J0.0475
X2.2458 Y1.3613 Z-0.1943 I-0.0754 J-0.0475
X2.3966 Y1.4562 Z-0.204 I0.0754 J0.0475
X2.2458 Y1.3613 Z-0.2138 I-0.0754 J-0.0475
X2.3966 Y1.4562 Z-0.2236 I0.0754 J0.0475
X2.2458 Y1.3613 Z-0.2334 I-0.0754 J-0.0475
X2.3966 Y1.4562 Z-0.2431 I0.0754 J0.0475
X2.2458 Y1.3613 Z-0.2529 I-0.0754 J-0.0475
X2.3966 Y1.4562 Z-0.2627 I0.0754 J0.0475
X2.2458 Y1.3613 Z-0.2724 I-0.0754 J-0.0475
X2.3966 Y1.4562 Z-0.2822 I0.0754 J0.0475
X2.2458 Y1.3613 Z-0.292 I-0.0754 J-0.0475
X2.4102 Y1.4087 Z-0.3 I0.0754 J0.0475
X2.3227 I-0.0437 J0. F75.
X2.5228 I0.1 J0.
X2.2103 I-0.1563 J0.
X2.6352 I0.2125 J0.
X2.0977 I-0.2687 J0.
X2.7477 I0.325 J0.
X1.9853 I-0.3812 J0.
X2.8603 I0.4375 J0.
X1.8727 I-0.4938 J0.
X2.9728 I0.55 J0.
X1.7603 I-0.6063 J0.
X3.0852 I0.6625 J0.
X1.6478 I-0.7187 J0.
X3.0852 I0.7187 J0.
G1 X3.085 Y1.4111 Z-0.2995
X3.0845 Y1.4134 Z-0.299
X3.0837 Y1.4157 Z-0.2986
X3.0822 Y1.4184 Z-0.2965
X3.0803 Y1.4207 Z-0.2945
X3.0789 Y1.4221 Z-0.2915
X3.0773 Y1.4234 Z-0.2884
X3.0761 Y1.4241 Z-0.2813
G0 Z0.4
X2.354 Y3.2025
Z0.1
G1 Z0.0687 F24.
X2.3535 Y3.2037 Z0.0617 F33.3
X2.352 Y3.2073 Z0.0557
X2.3494 Y3.2126 Z0.0516
X2.346 Y3.2186 Z0.05
G3 X2.1952 Y3.1237 Z0.0402 I-0.0754 J-0.0475
X2.346 Y3.2186 Z0.0305 I0.0754 J0.0475
X2.1952 Y3.1237 Z0.0207 I-0.0754 J-0.0475
X2.346 Y3.2186 Z0.0109 I0.0754 J0.0475
X2.1952 Y3.1237 Z0.0011 I-0.0754 J-0.0475
X2.346 Y3.2186 Z-0.0086 I0.0754 J0.0475
X2.1952 Y3.1237 Z-0.0184 I-0.0754 J-0.0475
X2.346 Y3.2186 Z-0.0282 I0.0754 J0.0475
X2.1952 Y3.1237 Z-0.0379 I-0.0754 J-0.0475
X2.346 Y3.2186 Z-0.0477 I0.0754 J0.0475
X2.1952 Y3.1237 Z-0.0575 I-0.0754 J-0.0475
X2.346 Y3.2186 Z-0.0672 I0.0754 J0.0475
X2.1952 Y3.1237 Z-0.077 I-0.0754 J-0.0475
X2.346 Y3.2186 Z-0.0868 I0.0754 J0.0475
X2.1952 Y3.1237 Z-0.0966 I-0.0754 J-0.0475
X2.346 Y3.2186 Z-0.1063 I0.0754 J0.0475
X2.1952 Y3.1237 Z-0.1161 I-0.0754 J-0.0475
X2.346 Y3.2186 Z-0.1259 I0.0754 J0.0475
X2.1952 Y3.1237 Z-0.1356 I-0.0754 J-0.0475
X2.346 Y3.2186 Z-0.1454 I0.0754 J0.0475
X2.1952 Y3.1237 Z-0.1552 I-0.0754 J-0.0475
X2.346 Y3.2186 Z-0.165 I0.0754 J0.0475
X2.1952 Y3.1237 Z-0.1747 I-0.0754 J-0.0475
X2.346 Y3.2186 Z-0.1845 I0.0754 J0.0475
X2.1952 Y3.1237 Z-0.1943 I-0.0754 J-0.0475
X2.346 Y3.2186 Z-0.204 I0.0754 J0.0475
X2.1952 Y3.1237 Z-0.2138 I-0.0754 J-0.0475
X2.346 Y3.2186 Z-0.2236 I0.0754 J0.0475
X2.1952 Y3.1237 Z-0.2334 I-0.0754 J-0.0475
X2.346 Y3.2186 Z-0.2431 I0.0754 J0.0475
X2.1952 Y3.1237 Z-0.2529 I-0.0754 J-0.0475
X2.346 Y3.2186 Z-0.2627 I0.0754 J0.0475
X2.1952 Y3.1237 Z-0.2724 I-0.0754 J-0.0475
X2.346 Y3.2186 Z-0.2822 I0.0754 J0.0475
X2.1952 Y3.1237 Z-0.292 I-0.0754 J-0.0475
X2.3597 Y3.1712 Z-0.3 I0.0754 J0.0475
X2.3222 I-0.0187 J0. F75.
X2.4722 I0.075 J0.
X2.2097 I-0.1312 J0.
X2.5847 I0.1875 J0.
X2.0972 I-0.2437 J0.
X2.6972 I0.3 J0.
X1.9847 I-0.3562 J0.
X2.8097 I0.4125 J0.
X1.8722 I-0.4687 J0.
X2.8097 I0.4687 J0.
G1 X2.8094 Y3.1736 Z-0.2995
X2.8089 Y3.1759 Z-0.299
X2.8081 Y3.1781 Z-0.2986
X2.8066 Y3.1808 Z-0.2965
X2.8048 Y3.1832 Z-0.2945
X2.8033 Y3.1846 Z-0.2915
X2.8017 Y3.1858 Z-0.2884
X2.8005 Y3.1866 Z-0.2813
G0 Z0.8

(2D CONTOUR1 2)
G0 X-0.0187 Y5.9729
Z0.8
Z0.1
G1 Z0.0687 F24.
G19 G2 Y5.9541 Z0.05 J-0.0187 K0. F20.
G17
G1 G42 X-0.0281 Y5.9354 D3
G3 X0. Y5.9073 I0.0281 J0.
G1 X2.9928 Z0.0017 F33.3
X2.9941
X14.987 Y7.5928 Z-0.1937
G2 X15.0938 Y7.5 Z-0.1963 I0.013 J-0.0928
G1 Y5.7948 Z-0.2238
Z-0.18
Y5.4198
Z-0.2299 F24.
Y2.3143 Z-0.28 F33.3
Y0. F75.
G2 X15. Y-0.0937 I-0.0938 J0.
G1 X9.5802
Z-0.18
X9.2052
Z-0.28 F24.
X0. F75.
G2 X-0.0937 Y0. I0. J0.0937
G1 Y1.6344
Z-0.18
Y2.0094
Z-0.28 F24.
Y2.1865 F75.
G2 X0. Y2.2803 I0.0937 J0.
G3 Y4.5928 I0. J1.1562
G2 X-0.0937 Y4.6865 I0. J0.0937
G1 Y5.8135
G2 X0. Y5.9073 I0.0937 J0.
G1 X2.9928
X2.9941
X5.5701 Y6.2694
Z-0.18
X5.9414 Y6.3216
Z-0.28 F24.
X14.987 Y7.5928 F75.
G2 X15.0938 Y7.5 I0.013 J-0.0928
G1 Y5.7948
Z-0.18
Y5.4198
Z-0.28 F24.
Y2.3143 F75.
G3 X15.1219 Y2.2862 I0.0281 J0.
G1 G40 X15.1406 Y2.2956
G18 G2 X15.1594 Z-0.2613 I0. K0.0188
G0 Z0.8
G17

M5
G28 G91 Z0.
G90
G28 G91 X0. Y0.
G90
M30
